; Generated with MatterSlice 1.0
; filamentDiameter = 1.75
; extrusionWidth = 0.5
; firstLayerExtrusionWidth = 0.65
; layerThickness = 0.2
; firstLayerThickness = 0.3
; automatic settings before start_gcode
G21 ; set units to millimeters
M107 ; fan off
M190 S60 ; wait for bed temperature to be reached
M104 T0 S210 ; start heating extruder 1
M109 T0 S210 ; wait for extruder 1
T0 ; set the active extruder to 0
; settings from start_gcode
G28
; automatic settings after start_gcode
T0 ; set the active extruder to 0
G90 ; use absolute coordinates
G92 E0 ; reset the expected extruder position
M82 ; use absolute distance for extrusion
; Layer count: 10
; Layer Change GCode
; LAYER:0
M400
M107
G0 F12000 X51.105 Y-51.662 Z0.8
; TYPE:SKIRT
G1 Z0.3
G1 F6000 E0
G1 F900 X70.975 Y-2.509 E4.2982
G1 X70.975 Y14.934 E5.71233
G1 X62.135 Y40.387 E7.89675
G1 X-25.67 Y72.345 E15.47208
G1 X-70.974 Y26.393 E20.70358
G1 X-70.974 Y-28.486 E25.15271
G1 X-54.675 Y-51.847 E27.46203
G1 X-14.507 Y-71.711 E31.09494
G1 X8.896 Y-71.711 E32.99226
G1 X51.105 Y-51.662 E36.78062
G0 F12000 X50.597 Y-51.183
G1 F900 X70.325 Y-2.383 E41.04797
G1 X70.325 Y14.824 E42.44297
G1 X61.622 Y39.882 E44.5935
G1 X-25.5 Y71.592 E52.10992
G1 X-70.324 Y26.126 E57.28604
G1 X-70.324 Y-28.281 E61.6969
G1 X-54.238 Y-51.338 E63.97613
G1 X-14.355 Y-71.061 E67.58327
G1 X8.75 Y-71.061 E69.45643
G1 X50.597 Y-51.183 E73.21233
G1 F6000 E70.71233
G0 F900 X41.565 Y-55.473
G1 Z0.8
G0 F12000 X49.5 Y-31.236
G0 X20.579 Y-23.736
G0 X19.604 Y-22.761
G0 X-0.024 Y-8.711
G0 X-0.674 Y-8.061
; TYPE:WALL-OUTER
G1 Z0.3
G1 F6000 E73.21233
G1 F900 X-0.674 Y-23.411 E74.45678
G1 X20.254 Y-23.411 E76.15345
G1 X20.254 Y-8.061 E77.3979
G1 X-0.674 Y-8.061 E79.09456
G0 F12000 X-0.024 Y-8.711
; TYPE:WALL-INNER
G1 F900 X-0.024 Y-22.761 E80.23362
G1 X19.604 Y-22.761 E81.82489
G1 X19.604 Y-8.711 E82.96395
G1 X-0.024 Y-8.711 E84.55522
G0 F12000 X0.626 Y-9.361
G1 F900 X0.626 Y-22.111 E85.58888
G1 X18.954 Y-22.111 E87.07476
G1 X18.954 Y-9.361 E88.10842
G1 X0.626 Y-9.361 E89.5943
G0 F12000 X1.025 Y-10.4
; TYPE:BOTTOM-FILL
G1 F900 X18.554 Y-10.4 E91.01541
G0 F12000 X18.554 Y-11.05
G1 F900 X1.025 Y-11.05 E92.43651
G0 F12000 X1.025 Y-11.7
G1 F900 X18.554 Y-11.7 E93.85762
G0 F12000 X18.554 Y-12.35
G1 F900 X1.025 Y-12.35 E95.27872
G0 F12000 X1.025 Y-13
G1 F900 X18.554 Y-13 E96.69982
G0 F12000 X18.554 Y-13.65
G1 F900 X1.025 Y-13.65 E98.12093
G0 F12000 X1.025 Y-14.3
G1 F900 X18.554 Y-14.3 E99.54203
G0 F12000 X18.554 Y-14.95
G1 F900 X1.025 Y-14.95 E100.96313
G0 F12000 X1.025 Y-15.6
G1 F900 X18.554 Y-15.6 E102.38424
G0 F12000 X18.554 Y-16.25
G1 F900 X1.025 Y-16.25 E103.80534
G0 F12000 X1.025 Y-16.9
G1 F900 X18.554 Y-16.9 E105.22645
G0 F12000 X18.554 Y-17.55
G1 F900 X1.025 Y-17.55 E106.64755
G0 F12000 X1.025 Y-18.2
G1 F900 X18.554 Y-18.2 E108.06865
G0 F12000 X18.554 Y-18.85
G1 F900 X1.025 Y-18.85 E109.48976
G0 F12000 X1.025 Y-19.5
G1 F900 X18.554 Y-19.5 E110.91086
G0 F12000 X18.554 Y-20.15
G1 F900 X1.025 Y-20.15 E112.33196
G0 F12000 X1.025 Y-20.8
G1 F900 X18.554 Y-20.8 E113.75307
G0 F12000 X18.554 Y-21.45
G1 F900 X1.025 Y-21.45 E115.17417
G1 F6000 E112.67417
G0 F900 X11.025 Y-21.45
G1 Z0.8
G0 F12000 X-0.024 Y-22.761
G0 X-0.999 Y-23.736
G0 X-6.999 Y-31.236
G0 X-8.499 Y-32.736
G0 X-8.499 Y-33.711
G0 X-9.474 Y-33.711
G0 X-16.54 Y-31.533
G0 X-17.38 Y-31.185
G0 X-18.282 Y-31.067
G0 X-19.184 Y-31.185
G0 X-20.024 Y-31.534
G0 X-20.744 Y-32.087
G0 X-21.299 Y-32.808
G0 X-21.44 Y-33.152
G0 X-23.524 Y-33.061
G0 X-24.174 Y-33.061
; TYPE:WALL-OUTER
G1 Z0.3
G1 F6000 E115.17417
G1 F900 X-51.674 Y-33.061 E117.40364
G1 X-51.674 Y-48.411 E118.64809
G1 X47.675 Y-48.411 E126.70247
G1 X47.675 Y-33.061 E127.94692
G1 X-8.824 Y-33.061 E132.52738
G1 X-8.824 Y-8.061 E134.55417
G1 X-24.174 Y-8.061 E135.79862
G1 X-24.174 Y-33.061 E137.82541
G0 F12000 X-23.524 Y-33.061
G0 X-23.524 Y-33.711
; TYPE:WALL-INNER
G1 F900 X-51.024 Y-33.711 E140.05488
G1 X-51.024 Y-47.761 E141.19393
G1 X47.025 Y-47.761 E149.14292
G1 X47.025 Y-33.711 E150.28198
G1 X-9.474 Y-33.711 E154.86244
G1 X-9.474 Y-8.711 E156.88923
G1 X-23.524 Y-8.711 E158.02828
G1 X-23.524 Y-33.711 E160.05507
G0 F12000 X-22.874 Y-34.361
G1 F900 X-50.374 Y-34.361 E162.28454
G1 X-50.374 Y-47.111 E163.3182
G1 X46.375 Y-47.111 E171.1618
G1 X46.375 Y-34.361 E172.19546
G1 X-10.124 Y-34.361 E176.77592
G1 X-10.124 Y-9.361 E178.80271
G1 X-22.874 Y-9.361 E179.83638
G1 X-22.874 Y-34.361 E181.86317
G1 F6000 E179.36317
G0 F900 X-22.874 Y-24.361
G1 Z0.8
G0 F12000 X-20.744 Y-32.087
G0 X-20.024 Y-31.534
G0 X-19.184 Y-31.185
G0 X-18.366 Y-31.078
G0 X-18.282 Y-31.722
; TYPE:WALL-OUTER
G1 Z0.3
G1 F6000 E181.86317
G1 F900 X-17.55 Y-31.818 E181.92302
G1 X-16.868 Y-32.101 E181.98288
G1 X-16.282 Y-32.55 E182.04273
G1 X-15.833 Y-33.136 E182.10258
G1 X-15.55 Y-33.818 E182.16244
G1 X-15.454 Y-34.55 E182.2223
G1 X-15.55 Y-35.282 E182.28215
G1 X-15.833 Y-35.964 E182.34201
G1 X-16.282 Y-36.55 E182.40186
G1 X-16.868 Y-36.999 E182.46171
G1 X-17.55 Y-37.282 E182.52157
G1 X-18.282 Y-37.378 E182.58143
G1 X-19.014 Y-37.282 E182.64128
G1 X-19.696 Y-36.999 E182.70114
G1 X-20.281 Y-36.55 E182.76093
G1 X-20.731 Y-35.964 E182.82083
G1 X-21.013 Y-35.282 E182.88066
G1 X-21.11 Y-34.55 E182.94052
G1 X-21.013 Y-33.818 E183.00038
G1 X-20.731 Y-33.136 E183.06021
G1 X-20.281 Y-32.55 E183.12011
G1 X-19.696 Y-32.101 E183.1799
G1 X-19.014 Y-31.818 E183.23976
G1 X-18.282 Y-31.722 E183.29961
G0 F12000 X-18.366 Y-31.078
G0 X-18.282 Y-31.067
; TYPE:WALL-INNER
G1 F900 X-17.38 Y-31.185 E183.37336
G1 X-16.54 Y-31.533 E183.44708
G1 X-15.819 Y-32.087 E183.52079
G1 X-15.265 Y-32.808 E183.59451
G1 X-14.917 Y-33.648 E183.66822
G1 X-14.799 Y-34.55 E183.74197
G1 X-14.917 Y-35.452 E183.81572
G1 X-15.265 Y-36.292 E183.88943
G1 X-15.819 Y-37.013 E183.96315
G1 X-16.54 Y-37.567 E184.03686
G1 X-17.38 Y-37.915 E184.11058
G1 X-18.282 Y-38.033 E184.18433
G1 X-19.184 Y-37.915 E184.25807
G1 X-20.024 Y-37.566 E184.33182
G1 X-20.744 Y-37.013 E184.40542
G1 X-21.299 Y-36.292 E184.47919
G1 X-21.646 Y-35.452 E184.55287
G1 X-21.766 Y-34.55 E184.62664
G1 X-21.646 Y-33.648 E184.70041
G1 X-21.299 Y-32.808 E184.77409
G1 X-20.744 Y-32.087 E184.84786
G1 X-20.024 Y-31.534 E184.92146
G1 X-19.184 Y-31.185 E184.9952
G1 X-18.282 Y-31.067 E185.06895
G0 F12000 X-18.282 Y-30.411
G1 F900 X-17.211 Y-30.552 E185.15653
G1 X-16.213 Y-30.966 E185.24412
G1 X-15.355 Y-31.623 E185.33173
G1 X-14.698 Y-32.481 E185.41934
G1 X-14.284 Y-33.479 E185.50694
G1 X-14.143 Y-34.55 E185.59451
G1 X-14.284 Y-35.621 E185.68209
G1 X-14.698 Y-36.619 E185.76969
G1 X-15.355 Y-37.477 E185.8573
G1 X-16.213 Y-38.134 E185.94491
G1 X-17.211 Y-38.548 E186.0325
G1 X-18.282 Y-38.689 E186.12008
G1 X-19.353 Y-38.548 E186.20766
G1 X-20.352 Y-38.134 E186.29533
G1 X-21.208 Y-37.477 E186.38281
G1 X-21.867 Y-36.619 E186.47052
G1 X-22.279 Y-35.621 E186.55805
G1 X-22.421 Y-34.55 E186.64564
G1 X-22.279 Y-33.479 E186.73322
G1 X-21.867 Y-32.481 E186.82076
G1 X-21.208 Y-31.623 E186.90847
G1 X-20.352 Y-30.966 E186.99595
G1 X-19.353 Y-30.552 E187.08362
G1 X-18.282 Y-30.411 E187.17119
G1 F6000 E184.67119
G0 F900 X-19.353 Y-30.552
G0 X-20.352 Y-30.966
G0 X-21.208 Y-31.623
G0 X-21.867 Y-32.481
G0 X-22.279 Y-33.479
G0 X-22.421 Y-34.55
G0 X-22.279 Y-35.621
G0 X-21.867 Y-36.619
G0 X-21.208 Y-37.477
G0 X-20.986 Y-37.647
G1 Z0.8
G0 F12000 X-16.54 Y-31.533
G0 X-8.083 Y-37.265
G0 X-7.999 Y-37.908
; TYPE:WALL-OUTER
G1 Z0.3
G1 F6000 E187.17119
G1 F900 X-7.266 Y-38.004 E187.23113
G1 X-6.585 Y-38.286 E187.29088
G1 X-5.999 Y-38.736 E187.35078
G1 X-5.549 Y-39.322 E187.41068
G1 X-5.267 Y-40.003 E187.47044
G1 X-5.171 Y-40.736 E187.53037
G1 X-5.267 Y-41.468 E187.59022
G1 X-5.549 Y-42.15 E187.65005
G1 X-5.999 Y-42.735 E187.70989
G1 X-6.585 Y-43.185 E187.76979
G1 X-7.266 Y-43.467 E187.82955
G1 X-7.999 Y-43.564 E187.88949
G1 X-8.731 Y-43.467 E187.94935
G1 X-9.413 Y-43.185 E188.00918
G1 X-9.998 Y-42.735 E188.06902
G1 X-10.448 Y-42.15 E188.12885
G1 X-10.73 Y-41.468 E188.18869
G1 X-10.827 Y-40.736 E188.24855
G1 X-10.73 Y-40.003 E188.30849
G1 X-10.448 Y-39.322 E188.36825
G1 X-9.998 Y-38.736 E188.42815
G1 X-9.413 Y-38.286 E188.48798
G1 X-8.731 Y-38.004 E188.54781
G1 X-7.999 Y-37.908 E188.60767
G0 F12000 X-8.083 Y-37.265
G0 X-7.999 Y-37.253
; TYPE:WALL-INNER
G1 F900 X-7.097 Y-37.371 E188.68142
G1 X-6.257 Y-37.718 E188.7551
G1 X-5.536 Y-38.273 E188.82886
G1 X-4.981 Y-38.994 E188.90263
G1 X-4.634 Y-39.834 E188.97631
G1 X-4.516 Y-40.736 E189.05006
G1 X-4.634 Y-41.637 E189.12373
G1 X-4.981 Y-42.478 E189.19749
G1 X-5.536 Y-43.199 E189.27125
G1 X-6.257 Y-43.753 E189.34497
G1 X-7.096 Y-44.1 E189.41857
G1 X-7.999 Y-44.22 E189.49242
G1 X-8.901 Y-44.1 E189.56619
G1 X-9.741 Y-43.753 E189.63988
G1 X-10.461 Y-43.198 E189.71358
G1 X-11.016 Y-42.478 E189.78728
G1 X-11.363 Y-41.638 E189.86096
G1 X-11.483 Y-40.736 E189.93473
G1 X-11.363 Y-39.833 E190.00858
G1 X-11.016 Y-38.994 E190.08219
G1 X-10.462 Y-38.273 E190.1559
G1 X-9.741 Y-37.718 E190.22967
G1 X-8.9 Y-37.371 E190.30343
G1 X-7.999 Y-37.253 E190.37709
G0 F12000 X-7.999 Y-36.597
G1 F900 X-6.928 Y-36.738 E190.46467
G1 X-5.929 Y-37.151 E190.55231
G1 X-5.072 Y-37.809 E190.63991
G1 X-4.414 Y-38.666 E190.7275
G1 X-4.001 Y-39.665 E190.81514
G1 X-3.86 Y-40.736 E190.90272
G1 X-4.001 Y-41.806 E190.99021
G1 X-4.414 Y-42.806 E191.07793
G1 X-5.073 Y-43.662 E191.16551
G1 X-5.929 Y-44.32 E191.25304
G1 X-6.926 Y-44.733 E191.34053
G1 X-7.999 Y-44.875 E191.42828
G1 X-9.07 Y-44.733 E191.51586
G1 X-10.069 Y-44.32 E191.6035
G1 X-10.925 Y-43.662 E191.69103
G1 X-11.583 Y-42.806 E191.77856
G1 X-11.996 Y-41.807 E191.8662
G1 X-12.138 Y-40.736 E191.95379
G1 X-11.996 Y-39.663 E192.04154
G1 X-11.583 Y-38.666 E192.12903
G1 X-10.925 Y-37.81 E192.21656
G1 X-10.069 Y-37.151 E192.30414
G1 X-9.069 Y-36.738 E192.39185
G1 X-7.999 Y-36.597 E192.47935
G1 F6000 E189.97935
G0 F900 X-9.069 Y-36.738
G0 X-10.069 Y-37.151
G0 X-10.925 Y-37.81
G0 X-11.583 Y-38.666
G0 X-11.996 Y-39.663
G0 X-12.138 Y-40.736
G0 X-11.996 Y-41.807
G0 X-11.583 Y-42.806
G0 X-10.925 Y-43.662
G0 X-10.703 Y-43.832
G1 Z0.8
G0 F12000 X3.916 Y-37.264
G0 X4 Y-37.908
; TYPE:WALL-OUTER
G1 Z0.3
G1 F6000 E192.47935
G1 F900 X4.732 Y-38.004 E192.5392
G1 X5.414 Y-38.286 E192.59903
G1 X5.999 Y-38.736 E192.65887
G1 X6.449 Y-39.322 E192.71877
G1 X6.731 Y-40.003 E192.77852
G1 X6.828 Y-40.736 E192.83847
G1 X6.731 Y-41.468 E192.89833
G1 X6.449 Y-42.15 E192.95816
G1 X5.999 Y-42.735 E193.018
G1 X5.414 Y-43.185 E193.07783
G1 X4.732 Y-43.467 E193.13766
G1 X4 Y-43.564 E193.19753
G1 X3.267 Y-43.467 E193.25747
G1 X2.586 Y-43.185 E193.31723
G1 X2 Y-42.735 E193.37712
G1 X1.55 Y-42.15 E193.43696
G1 X1.268 Y-41.468 E193.49679
G1 X1.172 Y-40.736 E193.55664
G1 X1.268 Y-40.003 E193.61658
G1 X1.55 Y-39.322 E193.67633
G1 X2 Y-38.736 E193.73623
G1 X2.586 Y-38.286 E193.79613
G1 X3.267 Y-38.004 E193.85589
G1 X4 Y-37.908 E193.91582
G0 F12000 X3.916 Y-37.264
G0 X4 Y-37.253
; TYPE:WALL-INNER
G1 F900 X4.901 Y-37.371 E193.98949
G1 X5.742 Y-37.718 E194.06325
G1 X6.463 Y-38.273 E194.13701
G1 X7.017 Y-38.994 E194.21073
G1 X7.364 Y-39.833 E194.28433
G1 X7.484 Y-40.736 E194.35819
G1 X7.364 Y-41.638 E194.43196
G1 X7.017 Y-42.478 E194.50564
G1 X6.462 Y-43.198 E194.57934
G1 X5.742 Y-43.753 E194.65304
G1 X4.902 Y-44.1 E194.72672
G1 X4 Y-44.22 E194.80049
G1 X3.097 Y-44.1 E194.87434
G1 X2.258 Y-43.753 E194.94795
G1 X1.537 Y-43.199 E195.02167
G1 X0.982 Y-42.478 E195.09543
G1 X0.635 Y-41.637 E195.16919
G1 X0.517 Y-40.736 E195.24286
G1 X0.635 Y-39.834 E195.31661
G1 X0.982 Y-38.994 E195.39029
G1 X1.537 Y-38.273 E195.46405
G1 X2.258 Y-37.718 E195.53782
G1 X3.098 Y-37.371 E195.6115
G1 X4 Y-37.253 E195.68525
G0 F12000 X4 Y-36.597
G1 F900 X5.07 Y-36.738 E195.77275
G1 X6.07 Y-37.151 E195.86046
G1 X6.926 Y-37.81 E195.94804
G1 X7.584 Y-38.666 E196.03557
G1 X7.997 Y-39.663 E196.12306
G1 X8.139 Y-40.736 E196.21081
G1 X7.997 Y-41.807 E196.2984
G1 X7.584 Y-42.806 E196.38603
G1 X6.926 Y-43.662 E196.47356
G1 X6.07 Y-44.32 E196.5611
G1 X5.071 Y-44.733 E196.64873
G1 X4 Y-44.875 E196.73632
G1 X2.927 Y-44.733 E196.82407
G1 X1.93 Y-44.32 E196.91156
G1 X1.074 Y-43.662 E196.99909
G1 X0.415 Y-42.806 E197.08667
G1 X0.002 Y-41.806 E197.17438
G1 X-0.139 Y-40.736 E197.26188
G1 X0.002 Y-39.665 E197.34946
G1 X0.415 Y-38.666 E197.4371
G1 X1.073 Y-37.809 E197.52469
G1 X1.93 Y-37.151 E197.61229
G1 X2.929 Y-36.738 E197.69993
G1 X4 Y-36.597 E197.7875
G1 F6000 E195.2875
G0 F900 X2.929 Y-36.738
G0 X1.93 Y-37.151
G0 X1.073 Y-37.809
G0 X0.415 Y-38.666
G0 X0.002 Y-39.665
G0 X-0.139 Y-40.736
G0 X0.002 Y-41.806
G0 X0.415 Y-42.806
G0 X1.074 Y-43.662
G0 X1.294 Y-43.831
G1 Z0.8
G0 F12000 X15.916 Y-37.264
G0 X16 Y-37.908
; TYPE:WALL-OUTER
G1 Z0.3
G1 F6000 E197.7875
G1 F900 X16.732 Y-38.004 E197.84736
G1 X17.414 Y-38.286 E197.90719
G1 X17.999 Y-38.736 E197.96702
G1 X18.449 Y-39.322 E198.02692
G1 X18.731 Y-40.003 E198.08668
G1 X18.828 Y-40.736 E198.14662
G1 X18.731 Y-41.468 E198.20648
G1 X18.449 Y-42.15 E198.26632
G1 X17.999 Y-42.735 E198.32615
G1 X17.414 Y-43.185 E198.38599
G1 X16.732 Y-43.467 E198.44582
G1 X16 Y-43.564 E198.50568
G1 X15.267 Y-43.467 E198.56562
G1 X14.586 Y-43.185 E198.62538
G1 X14 Y-42.735 E198.68528
G1 X13.55 Y-42.15 E198.74511
G1 X13.268 Y-41.468 E198.80495
G1 X13.172 Y-40.736 E198.8648
G1 X13.268 Y-40.003 E198.92473
G1 X13.55 Y-39.322 E198.98449
G1 X14 Y-38.736 E199.04439
G1 X14.586 Y-38.286 E199.10429
G1 X15.267 Y-38.004 E199.16404
G1 X16 Y-37.908 E199.22398
G0 F12000 X15.916 Y-37.264
G0 X16 Y-37.253
; TYPE:WALL-INNER
G1 F900 X16.901 Y-37.371 E199.29764
G1 X17.742 Y-37.718 E199.3714
G1 X18.463 Y-38.273 E199.44517
G1 X19.017 Y-38.994 E199.51888
G1 X19.364 Y-39.833 E199.59249
G1 X19.484 Y-40.736 E199.66634
G1 X19.364 Y-41.638 E199.74011
G1 X19.017 Y-42.478 E199.81379
G1 X18.462 Y-43.198 E199.88749
G1 X17.742 Y-43.753 E199.96119
G1 X16.902 Y-44.1 E200.03488
G1 X16 Y-44.22 E200.10865
G1 X15.097 Y-44.1 E200.1825
G1 X14.258 Y-43.753 E200.2561
G1 X13.537 Y-43.199 E200.32982
G1 X12.982 Y-42.478 E200.40358
G1 X12.635 Y-41.637 E200.47734
G1 X12.517 Y-40.736 E200.55101
G1 X12.635 Y-39.834 E200.62476
G1 X12.982 Y-38.994 E200.69844
G1 X13.537 Y-38.273 E200.77221
G1 X14.258 Y-37.718 E200.84597
G1 X15.098 Y-37.371 E200.91965
G1 X16 Y-37.253 E200.9934
G0 F12000 X16 Y-36.597
G1 F900 X17.07 Y-36.738 E201.0809
G1 X18.07 Y-37.151 E201.16861
G1 X18.926 Y-37.81 E201.25619
G1 X19.584 Y-38.666 E201.34372
G1 X19.997 Y-39.663 E201.43121
G1 X20.139 Y-40.736 E201.51896
G1 X19.997 Y-41.807 E201.60655
G1 X19.584 Y-42.806 E201.69419
G1 X18.926 Y-43.662 E201.78172
G1 X18.07 Y-44.32 E201.86925
G1 X17.071 Y-44.733 E201.95689
G1 X16 Y-44.875 E202.04448
G1 X14.927 Y-44.733 E202.13222
G1 X13.93 Y-44.32 E202.21971
G1 X13.074 Y-43.662 E202.30724
G1 X12.415 Y-42.806 E202.39483
G1 X12.002 Y-41.806 E202.48254
G1 X11.861 Y-40.736 E202.57004
G1 X12.002 Y-39.665 E202.65761
G1 X12.415 Y-38.666 E202.74525
G1 X13.073 Y-37.809 E202.83285
G1 X13.93 Y-37.151 E202.92044
G1 X14.929 Y-36.738 E203.00808
G1 X16 Y-36.597 E203.09566
G1 F6000 E200.59566
G0 F900 X14.929 Y-36.738
G0 X13.93 Y-37.151
G0 X13.073 Y-37.809
G0 X12.415 Y-38.666
G0 X12.002 Y-39.665
G0 X11.861 Y-40.736
G0 X12.002 Y-41.806
G0 X12.415 Y-42.806
G0 X13.074 Y-43.662
G0 X13.294 Y-43.831
G1 Z0.8
G0 F12000 X37.916 Y-37.264
G0 X38 Y-37.908
; TYPE:WALL-OUTER
G1 Z0.3
G1 F6000 E203.09566
G1 F900 X38.732 Y-38.004 E203.15551
G1 X39.414 Y-38.286 E203.21534
G1 X39.999 Y-38.736 E203.27518
G1 X40.449 Y-39.322 E203.33508
G1 X40.731 Y-40.003 E203.39483
G1 X40.828 Y-40.736 E203.45478
G1 X40.731 Y-41.468 E203.51464
G1 X40.449 Y-42.15 E203.57447
G1 X39.999 Y-42.735 E203.6343
G1 X39.414 Y-43.185 E203.69414
G1 X38.732 Y-43.467 E203.75397
G1 X38 Y-43.564 E203.81383
G1 X37.267 Y-43.467 E203.87378
G1 X36.586 Y-43.185 E203.93353
G1 X36 Y-42.735 E203.99343
G1 X35.55 Y-42.15 E204.05327
G1 X35.268 Y-41.468 E204.1131
G1 X35.172 Y-40.736 E204.17295
G1 X35.268 Y-40.003 E204.23289
G1 X35.55 Y-39.322 E204.29264
G1 X36 Y-38.736 E204.35254
G1 X36.586 Y-38.286 E204.41244
G1 X37.267 Y-38.004 E204.4722
G1 X38 Y-37.908 E204.53213
G0 F12000 X37.916 Y-37.264
G0 X38 Y-37.253
; TYPE:WALL-INNER
G1 F900 X38.901 Y-37.371 E204.6058
G1 X39.742 Y-37.718 E204.67956
G1 X40.463 Y-38.273 E204.75332
G1 X41.017 Y-38.994 E204.82704
G1 X41.364 Y-39.833 E204.90064
G1 X41.484 Y-40.736 E204.97449
G1 X41.364 Y-41.638 E205.04826
G1 X41.017 Y-42.478 E205.12195
G1 X40.462 Y-43.198 E205.19565
G1 X39.742 Y-43.753 E205.26935
G1 X38.902 Y-44.1 E205.34303
G1 X38 Y-44.22 E205.4168
G1 X37.097 Y-44.1 E205.49065
G1 X36.258 Y-43.753 E205.56426
G1 X35.537 Y-43.199 E205.63797
G1 X34.982 Y-42.478 E205.71174
G1 X34.635 Y-41.637 E205.7855
G1 X34.517 Y-40.736 E205.85917
G1 X34.635 Y-39.834 E205.93291
G1 X34.982 Y-38.994 E206.0066
G1 X35.537 Y-38.273 E206.08036
G1 X36.258 Y-37.718 E206.15413
G1 X37.098 Y-37.371 E206.22781
G1 X38 Y-37.253 E206.30156
G0 F12000 X38 Y-36.597
G1 F900 X39.07 Y-36.738 E206.38905
G1 X40.07 Y-37.151 E206.47677
G1 X40.926 Y-37.81 E206.56435
G1 X41.584 Y-38.666 E206.65188
G1 X41.997 Y-39.663 E206.73937
G1 X42.139 Y-40.736 E206.82712
G1 X41.997 Y-41.807 E206.9147
G1 X41.584 Y-42.806 E207.00234
G1 X40.926 Y-43.662 E207.08987
G1 X40.07 Y-44.32 E207.1774
G1 X39.071 Y-44.733 E207.26504
G1 X38 Y-44.875 E207.35263
G1 X36.927 Y-44.733 E207.44038
G1 X35.93 Y-44.32 E207.52787
G1 X35.074 Y-43.662 E207.6154
G1 X34.415 Y-42.806 E207.70298
G1 X34.002 Y-41.806 E207.79069
G1 X33.861 Y-40.736 E207.87819
G1 X34.002 Y-39.665 E207.96577
G1 X34.415 Y-38.666 E208.05341
G1 X35.073 Y-37.809 E208.141
G1 X35.93 Y-37.151 E208.2286
G1 X36.929 Y-36.738 E208.31623
G1 X38 Y-36.597 E208.40381
G1 F6000 E205.90381
G0 F900 X36.929 Y-36.738
G0 X35.93 Y-37.151
G0 X35.073 Y-37.809
G0 X34.415 Y-38.666
G0 X34.002 Y-39.665
G0 X33.861 Y-40.736
G0 X34.002 Y-41.806
G0 X34.415 Y-42.806
G0 X35.074 Y-43.662
G0 X35.294 Y-43.831
G1 Z0.8
G0 F12000 X-9.474 Y-33.711
G0 X-9.474 Y-13.268
G0 X-13.757 Y-10.718
G0 X-14.597 Y-10.371
G0 X-15.499 Y-10.253
G0 X-15.583 Y-10.265
G0 X-15.499 Y-10.908
; TYPE:WALL-OUTER
G1 Z0.3
G1 F6000 E208.40381
G1 F900 X-14.766 Y-11.004 E208.46374
G1 X-14.085 Y-11.286 E208.5235
G1 X-13.499 Y-11.736 E208.5834
G1 X-13.049 Y-12.322 E208.6433
G1 X-12.767 Y-13.003 E208.70306
G1 X-12.671 Y-13.736 E208.76299
G1 X-12.767 Y-14.468 E208.82284
G1 X-13.049 Y-15.15 E208.88267
G1 X-13.499 Y-15.735 E208.94251
G1 X-14.085 Y-16.185 E209.00241
G1 X-14.766 Y-16.467 E209.06216
G1 X-15.499 Y-16.564 E209.12211
G1 X-16.231 Y-16.467 E209.18197
G1 X-16.913 Y-16.185 E209.2418
G1 X-17.498 Y-15.735 E209.30164
G1 X-17.948 Y-15.15 E209.36147
G1 X-18.23 Y-14.468 E209.4213
G1 X-18.327 Y-13.736 E209.48117
G1 X-18.23 Y-13.003 E209.54111
G1 X-17.948 Y-12.322 E209.60087
G1 X-17.498 Y-11.736 E209.66077
G1 X-16.913 Y-11.286 E209.7206
G1 X-16.231 Y-11.004 E209.78043
G1 X-15.499 Y-10.908 E209.84028
G0 F12000 X-15.583 Y-10.265
G0 X-15.499 Y-10.253
; TYPE:WALL-INNER
G1 F900 X-14.597 Y-10.371 E209.91403
G1 X-13.757 Y-10.718 E209.98772
G1 X-13.036 Y-11.273 E210.06148
G1 X-12.481 Y-11.994 E210.13525
G1 X-12.134 Y-12.834 E210.20893
G1 X-12.016 Y-13.736 E210.28268
G1 X-12.134 Y-14.637 E210.35635
G1 X-12.481 Y-15.478 E210.4301
G1 X-13.036 Y-16.199 E210.50387
G1 X-13.757 Y-16.753 E210.57758
G1 X-14.596 Y-17.1 E210.65119
G1 X-15.499 Y-17.22 E210.72504
G1 X-16.401 Y-17.1 E210.79881
G1 X-17.241 Y-16.753 E210.87249
G1 X-17.961 Y-16.198 E210.94619
G1 X-18.516 Y-15.478 E211.01989
G1 X-18.863 Y-14.638 E211.09358
G1 X-18.983 Y-13.736 E211.16735
G1 X-18.863 Y-12.833 E211.2412
G1 X-18.516 Y-11.994 E211.31481
G1 X-17.962 Y-11.273 E211.38852
G1 X-17.241 Y-10.718 E211.46229
G1 X-16.4 Y-10.371 E211.53604
G1 X-15.499 Y-10.253 E211.60971
G0 F12000 X-15.499 Y-9.597
G1 F900 X-14.428 Y-9.738 E211.69729
G1 X-13.429 Y-10.151 E211.78493
G1 X-12.572 Y-10.809 E211.87252
G1 X-11.914 Y-11.666 E211.96012
G1 X-11.501 Y-12.665 E212.04776
G1 X-11.36 Y-13.736 E212.13533
G1 X-11.501 Y-14.806 E212.22283
G1 X-11.914 Y-15.806 E212.31054
G1 X-12.573 Y-16.662 E212.39812
G1 X-13.429 Y-17.32 E212.48566
G1 X-14.426 Y-17.733 E212.57314
G1 X-15.499 Y-17.875 E212.66089
G1 X-16.57 Y-17.733 E212.74848
G1 X-17.569 Y-17.32 E212.83612
G1 X-18.425 Y-16.662 E212.92365
G1 X-19.083 Y-15.806 E213.01118
G1 X-19.496 Y-14.807 E213.09882
G1 X-19.638 Y-13.736 E213.18641
G1 X-19.496 Y-12.663 E213.27416
G1 X-19.083 Y-11.666 E213.36164
G1 X-18.425 Y-10.81 E213.44918
G1 X-17.569 Y-10.151 E213.53676
G1 X-16.569 Y-9.738 E213.62447
G1 X-15.499 Y-9.597 E213.71197
G0 F12000 X-18.548 Y-10.399
; TYPE:BOTTOM-FILL
G1 F900 X-22.474 Y-10.399 E214.03025
G0 F12000 X-22.474 Y-11.049
G1 F900 X-19.115 Y-11.049 E214.30257
G0 F12000 X-19.53 Y-11.699
G1 F900 X-22.474 Y-11.699 E214.54125
G0 F12000 X-22.474 Y-12.349
G1 F900 X-19.799 Y-12.349 E214.75811
G0 F12000 X-19.944 Y-12.999
G1 F900 X-22.474 Y-12.999 E214.96322
G0 F12000 X-22.474 Y-13.649
G1 F900 X-20.031 Y-13.649 E215.16128
G0 F12000 X-19.967 Y-14.299
G1 F900 X-22.474 Y-14.299 E215.36453
G0 F12000 X-22.474 Y-14.949
G1 F900 X-19.87 Y-14.949 E215.57564
G0 F12000 X-19.602 Y-15.599
G1 F900 X-22.474 Y-15.599 E215.80848
G0 F12000 X-22.474 Y-16.249
G1 F900 X-19.248 Y-16.249 E216.07001
G0 F12000 X-18.748 Y-16.9
G1 F900 X-22.474 Y-16.9 E216.37209
G0 F12000 X-22.474 Y-17.55
G1 F900 X-17.928 Y-17.55 E216.74064
G0 F12000 X-16.091 Y-18.2
G1 F900 X-22.474 Y-18.2 E217.25812
G0 F12000 X-22.474 Y-18.85
G1 F900 X-10.524 Y-18.85 E218.22692
G0 F12000 X-10.524 Y-18.2
G1 F900 X-14.905 Y-18.2 E218.5821
G0 F12000 X-13.069 Y-17.55
G1 F900 X-10.524 Y-17.55 E218.78843
G0 F12000 X-10.524 Y-16.9
G1 F900 X-12.251 Y-16.9 E218.92844
G0 F12000 X-11.751 Y-16.25
G1 F900 X-10.524 Y-15.925 E219.02786
G1 X-11.261 Y-15.275 E219.09846
G1 X-10.524 Y-14.625 E219.14736
G1 X-11.031 Y-14.3 E219.19618
G0 F12000 X-11.054 Y-13
G1 F900 X-10.524 Y-12.675 E219.23914
G1 X-11.332 Y-12.025 E219.29385
G1 X-10.524 Y-11.7 E219.36446
G0 F12000 X-10.524 Y-11.05
G1 F900 X-11.881 Y-11.05 E219.47447
G0 F12000 X-12.446 Y-10.4
G1 F900 X-10.524 Y-10.4 E219.63029
G1 F6000 E217.13029
G0 F900 X-12.446 Y-10.4
G0 X-11.881 Y-11.05
G0 X-10.524 Y-11.05
G0 X-10.524 Y-11.7
G0 X-11.332 Y-12.025
G0 X-10.524 Y-12.675
G0 X-11.054 Y-13
G0 X-11.031 Y-14.3
G0 X-10.524 Y-14.625
G0 X-11.11 Y-15.141
G1 Z0.8
G0 F12000 X-10.524 Y-19.5
G1 Z0.3
G1 F6000 E219.63029
G1 F900 X-22.474 Y-19.5 E220.5991
G0 F12000 X-22.474 Y-20.15
G1 F900 X-10.524 Y-20.15 E221.5679
G0 F12000 X-10.524 Y-20.8
G1 F900 X-22.474 Y-20.8 E222.53671
G0 F12000 X-22.473 Y-21.45
G1 F900 X-10.524 Y-21.45 E223.50543
G0 F12000 X-10.524 Y-22.1
G1 F900 X-22.473 Y-22.1 E224.47416
G0 F12000 X-22.473 Y-22.75
G1 F900 X-10.524 Y-22.75 E225.44288
G0 F12000 X-10.524 Y-23.4
G1 F900 X-22.473 Y-23.4 E226.41161
G0 F12000 X-22.473 Y-24.05
G1 F900 X-10.524 Y-24.05 E227.38033
G0 F12000 X-10.523 Y-24.7
G1 F900 X-22.473 Y-24.7 E228.34914
G0 F12000 X-22.473 Y-25.35
G1 F900 X-10.523 Y-25.35 E229.31794
G0 F12000 X-10.523 Y-26
G1 F900 X-22.473 Y-26 E230.28675
G0 F12000 X-22.473 Y-26.65
G1 F900 X-10.523 Y-26.65 E231.25555
G0 F12000 X-10.523 Y-27.3
G1 F900 X-22.473 Y-27.3 E232.22436
G0 F12000 X-22.473 Y-27.95
G1 F900 X-10.523 Y-27.95 E233.19316
G0 F12000 X-10.523 Y-28.6
G1 F900 X-22.473 Y-28.6 E234.16197
G0 F12000 X-22.473 Y-29.25
G1 F900 X-10.523 Y-29.25 E235.13077
G0 F12000 X-10.523 Y-29.9
G1 F900 X-22.473 Y-29.9 E236.09958
G0 F12000 X-22.473 Y-30.55
G1 F900 X-20.393 Y-30.55 E236.26821
G0 F12000 X-21.314 Y-31.2
G1 F900 X-22.473 Y-31.525 E236.36219
G1 X-21.886 Y-31.85 E236.41659
G0 F12000 X-22.751 Y-35.1
G1 F900 X-49.974 Y-35.1 E238.6236
G0 F12000 X-49.974 Y-35.75
G1 F900 X-22.658 Y-35.75 E240.83815
G0 F12000 X-22.39 Y-36.4
G1 F900 X-49.974 Y-36.4 E243.07443
G0 F12000 X-49.974 Y-37.05
G1 F900 X-22.041 Y-37.05 E245.339
G0 F12000 X-21.54 Y-37.7
G1 F900 X-49.974 Y-37.7 E247.64419
G0 F12000 X-49.974 Y-38.35
G1 F900 X-20.728 Y-38.35 E250.01521
G0 F12000 X-18.982 Y-39
G1 F900 X-49.974 Y-39 E252.52778
G0 F12000 X-49.974 Y-39.65
G1 F900 X-12.396 Y-39.65 E255.57429
G0 F12000 X-12.483 Y-40.3
G1 F900 X-49.974 Y-40.3 E258.61374
G0 F12000 X-49.974 Y-40.95
G1 F900 X-12.512 Y-40.95 E261.65085
G0 F12000 X-12.426 Y-41.6
G1 F900 X-49.974 Y-41.6 E264.69492
G0 F12000 X-49.974 Y-42.25
G1 F900 X-12.245 Y-42.25 E267.75367
G0 F12000 X-11.977 Y-42.9
G1 F900 X-49.974 Y-42.9 E270.83415
G0 F12000 X-49.974 Y-43.55
G1 F900 X-11.516 Y-43.55 E273.952
G0 F12000 X-10.882 Y-44.2
G1 F900 X-49.974 Y-44.2 E277.12125
G0 F12000 X-49.974 Y-44.85
G1 F900 X-9.835 Y-44.85 E280.37538
G0 F12000 X-6.162 Y-44.85
G1 F900 X2.163 Y-44.85 E281.0503
G0 F12000 X1.116 Y-44.2
G1 F900 X-5.115 Y-44.2 E281.55546
G0 F12000 X-4.482 Y-43.55
G1 F900 X0.483 Y-43.55 E281.95798
G0 F12000 X0.02 Y-42.9
G1 F900 X-4.019 Y-42.9 E282.28543
G0 F12000 X-3.751 Y-42.25
G1 F900 X-0.246 Y-42.25 E282.56958
G0 F12000 X-0.427 Y-41.6
G1 F900 X-3.57 Y-41.6 E282.82439
G0 F12000 X-3.483 Y-40.95
G1 F900 X-0.514 Y-40.95 E283.06509
G0 F12000 X-0.484 Y-40.3
G1 F900 X-3.513 Y-40.3 E283.31066
G0 F12000 X-3.599 Y-39.65
G1 F900 X-0.398 Y-39.65 E283.57017
G0 F12000 X-0.156 Y-39
G1 F900 X-3.842 Y-39 E283.869
G0 F12000 X-4.15 Y-38.35
G1 F900 X0.151 Y-38.35 E284.21769
G0 F12000 X0.65 Y-37.7
G1 F900 X-4.649 Y-37.7 E284.64729
G0 F12000 X-5.401 Y-37.05
G1 F900 X1.402 Y-37.05 E285.19882
G0 F12000 X2.699 Y-36.4
G1 F900 X-6.698 Y-36.4 E285.96064
G0 F12000 X-9.297 Y-36.4
G1 F900 X-14.173 Y-36.4 E286.35595
G0 F12000 X-13.904 Y-35.75
G1 F900 X45.975 Y-35.75 E291.21043
G0 F12000 X45.975 Y-36.4
G1 F900 X39.299 Y-36.4 E291.75167
G0 F12000 X40.593 Y-37.05
G1 F900 X45.975 Y-37.05 E292.188
G0 F12000 X45.975 Y-37.7
G1 F900 X41.346 Y-37.7 E292.56328
G0 F12000 X41.847 Y-38.35
G1 F900 X45.975 Y-38.35 E292.89794
G0 F12000 X45.975 Y-39
G1 F900 X42.155 Y-39 E293.20763
G0 F12000 X42.398 Y-39.65
G1 F900 X45.975 Y-39.65 E293.49763
G0 F12000 X45.975 Y-40.3
G1 F900 X42.485 Y-40.3 E293.78057
G0 F12000 X42.514 Y-40.95
G1 F900 X45.975 Y-40.95 E294.06115
G0 F12000 X45.975 Y-41.6
G1 F900 X42.428 Y-41.6 E294.34872
G0 F12000 X42.247 Y-42.25
G1 F900 X45.975 Y-42.25 E294.65095
G0 F12000 X45.975 Y-42.9
G1 F900 X41.979 Y-42.9 E294.97491
G0 F12000 X41.518 Y-43.55
G1 F900 X45.975 Y-43.55 E295.33625
G0 F12000 X45.975 Y-44.2
G1 F900 X40.884 Y-44.2 E295.74898
G0 F12000 X39.837 Y-44.85
G1 F900 X45.975 Y-44.85 E296.2466
G0 F12000 X45.975 Y-45.5
G1 F900 X-49.974 Y-45.5 E304.02534
G0 F12000 X-49.974 Y-46.15
G1 F900 X45.975 Y-46.15 E311.80408
G1 F6000 E309.30408
G0 F900 X35.975 Y-46.15
G1 Z0.8
G0 F12000 X36.164 Y-44.85
G1 Z0.3
G1 F6000 E311.80408
G1 F900 X17.836 Y-44.85 E313.28996
G0 F12000 X18.883 Y-44.2
G1 F900 X35.117 Y-44.2 E314.60607
G0 F12000 X34.484 Y-43.55
G1 F900 X19.517 Y-43.55 E315.81947
G0 F12000 X19.978 Y-42.9
G1 F900 X34.021 Y-42.9 E316.95796
G0 F12000 X33.753 Y-42.25
G1 F900 X20.246 Y-42.25 E318.05299
G0 F12000 X20.427 Y-41.6
G1 F900 X33.572 Y-41.6 E319.11868
G0 F12000 X33.485 Y-40.95
G1 F900 X20.513 Y-40.95 E320.17034
G0 F12000 X20.484 Y-40.3
G1 F900 X33.515 Y-40.3 E321.22678
G0 F12000 X33.601 Y-39.65
G1 F900 X20.397 Y-39.65 E322.29725
G0 F12000 X20.154 Y-39
G1 F900 X33.844 Y-39 E323.40712
G0 F12000 X34.152 Y-38.35
G1 F900 X19.846 Y-38.35 E324.56693
G0 F12000 X19.345 Y-37.7
G1 F900 X34.651 Y-37.7 E325.80781
G0 F12000 X35.403 Y-37.05
G1 F900 X18.592 Y-37.05 E327.17071
G0 F12000 X17.298 Y-36.4
G1 F900 X36.7 Y-36.4 E328.74366
G1 F6000 E326.24366
G0 F900 X26.7 Y-36.4
G1 Z0.8
G0 F12000 X45.975 Y-35.1
G1 Z0.3
G1 F6000 E328.74366
G1 F900 X-13.811 Y-35.1 E333.5906
G0 F12000 X-13.751 Y-34.45
G1 F900 X-10.523 Y-34.45 E333.8523
G0 F12000 X-10.523 Y-33.8
G1 F900 X-13.837 Y-33.8 E334.12097
G0 F12000 X-13.987 Y-33.15
G1 F900 X-10.523 Y-33.15 E334.40181
G0 F12000 X-10.523 Y-32.5
G1 F900 X-14.256 Y-32.5 E334.70445
G0 F12000 X-14.677 Y-31.85
G1 F900 X-10.523 Y-31.85 E335.04122
G0 F12000 X-10.523 Y-31.2
G1 F900 X-15.249 Y-31.2 E335.42436
G0 F12000 X-16.17 Y-30.55
G1 F900 X-10.523 Y-30.55 E335.88217
G1 F6000 E333.38217
G0 F900 X-16.17 Y-30.55
G0 X-15.249 Y-31.2
G0 X-12.023 Y-31.2
G1 Z0.8
G0 F12000 X-10.591 Y-37.05
G1 Z0.3
G1 F6000 E335.88217
G1 F900 X-14.523 Y-37.05 E336.20095
G0 F12000 X-15.021 Y-37.7
G1 F900 X-11.344 Y-37.7 E336.49905
G0 F12000 X-11.845 Y-38.35
G1 F900 X-15.836 Y-38.35 E336.8226
G0 F12000 X-17.58 Y-39
G1 F900 X-12.153 Y-39 E337.26258
G1 F6000 E334.76258
G0 F900 X-17.58 Y-39
G0 X-15.836 Y-38.35
G0 X-13.124 Y-38.35
G1 Z0.8
G0 F12000 X-9.741 Y-37.718
G0 X-8.9 Y-37.371
G0 X-7.999 Y-37.253
G0 X5.298 Y-36.4
G1 Z0.3
G1 F6000 E337.26258
G1 F900 X14.699 Y-36.4 E338.02473
G0 F12000 X13.402 Y-37.05
G1 F900 X6.592 Y-37.05 E338.57683
G0 F12000 X7.345 Y-37.7
G1 F900 X12.65 Y-37.7 E339.00691
G0 F12000 X12.151 Y-38.35
G1 F900 X7.846 Y-38.35 E339.35593
G0 F12000 X8.154 Y-39
G1 F900 X11.843 Y-39 E339.655
G0 F12000 X11.6 Y-39.65
G1 F900 X8.397 Y-39.65 E339.91467
G0 F12000 X8.484 Y-40.3
G1 F900 X11.514 Y-40.3 E340.16032
G0 F12000 X11.484 Y-40.95
G1 F900 X8.513 Y-40.95 E340.40118
G0 F12000 X8.427 Y-41.6
G1 F900 X11.571 Y-41.6 E340.65607
G0 F12000 X11.752 Y-42.25
G1 F900 X8.246 Y-42.25 E340.94031
G0 F12000 X7.978 Y-42.9
G1 F900 X12.02 Y-42.9 E341.268
G0 F12000 X12.483 Y-43.55
G1 F900 X7.517 Y-43.55 E341.6706
G0 F12000 X6.883 Y-44.2
G1 F900 X13.116 Y-44.2 E342.17592
G0 F12000 X14.163 Y-44.85
G1 F900 X5.836 Y-44.85 E342.851
G1 F6000 E340.351
G0 F900 X14.163 Y-44.85
G0 X13.116 Y-44.2
G0 X12.675 Y-44.2
G1 Z0.8
G0 F12000 X16 Y-44.22
G0 X16.902 Y-44.1
G0 X36.155 Y-37.796
G0 X36.75 Y-38.57
G0 X28.5 Y-26.736
G0 X29.475 Y-25.761
G0 X29.475 Y-0.761
G0 X28.825 Y-0.761
G0 X28.825 Y-1.411
; TYPE:WALL-OUTER
G1 Z0.3
G1 F6000 E342.851
G1 F900 X28.825 Y-26.411 E344.87779
G1 X44.175 Y-26.411 E346.12224
G1 X44.175 Y-1.411 E348.14903
G1 X66.675 Y-1.411 E349.97314
G1 X66.675 Y13.938 E351.21751
G1 X-21.674 Y13.938 E358.3801
G1 X-21.674 Y-1.411 E359.62447
G1 X28.825 Y-1.411 E363.7185
G0 F12000 X28.825 Y-0.761
G0 X29.475 Y-0.761
; TYPE:WALL-INNER
G1 F900 X29.475 Y-25.761 E365.74529
G1 X43.525 Y-25.761 E366.88435
G1 X43.525 Y-0.761 E368.91114
G1 X66.025 Y-0.761 E370.73525
G1 X66.025 Y13.288 E371.87422
G1 X-21.024 Y13.288 E378.93142
G1 X-21.024 Y-0.761 E380.0704
G1 X29.475 Y-0.761 E384.16443
G0 F12000 X30.125 Y-0.111
G1 F900 X30.125 Y-25.111 E386.19122
G1 X42.875 Y-25.111 E387.22488
G1 X42.875 Y-0.111 E389.25167
G1 X65.375 Y-0.111 E391.07578
G1 X65.375 Y12.638 E392.10937
G1 X-20.374 Y12.638 E399.06117
G1 X-20.374 Y-0.111 E400.09475
G1 X30.125 Y-0.111 E404.18879
G1 F6000 E401.68879
G0 F900 X20.125 Y-0.111
G1 Z0.8
G0 F12000 X32.254 Y2.54
G0 X32.974 Y3.093
G0 X33.814 Y3.442
G0 X33.825 Y3.443
G0 X34.716 Y2.905
; TYPE:WALL-OUTER
G1 Z0.3
G1 F6000 E404.18879
G1 F900 X35.448 Y2.809 E404.24864
G1 X36.13 Y2.526 E404.3085
G1 X36.716 Y2.077 E404.36835
G1 X37.165 Y1.491 E404.4282
G1 X37.448 Y0.81 E404.48799
G1 X37.544 Y0.078 E404.54784
G1 X37.448 Y-0.653 E404.60762
G1 X37.165 Y-1.335 E404.66748
G1 X36.716 Y-1.921 E404.72733
G1 X36.13 Y-2.37 E404.78718
G1 X35.448 Y-2.653 E404.84704
G1 X34.716 Y-2.749 E404.90689
G1 X33.984 Y-2.653 E404.96674
G1 X33.302 Y-2.37 E405.02661
G1 X32.717 Y-1.921 E405.08639
G1 X32.267 Y-1.335 E405.14629
G1 X31.985 Y-0.653 E405.20612
G1 X31.888 Y0.078 E405.26591
G1 X31.985 Y0.81 E405.32577
G1 X32.267 Y1.491 E405.38553
G1 X32.717 Y2.077 E405.44542
G1 X33.302 Y2.526 E405.50521
G1 X33.984 Y2.809 E405.56507
G1 X34.716 Y2.905 E405.62493
G0 F12000 X33.825 Y3.443
; TYPE:WALL-INNER
G1 F900 X33.596 Y3.518 E405.64446
G0 F12000 X33.656 Y3.373
G1 F900 X32.974 Y3.093 E405.70423
G1 X32.254 Y2.54 E405.77783
G1 X31.699 Y1.819 E405.8516
G1 X31.352 Y0.98 E405.9252
G1 X31.232 Y0.078 E405.99897
G1 X31.352 Y-0.823 E406.07267
G1 X31.699 Y-1.663 E406.14635
G1 X32.254 Y-2.384 E406.22011
G1 X32.974 Y-2.937 E406.29371
G1 X33.814 Y-3.286 E406.36746
G1 X34.716 Y-3.404 E406.44121
G1 X35.618 Y-3.286 E406.51496
G1 X36.458 Y-2.938 E406.58867
G1 X37.179 Y-2.384 E406.66238
G1 X37.733 Y-1.663 E406.7361
G1 X38.081 Y-0.823 E406.80981
G1 X38.199 Y0.078 E406.88348
G1 X38.081 Y0.98 E406.95723
G1 X37.732 Y1.819 E407.0309
G1 X37.179 Y2.54 E407.10457
G0 F12000 X37.119 Y2.686
G1 F900 X36.891 Y2.762 E407.12405
G0 F12000 X36.902 Y2.763
G0 X37.061 Y2.83
G0 X37.06 Y2.832
G1 F900 X37.742 Y3.112 E407.18382
G1 X38.462 Y3.665 E407.25742
G1 X39.017 Y4.386 E407.33119
G1 X39.364 Y5.226 E407.40487
G1 X39.484 Y6.128 E407.47864
G1 X39.364 Y7.03 E407.55241
G1 X39.017 Y7.87 E407.62609
G1 X38.462 Y8.59 E407.69979
G1 X37.743 Y9.144 E407.77338
G1 X36.902 Y9.493 E407.8472
G1 X36 Y9.611 E407.92095
G1 X35.097 Y9.493 E407.99478
G1 X34.258 Y9.144 E408.06845
G1 X33.537 Y8.591 E408.14211
G1 X32.982 Y7.87 E408.21588
G1 X32.635 Y7.029 E408.28963
G1 X32.517 Y6.128 E408.3633
G1 X32.635 Y5.227 E408.43697
G1 X32.982 Y4.386 E408.51073
G1 X33.537 Y3.664 E408.58456
G1 F6000 E406.08456
G0 F900 X32.982 Y4.386
G0 X32.635 Y5.227
G0 X32.517 Y6.128
G0 X32.635 Y7.029
G0 X32.982 Y7.87
G0 X33.537 Y8.591
G0 X34.258 Y9.144
G0 X35.097 Y9.493
G0 X36 Y9.611
G0 X36.902 Y9.493
G0 X37.743 Y9.144
G0 X37.744 Y9.143
G1 Z0.8
G0 F12000 X32.982 Y4.386
G0 X32.635 Y5.227
G0 X32.517 Y6.128
G0 X32.635 Y7.029
G0 X32.982 Y7.87
G0 X33.537 Y8.591
G0 X34.258 Y9.144
G0 X35.097 Y9.493
G0 X36 Y9.611
G0 X36.902 Y9.493
G0 X37.743 Y9.144
G0 X38.462 Y8.59
G0 X39.017 Y7.87
G0 X39.364 Y7.03
G0 X39.484 Y6.128
G0 X39.364 Y5.226
G0 X39.017 Y4.386
G0 X38.014 Y2.521
G1 Z0.3
G1 F6000 E408.58456
G1 F900 X38.159 Y2.335 E408.60368
G0 F12000 X38.3 Y2.147
G1 F900 X38.714 Y1.15 E408.6912
G1 X38.855 Y0.078 E408.77886
G1 X38.714 Y-0.992 E408.86635
G1 X38.3 Y-1.99 E408.95395
G1 X37.643 Y-2.848 E409.04156
G1 X36.785 Y-3.505 E409.12917
G1 X35.787 Y-3.919 E409.21676
G1 X34.716 Y-4.06 E409.30434
G1 X33.645 Y-3.919 E409.39192
G1 X32.646 Y-3.505 E409.47959
G1 X31.79 Y-2.848 E409.56707
G1 X31.131 Y-1.99 E409.65478
G1 X30.719 Y-0.992 E409.74231
G1 X30.577 Y0.078 E409.82982
G1 X30.719 Y1.15 E409.91749
G1 X31.132 Y2.147 E410.00497
G1 X31.79 Y3.004 E410.09257
G1 X32.697 Y3.68 E410.18428
G1 X32.702 Y3.684 E410.1848
G1 X32.414 Y4.059 E410.22313
G1 X32.002 Y5.058 E410.31074
G1 X31.861 Y6.128 E410.39823
G1 X32.002 Y7.198 E410.48573
G1 X32.415 Y8.198 E410.57344
G1 X33.074 Y9.054 E410.66103
G1 X33.929 Y9.712 E410.74849
G1 X34.927 Y10.126 E410.83609
G1 X36 Y10.267 E410.92382
G1 X37.071 Y10.126 E411.0114
G1 X38.071 Y9.712 E411.09915
G1 X38.926 Y9.054 E411.18661
G1 X39.584 Y8.198 E411.27414
G1 X39.997 Y7.199 E411.36178
G1 X40.139 Y6.128 E411.44937
G1 X39.997 Y5.057 E411.53696
G1 X39.585 Y4.059 E411.62449
G1 X38.926 Y3.201 E411.7122
G1 X38.019 Y2.524 E411.80396
G1 F6000 E409.30396
G0 F900 X38.926 Y3.201
G0 X39.585 Y4.059
G0 X39.997 Y5.057
G0 X40.139 Y6.128
G0 X39.997 Y7.199
G0 X39.584 Y8.198
G0 X38.926 Y9.054
G0 X38.071 Y9.712
G0 X37.071 Y10.126
G0 X36.844 Y10.155
G1 Z0.8
G0 F12000 X39.017 Y4.386
G0 X39.364 Y5.226
G0 X39.484 Y6.128
G0 X39.364 Y7.03
G0 X39.017 Y7.87
G0 X38.462 Y8.59
G0 X37.743 Y9.144
G0 X36.902 Y9.493
G0 X36 Y9.611
G0 X35.916 Y9.6
G0 X36 Y8.956
; TYPE:WALL-OUTER
G1 Z0.3
G1 F6000 E411.80396
G1 F900 X36.732 Y8.86 E411.86381
G1 X37.414 Y8.577 E411.92367
G1 X37.999 Y8.127 E411.98351
G1 X38.449 Y7.542 E412.04334
G1 X38.731 Y6.86 E412.10317
G1 X38.828 Y6.128 E412.16304
G1 X38.731 Y5.396 E412.2229
G1 X38.449 Y4.714 E412.28273
G1 X37.999 Y4.128 E412.34263
G1 X37.414 Y3.679 E412.40242
G1 X36.732 Y3.396 E412.46228
G1 X36 Y3.3 E412.52213
G1 X35.267 Y3.396 E412.58206
G1 X34.586 Y3.679 E412.64185
G1 X34 Y4.128 E412.7017
G1 X33.55 Y4.714 E412.7616
G1 X33.268 Y5.396 E412.82143
G1 X33.172 Y6.128 E412.88128
G1 X33.268 Y6.86 E412.94114
G1 X33.55 Y7.542 E413.00097
G1 X34 Y8.127 E413.0608
G1 X34.586 Y8.577 E413.1207
G1 X35.267 Y8.86 E413.18049
G1 X36 Y8.956 E413.24042
G1 F6000 E410.74042
G0 F900 X35.267 Y8.86
G0 X34.586 Y8.577
G0 X34 Y8.127
G0 X33.55 Y7.542
G0 X33.268 Y6.86
G0 X33.172 Y6.128
G0 X33.268 Y5.396
G0 X33.55 Y4.714
G0 X34 Y4.128
G0 X34.586 Y3.679
G0 X35.267 Y3.396
G0 X36 Y3.3
G0 X36.732 Y3.396
G0 X37.107 Y3.551
G1 Z0.8
G0 F12000 X35.916 Y9.6
G0 X36 Y9.611
G0 X36.902 Y9.493
G0 X37.743 Y9.144
G0 X41.635 Y7.164
; TYPE:WALL-INNER
G1 Z0.3
G1 F6000 E413.24042
G1 F900 X41.982 Y8.005 E413.31418
G1 X42.537 Y8.726 E413.38794
G1 X43.258 Y9.28 E413.46166
G1 X44.097 Y9.627 E413.53527
G1 X45 Y9.747 E413.60912
G1 X45.902 Y9.627 E413.68289
G1 X46.742 Y9.28 E413.75657
G1 X47.462 Y8.725 E413.83027
G1 X48.017 Y8.005 E413.90397
G1 X48.364 Y7.165 E413.97765
G1 X48.484 Y6.263 E414.05142
G1 X48.364 Y5.36 E414.12528
G1 X48.017 Y4.521 E414.19888
G1 X47.463 Y3.8 E414.2726
G1 X46.742 Y3.245 E414.34636
G1 X45.901 Y2.898 E414.42012
G1 X45 Y2.78 E414.49379
G1 X44.098 Y2.898 E414.56754
G1 X43.258 Y3.245 E414.64122
G1 X42.537 Y3.8 E414.71498
G1 X41.982 Y4.521 E414.78875
G1 X41.635 Y5.361 E414.86243
G1 X41.517 Y6.263 E414.93618
G1 X41.635 Y7.164 E415.00985
G0 F12000 X41.002 Y7.333
G1 F900 X41.415 Y8.333 E415.09756
G1 X42.074 Y9.189 E415.18514
G1 X42.93 Y9.847 E415.27268
G1 X43.927 Y10.26 E415.36016
G1 X45 Y10.402 E415.44791
G1 X46.071 Y10.26 E415.5355
G1 X47.07 Y9.847 E415.62314
G1 X47.926 Y9.189 E415.71067
G1 X48.584 Y8.333 E415.7982
G1 X48.997 Y7.334 E415.88584
G1 X49.139 Y6.263 E415.97343
G1 X48.997 Y5.19 E416.06118
G1 X48.584 Y4.193 E416.14866
G1 X47.926 Y3.337 E416.2362
G1 X47.07 Y2.678 E416.32378
G1 X46.07 Y2.265 E416.41149
G1 X45 Y2.124 E416.49899
G1 X43.929 Y2.265 E416.58656
G1 X42.93 Y2.678 E416.6742
G1 X42.073 Y3.336 E416.7618
G1 X41.415 Y4.193 E416.84939
G1 X41.002 Y5.192 E416.93703
G1 X40.861 Y6.263 E417.02461
G1 X41.002 Y7.333 E417.1121
G1 F6000 E414.6121
G0 F900 X40.861 Y6.263
G0 X41.002 Y5.192
G0 X41.415 Y4.193
G0 X42.073 Y3.336
G0 X42.93 Y2.678
G0 X43.929 Y2.265
G0 X45 Y2.124
G0 X46.07 Y2.265
G0 X47.07 Y2.678
G0 X47.291 Y2.848
G1 Z0.8
G0 F12000 X42.537 Y8.726
G0 X43.258 Y9.28
G0 X44.097 Y9.627
G0 X44.915 Y9.736
G0 X45 Y9.091
; TYPE:WALL-OUTER
G1 Z0.3
G1 F6000 E417.1121
G1 F900 X45.732 Y8.994 E417.17197
G1 X46.414 Y8.712 E417.2318
G1 X46.999 Y8.262 E417.29163
G1 X47.449 Y7.677 E417.35147
G1 X47.731 Y6.995 E417.4113
G1 X47.828 Y6.263 E417.47116
G1 X47.731 Y5.53 E417.53111
G1 X47.449 Y4.849 E417.59086
G1 X46.999 Y4.263 E417.65076
G1 X46.414 Y3.813 E417.7106
G1 X45.732 Y3.531 E417.77043
G1 X45 Y3.435 E417.83028
G1 X44.267 Y3.531 E417.89021
G1 X43.586 Y3.813 E417.94997
G1 X43 Y4.263 E418.00987
G1 X42.55 Y4.849 E418.06977
G1 X42.268 Y5.53 E418.12953
G1 X42.172 Y6.263 E418.18946
G1 X42.268 Y6.995 E418.24931
G1 X42.55 Y7.677 E418.30914
G1 X43 Y8.262 E418.36898
G1 X43.586 Y8.712 E418.42888
G1 X44.267 Y8.994 E418.48863
G1 X45 Y9.091 E418.54858
G1 F6000 E416.04858
G0 F900 X44.267 Y8.994
G0 X43.586 Y8.712
G0 X43 Y8.262
G0 X42.55 Y7.677
G0 X42.268 Y6.995
G0 X42.172 Y6.263
G0 X42.268 Y5.53
G0 X42.55 Y4.849
G0 X43 Y4.263
G0 X43.586 Y3.813
G0 X44.267 Y3.531
G0 X45 Y3.435
G0 X45.732 Y3.531
G0 X46.107 Y3.686
G1 Z0.8
G0 F12000 X44.915 Y9.736
G0 X45 Y9.747
G0 X45.902 Y9.627
G0 X53.635 Y7.164
; TYPE:WALL-INNER
G1 Z0.3
G1 F6000 E418.54858
G1 F900 X53.982 Y8.005 E418.62233
G1 X54.537 Y8.726 E418.6961
G1 X55.258 Y9.28 E418.76981
G1 X56.097 Y9.627 E418.84342
G1 X57 Y9.747 E418.91727
G1 X57.902 Y9.627 E418.99104
G1 X58.742 Y9.28 E419.06472
G1 X59.462 Y8.725 E419.13843
G1 X60.017 Y8.005 E419.21213
G1 X60.364 Y7.165 E419.28581
G1 X60.484 Y6.263 E419.35958
G1 X60.364 Y5.36 E419.43343
G1 X60.017 Y4.521 E419.50704
G1 X59.463 Y3.8 E419.58075
G1 X58.742 Y3.245 E419.65452
G1 X57.901 Y2.898 E419.72827
G1 X57 Y2.78 E419.80194
G1 X56.098 Y2.898 E419.87569
G1 X55.258 Y3.245 E419.94937
G1 X54.537 Y3.8 E420.02314
G1 X53.982 Y4.521 E420.0969
G1 X53.635 Y5.361 E420.17059
G1 X53.517 Y6.263 E420.24434
G1 X53.635 Y7.164 E420.318
G0 F12000 X53.002 Y7.333
G1 F900 X53.415 Y8.333 E420.40572
G1 X54.074 Y9.189 E420.4933
G1 X54.93 Y9.847 E420.58083
G1 X55.927 Y10.26 E420.66832
G1 X57 Y10.402 E420.75607
G1 X58.071 Y10.26 E420.84365
G1 X59.07 Y9.847 E420.93129
G1 X59.926 Y9.189 E421.01882
G1 X60.584 Y8.333 E421.10636
G1 X60.997 Y7.334 E421.19399
G1 X61.139 Y6.263 E421.28158
G1 X60.997 Y5.19 E421.36933
G1 X60.584 Y4.193 E421.45682
G1 X59.926 Y3.337 E421.54435
G1 X59.07 Y2.678 E421.63193
G1 X58.07 Y2.265 E421.71964
G1 X57 Y2.124 E421.80714
G1 X55.929 Y2.265 E421.89472
G1 X54.93 Y2.678 E421.98236
G1 X54.073 Y3.336 E422.06995
G1 X53.415 Y4.193 E422.15755
G1 X53.002 Y5.192 E422.24519
G1 X52.861 Y6.263 E422.33276
G1 X53.002 Y7.333 E422.42026
G1 F6000 E419.92026
G0 F900 X52.861 Y6.263
G0 X53.002 Y5.192
G0 X53.415 Y4.193
G0 X54.073 Y3.336
G0 X54.93 Y2.678
G0 X55.929 Y2.265
G0 X57 Y2.124
G0 X58.07 Y2.265
G0 X59.07 Y2.678
G0 X59.291 Y2.848
G1 Z0.8
G0 F12000 X54.537 Y8.726
G0 X55.258 Y9.28
G0 X56.097 Y9.627
G0 X56.915 Y9.736
G0 X57 Y9.091
; TYPE:WALL-OUTER
G1 Z0.3
G1 F6000 E422.42026
G1 F900 X57.732 Y8.994 E422.48012
G1 X58.414 Y8.712 E422.53995
G1 X58.999 Y8.262 E422.59979
G1 X59.449 Y7.677 E422.65962
G1 X59.731 Y6.995 E422.71945
G1 X59.828 Y6.263 E422.77932
G1 X59.731 Y5.53 E422.83926
G1 X59.449 Y4.849 E422.89902
G1 X58.999 Y4.263 E422.95892
G1 X58.414 Y3.813 E423.01875
G1 X57.732 Y3.531 E423.07858
G1 X57 Y3.435 E423.13844
G1 X56.267 Y3.531 E423.19837
G1 X55.586 Y3.813 E423.25812
G1 X55 Y4.263 E423.31802
G1 X54.55 Y4.849 E423.37792
G1 X54.268 Y5.53 E423.43768
G1 X54.172 Y6.263 E423.49761
G1 X54.268 Y6.995 E423.55747
G1 X54.55 Y7.677 E423.6173
G1 X55 Y8.262 E423.67713
G1 X55.586 Y8.712 E423.73703
G1 X56.267 Y8.994 E423.79679
G1 X57 Y9.091 E423.85673
G1 F6000 E421.35673
G0 F900 X56.267 Y8.994
G0 X55.586 Y8.712
G0 X55 Y8.262
G0 X54.55 Y7.677
G0 X54.268 Y6.995
G0 X54.172 Y6.263
G0 X54.268 Y5.53
G0 X54.55 Y4.849
G0 X55 Y4.263
G0 X55.586 Y3.813
G0 X56.267 Y3.531
G0 X57 Y3.435
G0 X57.732 Y3.531
G0 X58.107 Y3.686
G1 Z0.8
G0 F12000 X56.915 Y9.736
G0 X56.097 Y9.627
G0 X55.258 Y9.28
G0 X54.537 Y8.726
G0 X43.525 Y-0.761
G0 X39.242 Y-17.718
; TYPE:WALL-INNER
G1 Z0.3
G1 F6000 E423.85673
G1 F900 X39.963 Y-18.273 E423.9305
G1 X40.517 Y-18.994 E424.00421
G1 X40.864 Y-19.833 E424.07782
G1 X40.984 Y-20.736 E424.15167
G1 X40.864 Y-21.638 E424.22544
G1 X40.517 Y-22.478 E424.29912
G1 X39.962 Y-23.198 E424.37282
G1 X39.242 Y-23.753 E424.44652
G1 X38.402 Y-24.1 E424.52021
G1 X37.5 Y-24.22 E424.59398
G1 X36.597 Y-24.1 E424.66783
G1 X35.758 Y-23.753 E424.74143
G1 X35.037 Y-23.199 E424.81515
G1 X34.482 Y-22.478 E424.88891
G1 X34.135 Y-21.637 E424.96267
G1 X34.017 Y-20.736 E425.03634
G1 X34.135 Y-19.834 E425.11009
G1 X34.482 Y-18.994 E425.18377
G1 X35.037 Y-18.273 E425.25754
G1 X35.758 Y-17.718 E425.3313
G1 X36.598 Y-17.371 E425.40498
G1 X37.5 Y-17.253 E425.47873
G1 X38.401 Y-17.371 E425.5524
G1 X39.242 Y-17.718 E425.62616
G0 F12000 X39.57 Y-17.151
G1 F900 X40.426 Y-17.81 E425.71374
G1 X41.084 Y-18.666 E425.80127
G1 X41.497 Y-19.663 E425.88876
G1 X41.639 Y-20.736 E425.97651
G1 X41.497 Y-21.807 E426.0641
G1 X41.084 Y-22.806 E426.15173
G1 X40.426 Y-23.662 E426.23927
G1 X39.57 Y-24.32 E426.3268
G1 X38.571 Y-24.733 E426.41443
G1 X37.5 Y-24.875 E426.50202
G1 X36.427 Y-24.733 E426.58977
G1 X35.43 Y-24.32 E426.67726
G1 X34.574 Y-23.662 E426.76479
G1 X33.915 Y-22.806 E426.85237
G1 X33.502 Y-21.806 E426.94008
G1 X33.361 Y-20.736 E427.02758
G1 X33.502 Y-19.665 E427.11516
G1 X33.915 Y-18.666 E427.2028
G1 X34.573 Y-17.809 E427.29039
G1 X35.43 Y-17.151 E427.37799
G1 X36.429 Y-16.738 E427.46563
G1 X37.5 Y-16.597 E427.5532
G1 X38.57 Y-16.738 E427.6407
G1 X39.57 Y-17.151 E427.72841
G0 F12000 X37.5 Y-17.253
G0 X37.416 Y-17.264
G0 X37.5 Y-17.908
; TYPE:WALL-OUTER
G1 F900 X38.232 Y-18.004 E427.78827
G1 X38.914 Y-18.286 E427.8481
G1 X39.499 Y-18.736 E427.90793
G1 X39.949 Y-19.322 E427.96783
G1 X40.231 Y-20.003 E428.02759
G1 X40.328 Y-20.736 E428.08753
G1 X40.231 Y-21.468 E428.14739
G1 X39.949 Y-22.15 E428.20723
G1 X39.499 Y-22.735 E428.26706
G1 X38.914 Y-23.185 E428.3269
G1 X38.232 Y-23.467 E428.38673
G1 X37.5 Y-23.564 E428.44659
G1 X36.767 Y-23.467 E428.50653
G1 X36.086 Y-23.185 E428.56629
G1 X35.5 Y-22.735 E428.62619
G1 X35.05 Y-22.15 E428.68602
G1 X34.768 Y-21.468 E428.74586
G1 X34.672 Y-20.736 E428.80571
G1 X34.768 Y-20.003 E428.86564
G1 X35.05 Y-19.322 E428.9254
G1 X35.5 Y-18.736 E428.9853
G1 X36.086 Y-18.286 E429.0452
G1 X36.767 Y-18.004 E429.10495
G1 X37.5 Y-17.908 E429.16489
G1 F6000 E426.66489
G0 F900 X36.767 Y-18.004
G0 X36.086 Y-18.286
G0 X35.5 Y-18.736
G0 X35.05 Y-19.322
G0 X34.768 Y-20.003
G0 X34.672 Y-20.736
G0 X34.768 Y-21.468
G0 X35.05 Y-22.15
G0 X35.5 Y-22.735
G0 X36.086 Y-23.185
G0 X36.767 Y-23.467
G0 X37.5 Y-23.564
G0 X38.232 Y-23.467
G0 X38.607 Y-23.312
G1 Z0.8
G0 F12000 X37.416 Y-17.264
G0 X29.475 Y-0.761
G0 X17.462 Y3.665
; TYPE:WALL-INNER
G1 Z0.3
G1 F6000 E429.16489
G1 F900 X16.742 Y3.112 E429.23849
G1 X15.902 Y2.763 E429.31223
G1 X15 Y2.645 E429.38598
G1 X14.097 Y2.763 E429.45981
G1 X13.258 Y3.112 E429.53348
G1 X12.537 Y3.664 E429.6071
G1 X11.982 Y4.386 E429.68093
G1 X11.635 Y5.227 E429.75468
G1 X11.517 Y6.128 E429.82835
G1 X11.635 Y7.029 E429.90202
G1 X11.982 Y7.87 E429.97578
G1 X12.537 Y8.591 E430.04954
G1 X13.258 Y9.144 E430.12321
G1 X14.097 Y9.493 E430.19688
G1 X15 Y9.611 E430.27071
G1 X15.902 Y9.493 E430.34446
G1 X16.743 Y9.144 E430.41828
G1 X17.462 Y8.59 E430.49186
G1 X18.017 Y7.87 E430.56556
G1 X18.364 Y7.03 E430.63925
G1 X18.484 Y6.128 E430.71302
G1 X18.364 Y5.226 E430.78679
G1 X18.017 Y4.386 E430.86047
G1 X17.462 Y3.665 E430.93423
G0 F12000 X17.926 Y3.201
G1 F900 X17.07 Y2.544 E431.02172
G1 X16.071 Y2.13 E431.10939
G1 X15 Y1.989 E431.19696
G1 X13.927 Y2.13 E431.2847
G1 X12.93 Y2.544 E431.37222
G1 X12.074 Y3.2 E431.45965
G1 X11.414 Y4.059 E431.54747
G1 X11.002 Y5.058 E431.63508
G1 X10.861 Y6.128 E431.72258
G1 X11.002 Y7.198 E431.81008
G1 X11.415 Y8.198 E431.89779
G1 X12.074 Y9.054 E431.98537
G1 X12.929 Y9.712 E432.07284
G1 X13.927 Y10.126 E432.16043
G1 X15 Y10.267 E432.24817
G1 X16.071 Y10.126 E432.33575
G1 X17.071 Y9.712 E432.42349
G1 X17.926 Y9.054 E432.51096
G1 X18.584 Y8.198 E432.59849
G1 X18.997 Y7.199 E432.68613
G1 X19.139 Y6.128 E432.77371
G1 X18.997 Y5.057 E432.8613
G1 X18.585 Y4.059 E432.94883
G1 X17.926 Y3.201 E433.03654
G1 F6000 E430.53654
G0 F900 X18.585 Y4.059
G0 X18.997 Y5.057
G0 X19.139 Y6.128
G0 X18.997 Y7.199
G0 X18.584 Y8.198
G0 X17.926 Y9.054
G0 X17.071 Y9.712
G0 X16.071 Y10.126
G0 X15 Y10.267
G0 X14.723 Y10.231
G1 Z0.8
G0 F12000 X18.364 Y5.226
G0 X18.484 Y6.128
G0 X18.364 Y7.03
G0 X18.017 Y7.87
G0 X17.462 Y8.59
G0 X16.743 Y9.144
G0 X15.902 Y9.493
G0 X15 Y9.611
G0 X14.916 Y9.6
G0 X15 Y8.956
; TYPE:WALL-OUTER
G1 Z0.3
G1 F6000 E433.03654
G1 F900 X15.732 Y8.86 E433.0964
G1 X16.414 Y8.577 E433.15626
G1 X16.999 Y8.127 E433.21609
G1 X17.449 Y7.542 E433.27593
G1 X17.731 Y6.86 E433.33576
G1 X17.828 Y6.128 E433.39562
G1 X17.731 Y5.396 E433.45549
G1 X17.449 Y4.714 E433.51532
G1 X16.999 Y4.128 E433.57522
G1 X16.414 Y3.679 E433.635
G1 X15.732 Y3.396 E433.69486
G1 X15 Y3.3 E433.75472
G1 X14.267 Y3.396 E433.81465
G1 X13.586 Y3.679 E433.87444
G1 X13 Y4.128 E433.93429
G1 X12.55 Y4.714 E433.99419
G1 X12.268 Y5.396 E434.05402
G1 X12.172 Y6.128 E434.11387
G1 X12.268 Y6.86 E434.17372
G1 X12.55 Y7.542 E434.23355
G1 X13 Y8.127 E434.29339
G1 X13.586 Y8.577 E434.35329
G1 X14.267 Y8.86 E434.41308
G1 X15 Y8.956 E434.47301
G1 F6000 E431.97301
G0 F900 X14.267 Y8.86
G0 X13.586 Y8.577
G0 X13 Y8.127
G0 X12.55 Y7.542
G0 X12.268 Y6.86
G0 X12.172 Y6.128
G0 X12.268 Y5.396
G0 X12.55 Y4.714
G0 X13 Y4.128
G0 X13.586 Y3.679
G0 X14.267 Y3.396
G0 X15 Y3.3
G0 X15.732 Y3.396
G0 X16.107 Y3.551
G1 Z0.8
G0 F12000 X14.916 Y9.6
G0 X14.097 Y9.493
G0 X-5.516 Y6.128
; TYPE:WALL-INNER
G1 Z0.3
G1 F6000 E434.47301
G1 F900 X-5.634 Y5.227 E434.54668
G1 X-5.981 Y4.386 E434.62044
G1 X-6.536 Y3.664 E434.69426
G1 X-7.257 Y3.112 E434.76788
G1 X-8.096 Y2.763 E434.84155
G1 X-8.999 Y2.645 E434.91538
G1 X-9.901 Y2.763 E434.98913
G1 X-10.741 Y3.112 E435.06287
G1 X-11.461 Y3.665 E435.13648
G1 X-12.016 Y4.386 E435.21024
G1 X-12.363 Y5.226 E435.28392
G1 X-12.483 Y6.128 E435.35769
G1 X-12.363 Y7.03 E435.43146
G1 X-12.016 Y7.87 E435.50515
G1 X-11.461 Y8.59 E435.57885
G1 X-10.742 Y9.144 E435.65243
G1 X-9.901 Y9.493 E435.72625
G1 X-8.999 Y9.611 E435.8
G1 X-8.096 Y9.493 E435.87383
G1 X-7.257 Y9.144 E435.9475
G1 X-6.536 Y8.591 E436.02117
G1 X-5.981 Y7.87 E436.09493
G1 X-5.634 Y7.029 E436.16869
G1 X-5.516 Y6.128 E436.24236
G0 F12000 X-4.86 Y6.128
G1 F900 X-5.001 Y5.058 E436.32985
G1 X-5.413 Y4.059 E436.41746
G1 X-6.073 Y3.2 E436.50528
G1 X-6.929 Y2.544 E436.59272
G1 X-7.926 Y2.13 E436.68024
G1 X-8.999 Y1.989 E436.76797
G1 X-10.07 Y2.13 E436.85555
G1 X-11.069 Y2.544 E436.94322
G1 X-11.925 Y3.201 E437.0307
G1 X-12.584 Y4.059 E437.11841
G1 X-12.996 Y5.057 E437.20594
G1 X-13.138 Y6.128 E437.29353
G1 X-12.996 Y7.199 E437.38112
G1 X-12.583 Y8.198 E437.46876
G1 X-11.925 Y9.054 E437.55629
G1 X-11.07 Y9.712 E437.64376
G1 X-10.07 Y10.126 E437.7315
G1 X-8.999 Y10.267 E437.81908
G1 X-7.926 Y10.126 E437.90682
G1 X-6.928 Y9.712 E437.99441
G1 X-6.073 Y9.054 E438.08188
G1 X-5.414 Y8.198 E438.16946
G1 X-5.001 Y7.198 E438.25717
G1 X-4.86 Y6.128 E438.34467
G1 F6000 E435.84467
G0 F900 X-5.001 Y7.198
G0 X-5.414 Y8.198
G0 X-6.073 Y9.054
G0 X-6.928 Y9.712
G0 X-7.926 Y10.126
G0 X-8.999 Y10.267
G0 X-10.07 Y10.126
G0 X-11.07 Y9.712
G0 X-11.925 Y9.054
G0 X-12.095 Y8.832
G1 Z0.8
G0 F12000 X-5.981 Y7.87
G0 X-6.536 Y8.591
G0 X-7.257 Y9.144
G0 X-8.096 Y9.493
G0 X-8.999 Y9.611
G0 X-9.083 Y9.6
G0 X-8.999 Y8.956
; TYPE:WALL-OUTER
G1 Z0.3
G1 F6000 E438.34467
G1 F900 X-8.266 Y8.86 E438.4046
G1 X-7.585 Y8.577 E438.46439
G1 X-6.999 Y8.127 E438.52429
G1 X-6.549 Y7.542 E438.58412
G1 X-6.267 Y6.86 E438.64395
G1 X-6.171 Y6.128 E438.70381
G1 X-6.267 Y5.396 E438.76366
G1 X-6.549 Y4.714 E438.82349
G1 X-6.999 Y4.128 E438.88339
G1 X-7.585 Y3.679 E438.94324
G1 X-8.266 Y3.396 E439.00303
G1 X-8.999 Y3.3 E439.06296
G1 X-9.731 Y3.396 E439.12281
G1 X-10.413 Y3.679 E439.18267
G1 X-10.998 Y4.128 E439.24246
G1 X-11.448 Y4.714 E439.30236
G1 X-11.73 Y5.396 E439.36219
G1 X-11.827 Y6.128 E439.42205
G1 X-11.73 Y6.86 E439.48192
G1 X-11.448 Y7.542 E439.54175
G1 X-10.998 Y8.127 E439.60158
G1 X-10.413 Y8.577 E439.66142
G1 X-9.731 Y8.86 E439.72128
G1 X-8.999 Y8.956 E439.78113
G1 F6000 E437.28113
G0 F900 X-9.731 Y8.86
G0 X-10.413 Y8.577
G0 X-10.998 Y8.127
G0 X-11.448 Y7.542
G0 X-11.73 Y6.86
G0 X-11.827 Y6.128
G0 X-11.73 Y5.396
G0 X-11.448 Y4.714
G0 X-10.998 Y4.128
G0 X-10.413 Y3.679
G0 X-9.731 Y3.396
G0 X-8.999 Y3.3
G0 X-8.266 Y3.396
G0 X-7.891 Y3.551
G1 Z0.8
G0 F12000 X-9.083 Y9.6
G0 X-8.999 Y9.611
G0 X-8.096 Y9.493
G0 X14.097 Y2.763
G0 X15 Y2.645
G0 X33.825 Y3.443
G0 X34.16 Y3.26
; TYPE:FILL
G1 Z0.3
G1 F6000 E439.78113
G1 F900 X34.589 Y3.231 E439.7888
G1 X34.787 Y3.223 E439.79234
G0 F12000 X34.794 Y3.24
G1 F900 X34.569 Y3.314 E439.79638
G0 F12000 X33.825 Y3.443
G0 X33.814 Y3.442
G0 X32.974 Y3.093
G0 X32.254 Y2.54
G0 X31.699 Y1.819
G0 X31.352 Y0.98
G0 X31.232 Y0.078
G0 X31.352 Y-0.823
G0 X31.699 Y-1.663
G0 X32.254 Y-2.384
G0 X32.974 Y-2.937
G0 X33.814 Y-3.286
G0 X34.716 Y-3.404
G0 X35.618 Y-3.286
G0 X36.458 Y-2.938
G0 X37.179 Y-2.384
G0 X37.733 Y-1.663
G0 X38.081 Y-0.823
G0 X38.199 Y0.078
G0 X38.081 Y0.98
G0 X37.732 Y1.819
G0 X37.179 Y2.54
G0 X36.891 Y2.762
G0 X35.921 Y2.964
G1 F900 X36.147 Y2.891 E439.80047
G0 F12000 X35.928 Y2.981
G1 F900 X36.127 Y2.973 E439.80405
G1 X36.555 Y2.945 E439.81967
G0 F12000 X36.891 Y2.762
G0 X38.799 Y2.599
; TYPE:BOTTOM-FILL
G1 F900 X42.373 Y2.599 E440.10942
G0 F12000 X41.634 Y3.249
G1 F900 X39.469 Y3.249 E440.28494
G0 F12000 X39.953 Y3.899
G1 F900 X40.985 Y4.224 E440.38075
G1 X40.221 Y4.549 E440.44806
G0 F12000 X38.815 Y1.949
G1 F900 X43.644 Y1.949 E440.83956
G0 F12000 X42.475 Y0
G1 F900 X39.249 Y0 E441.10109
G0 F12000 X39.183 Y0.649
G1 F900 X64.975 Y0.649 E443.19209
G0 F12000 X64.975 Y1.299
G1 F900 X39.084 Y1.299 E445.29112
G0 F12000 X39.162 Y-0.65
G1 F900 X42.475 Y-0.65 E445.55971
G0 F12000 X42.475 Y-1.3
G1 F900 X39.019 Y-1.3 E445.83989
G0 F12000 X38.749 Y-1.95
G1 F900 X42.475 Y-1.95 E446.14196
G0 F12000 X42.475 Y-2.6
G1 F900 X38.336 Y-2.6 E446.47752
G0 F12000 X37.774 Y-3.25
G1 F900 X42.475 Y-3.25 E446.85864
G0 F12000 X42.475 Y-3.9
G1 F900 X36.875 Y-3.9 E447.31264
G0 F12000 X32.556 Y-3.9
G1 F900 X30.525 Y-3.9 E447.47729
G0 F12000 X30.525 Y-4.55
G1 F900 X42.475 Y-4.55 E448.4461
G0 F12000 X42.475 Y-5.2
G1 F900 X30.525 Y-5.2 E449.4149
G0 F12000 X30.525 Y-5.85
G1 F900 X42.475 Y-5.85 E450.38371
G0 F12000 X42.475 Y-6.5
G1 F900 X30.525 Y-6.5 E451.35251
G0 F12000 X30.525 Y-7.15
G1 F900 X42.475 Y-7.15 E452.32132
G0 F12000 X42.475 Y-7.8
G1 F900 X30.525 Y-7.8 E453.29013
G0 F12000 X30.525 Y-8.45
G1 F900 X42.475 Y-8.45 E454.25893
G0 F12000 X42.475 Y-9.1
G1 F900 X30.525 Y-9.1 E455.22774
G0 F12000 X30.525 Y-9.75
G1 F900 X42.475 Y-9.75 E456.19654
G0 F12000 X42.475 Y-10.4
G1 F900 X30.525 Y-10.4 E457.16535
G0 F12000 X30.525 Y-11.05
G1 F900 X42.475 Y-11.05 E458.13415
G0 F12000 X42.475 Y-11.7
G1 F900 X30.525 Y-11.7 E459.10296
G0 F12000 X30.525 Y-12.35
G1 F900 X42.475 Y-12.35 E460.07176
G0 F12000 X42.475 Y-13
G1 F900 X30.525 Y-13 E461.04057
G0 F12000 X30.525 Y-13.65
G1 F900 X42.475 Y-13.65 E462.00937
G0 F12000 X42.475 Y-14.3
G1 F900 X30.525 Y-14.3 E462.97818
G0 F12000 X30.525 Y-14.95
G1 F900 X42.475 Y-14.95 E463.94698
G0 F12000 X42.475 Y-15.6
G1 F900 X30.525 Y-15.6 E464.91579
G0 F12000 X30.525 Y-16.25
G1 F900 X37.063 Y-16.25 E465.44584
G0 F12000 X37.937 Y-16.25
G1 F900 X42.475 Y-16.25 E465.81374
G0 F12000 X42.475 Y-16.9
G1 F900 X39.9 Y-16.9 E466.0225
G0 F12000 X40.731 Y-17.55
G1 F900 X42.475 Y-17.55 E466.16389
G0 F12000 X42.475 Y-18.2
G1 F900 X41.413 Y-18.525 E466.26459
G1 X42.475 Y-19.175 E466.33588
G1 X41.913 Y-19.825 E466.3855
G1 X42.475 Y-20.8 E466.42676
G1 X41.878 Y-21.775 E466.4694
G1 X42.475 Y-22.425 E466.52345
G1 X41.54 Y-22.75 E466.6037
G0 F12000 X41.133 Y-23.4
G1 F900 X42.475 Y-23.4 E466.71249
G0 F12000 X42.475 Y-24.05
G1 F900 X40.578 Y-24.05 E466.86629
G0 F12000 X40.272 Y-24.7
G1 F900 X42.475 Y-24.7 E467.04489
G1 F6000 E464.54489
G0 F900 X40.272 Y-24.7
G0 X40.578 Y-24.05
G0 X42.475 Y-24.05
G0 X42.475 Y-23.4
G0 X41.133 Y-23.4
G0 X41.54 Y-22.75
G0 X42.475 Y-22.425
G0 X41.878 Y-21.775
G0 X42.166 Y-21.304
G1 Z0.8
G0 F12000 X34.729 Y-24.7
G1 Z0.3
G1 F6000 E467.04489
G1 F900 X30.525 Y-24.7 E467.38571
G0 F12000 X30.525 Y-24.05
G1 F900 X34.424 Y-24.05 E467.70181
G0 F12000 X33.869 Y-23.4
G1 F900 X30.525 Y-23.4 E467.97291
G0 F12000 X30.525 Y-22.75
G1 F900 X33.46 Y-22.75 E468.21086
G0 F12000 X33.191 Y-22.1
G1 F900 X30.525 Y-22.1 E468.427
G0 F12000 X30.525 Y-21.45
G1 F900 X33.052 Y-21.45 E468.63186
G0 F12000 X32.966 Y-20.8
G1 F900 X30.525 Y-20.8 E468.82976
G0 F12000 X30.525 Y-20.15
G1 F900 X33.035 Y-20.15 E469.03325
G0 F12000 X33.137 Y-19.5
G1 F900 X30.525 Y-19.5 E469.24501
G0 F12000 X30.525 Y-18.85
G1 F900 X33.405 Y-18.85 E469.4785
G0 F12000 X33.766 Y-18.2
G1 F900 X30.525 Y-18.2 E469.74125
G0 F12000 X30.525 Y-17.55
G1 F900 X34.265 Y-17.55 E470.04446
G0 F12000 X35.097 Y-16.9
G1 F900 X30.525 Y-16.9 E470.41511
G1 F6000 E467.91511
G0 F900 X35.097 Y-16.9
G0 X34.265 Y-17.55
G0 X30.525 Y-17.55
G0 X30.525 Y-18.183
G1 Z0.8
G0 F12000 X30.525 Y-3.25
G1 Z0.3
G1 F6000 E470.41511
G1 F900 X31.376 Y-2.925 E470.50692
G1 X30.525 Y-2.6 E470.58077
G0 F12000 X30.249 Y0.649
G1 F900 X-19.974 Y0.65 E474.65243
G0 F12000 X-19.974 Y1.3
G1 F900 X30.349 Y1.299 E478.73219
G0 F12000 X30.617 Y1.949
G1 F900 X16.681 Y1.949 E479.86201
G0 F12000 X17.801 Y2.599
G1 F900 X30.974 Y2.599 E480.92996
G0 F12000 X31.473 Y3.249
G1 F900 X18.469 Y3.249 E481.98422
G0 F12000 X18.953 Y3.899
G1 F900 X32.047 Y3.899 E483.04577
G0 F12000 X31.779 Y4.549
G1 F900 X19.221 Y4.549 E484.06387
G0 F12000 X19.419 Y5.199
G1 F900 X31.58 Y5.199 E485.04978
G0 F12000 X31.494 Y5.849
G1 F900 X19.506 Y5.849 E486.02166
G0 F12000 X19.493 Y6.499
G1 F900 X31.506 Y6.499 E486.99558
G0 F12000 X31.593 Y7.149
G1 F900 X19.407 Y7.149 E487.98351
G0 F12000 X19.182 Y7.799
G1 F900 X31.818 Y7.799 E489.00794
G0 F12000 X32.105 Y8.449
G1 F900 X18.896 Y8.449 E490.07881
G0 F12000 X18.396 Y9.099
G1 F900 X32.605 Y9.099 E491.23076
G0 F12000 X33.322 Y9.749
G1 F900 X17.677 Y9.749 E492.49912
G0 F12000 X16.454 Y10.399
G1 F900 X34.545 Y10.399 E493.96579
G0 F12000 X37.454 Y10.399
G1 F900 X43.22 Y10.399 E494.43325
G0 F12000 X42.147 Y9.749
G1 F900 X38.677 Y9.749 E494.71456
G0 F12000 X39.396 Y9.099
G1 F900 X41.502 Y9.099 E494.8853
G0 F12000 X41.031 Y8.449
G1 F900 X40.039 Y8.124 E494.97735
G1 X40.762 Y7.799 E495.04162
G1 F6000 E492.54162
G0 F900 X40.039 Y8.124
G0 X41.031 Y8.449
G0 X41.502 Y9.099
G0 X39.396 Y9.099
G0 X38.677 Y9.749
G0 X42.147 Y9.749
G0 X42.846 Y10.173
G1 Z0.8
G0 F12000 X43.258 Y9.28
G0 X44.097 Y9.627
G0 X46.781 Y10.399
G1 Z0.3
G1 F6000 E495.04162
G1 F900 X55.22 Y10.399 E495.72578
G0 F12000 X54.147 Y9.749
G1 F900 X47.854 Y9.749 E496.23596
G0 F12000 X48.5 Y9.099
G1 F900 X53.502 Y9.099 E496.64148
G0 F12000 X53.031 Y8.449
G1 F900 X48.969 Y8.449 E496.97079
G0 F12000 X49.238 Y7.799
G1 F900 X52.762 Y7.799 E497.25649
G0 F12000 X52.575 Y7.149
G1 F900 X49.425 Y7.149 E497.51187
G0 F12000 X49.511 Y6.499
G1 F900 X52.488 Y6.499 E497.75322
G0 F12000 X52.512 Y5.849
G1 F900 X49.488 Y5.849 E497.99838
G0 F12000 X49.401 Y5.199
G1 F900 X52.598 Y5.199 E498.25756
G0 F12000 X52.834 Y4.549
G1 F900 X49.165 Y4.549 E498.55501
G0 F12000 X48.864 Y3.899
G1 F900 X53.134 Y3.899 E498.90119
G0 F12000 X53.633 Y3.249
G1 F900 X48.364 Y3.249 E499.32836
G0 F12000 X47.623 Y2.599
G1 F900 X54.373 Y2.599 E499.87559
G0 F12000 X55.644 Y1.949
G1 F900 X46.354 Y1.949 E500.62874
G1 F6000 E498.12874
G0 F900 X55.644 Y1.949
G0 X55.012 Y2.272
G1 Z0.8
G0 F12000 X58.354 Y1.949
G1 Z0.3
G1 F6000 E500.62874
G1 F900 X64.975 Y1.949 E501.16552
G0 F12000 X64.975 Y2.599
G1 F900 X59.623 Y2.599 E501.59941
G0 F12000 X60.364 Y3.249
G1 F900 X64.975 Y3.249 E501.97324
G0 F12000 X64.975 Y3.899
G1 F900 X60.864 Y3.899 E502.30652
G0 F12000 X61.165 Y4.549
G1 F900 X64.975 Y4.549 E502.6154
G0 F12000 X64.975 Y5.199
G1 F900 X61.401 Y5.199 E502.90515
G0 F12000 X61.488 Y5.849
G1 F900 X64.975 Y5.849 E503.18785
G0 F12000 X64.975 Y6.499
G1 F900 X61.511 Y6.499 E503.46868
G0 F12000 X61.425 Y7.149
G1 F900 X64.975 Y7.149 E503.75649
G0 F12000 X64.975 Y7.799
G1 F900 X61.238 Y7.799 E504.05945
G0 F12000 X60.969 Y8.449
G1 F900 X64.975 Y8.449 E504.38422
G0 F12000 X64.975 Y9.099
G1 F900 X60.5 Y9.099 E504.74702
G0 F12000 X59.854 Y9.749
G1 F900 X64.975 Y9.749 E505.16219
G0 F12000 X64.975 Y10.399
G1 F900 X58.781 Y10.399 E505.66434
G1 F6000 E503.16434
G0 F900 X64.975 Y10.399
G0 X64.975 Y9.749
G0 X61.819 Y9.749
G1 Z0.8
G0 F12000 X64.975 Y11.049
G1 Z0.3
G1 F6000 E505.66434
G1 F900 X-19.974 Y11.05 E512.55129
G0 F12000 X-19.974 Y10.4
G1 F900 X-10.453 Y10.4 E513.32318
G0 F12000 X-11.676 Y9.75
G1 F900 X-19.974 Y9.75 E513.99591
G0 F12000 X-19.974 Y9.1
G1 F900 X-12.395 Y9.1 E514.61035
G0 F12000 X-12.895 Y8.45
G1 F900 X-19.974 Y8.45 E515.18425
G0 F12000 X-19.974 Y7.8
G1 F900 X-13.181 Y7.8 E515.73497
G0 F12000 X-13.406 Y7.15
G1 F900 X-19.974 Y7.15 E516.26745
G0 F12000 X-19.974 Y6.5
G1 F900 X-13.492 Y6.5 E516.79296
G0 F12000 X-13.505 Y5.85
G1 F900 X-19.974 Y5.85 E517.31741
G0 F12000 X-19.974 Y5.2
G1 F900 X-13.418 Y5.2 E517.84892
G0 F12000 X-13.22 Y4.55
G1 F900 X-19.974 Y4.55 E518.39647
G0 F12000 X-19.974 Y3.9
G1 F900 X-12.953 Y3.9 E518.96568
G0 F12000 X-12.469 Y3.25
G1 F900 X-19.974 Y3.25 E519.57412
G0 F12000 X-19.974 Y2.6
G1 F900 X-11.801 Y2.6 E520.23672
G0 F12000 X-10.683 Y1.95
G1 F900 X-19.974 Y1.95 E520.98995
G1 F6000 E518.48995
G0 F900 X-10.683 Y1.95
G0 X-11.296 Y2.306
G1 Z0.8
G0 F12000 X-19.974 Y11.7
G1 Z0.3
G1 F6000 E520.98995
G1 F900 X64.975 Y11.699 E527.8769
G1 F6000 E525.3769
G0 F900 X54.975 Y11.699
G1 Z0.8
G0 F12000 X13.545 Y10.4
G1 Z0.3
G1 F6000 E527.8769
G1 F900 X-7.543 Y10.4 E529.58654
G0 F12000 X-6.32 Y9.75
G1 F900 X12.322 Y9.75 E531.09788
G0 F12000 X11.605 Y9.1
G1 F900 X-5.603 Y9.1 E532.49296
G0 F12000 X-5.103 Y8.45
G1 F900 X11.105 Y8.45 E533.80696
G0 F12000 X10.818 Y7.799
G1 F900 X-4.816 Y7.8 E535.07444
G0 F12000 X-4.592 Y7.15
G1 F900 X10.593 Y7.149 E536.30551
G0 F12000 X10.506 Y6.499
G1 F900 X-4.505 Y6.5 E537.52247
G0 F12000 X-4.493 Y5.85
G1 F900 X10.494 Y5.849 E538.73749
G0 F12000 X10.58 Y5.199
G1 F900 X-4.579 Y5.2 E539.96646
G0 F12000 X-4.778 Y4.55
G1 F900 X10.779 Y4.549 E541.22769
G0 F12000 X11.047 Y3.899
G1 F900 X-5.045 Y3.9 E542.53229
G0 F12000 X-5.529 Y3.25
G1 F900 X11.531 Y3.249 E543.91537
G0 F12000 X12.198 Y2.599
G1 F900 X-6.196 Y2.6 E545.4066
G0 F12000 X-7.314 Y1.95
G1 F900 X13.317 Y1.949 E547.07919
G1 F6000 E544.57919
G0 F900 X3.317 Y1.949
G1 Z0.8
G0 F12000 X-21.024 Y-0.761
G0 X-21.999 Y-1.736
G0 X-21.999 Y-4.236
G0 X-28.999 Y-4.236
G0 X-28.999 Y6.262
G0 X-29.974 Y5.287
G0 X-44.024 Y5.287
G0 X-44.674 Y5.937
; TYPE:WALL-OUTER
G1 Z0.3
G1 F6000 E547.07919
G1 F900 X-44.674 Y-27.411 E549.78277
G1 X-29.324 Y-27.411 E551.02722
G1 X-29.324 Y5.937 E553.73079
G1 X-44.674 Y5.937 E554.97524
G0 F12000 X-44.024 Y5.287
; TYPE:WALL-INNER
G1 F900 X-44.024 Y-26.761 E557.57342
G1 X-29.974 Y-26.761 E558.71248
G1 X-29.974 Y5.287 E561.31066
G1 X-44.024 Y5.287 E562.44971
G0 F12000 X-43.374 Y4.637
G1 F900 X-43.374 Y-26.111 E564.9425
G1 X-30.624 Y-26.111 E565.97617
G1 X-30.624 Y4.637 E568.46896
G1 X-43.374 Y4.637 E569.50262
G0 F12000 X-42.974 Y3.9
; TYPE:BOTTOM-FILL
G1 F900 X-31.024 Y3.9 E570.47142
G0 F12000 X-31.024 Y3.25
G1 F900 X-42.974 Y3.25 E571.44023
G0 F12000 X-42.974 Y2.6
G1 F900 X-31.024 Y2.6 E572.40903
G0 F12000 X-31.024 Y1.95
G1 F900 X-42.974 Y1.95 E573.37784
G0 F12000 X-42.974 Y1.3
G1 F900 X-31.024 Y1.3 E574.34664
G0 F12000 X-31.024 Y0.65
G1 F900 X-42.974 Y0.65 E575.31545
G0 F12000 X-42.974 Y0
G1 F900 X-31.024 Y0 E576.28426
G0 F12000 X-31.024 Y-0.649
G1 F900 X-42.974 Y-0.649 E577.25306
G0 F12000 X-42.974 Y-1.299
G1 F900 X-31.024 Y-1.299 E578.22187
G0 F12000 X-31.024 Y-1.949
G1 F900 X-42.974 Y-1.949 E579.19067
G0 F12000 X-42.974 Y-2.599
G1 F900 X-31.024 Y-2.599 E580.15948
G0 F12000 X-31.024 Y-3.249
G1 F900 X-42.974 Y-3.249 E581.12828
G0 F12000 X-42.974 Y-3.899
G1 F900 X-31.024 Y-3.899 E582.09709
G0 F12000 X-31.024 Y-4.549
G1 F900 X-42.974 Y-4.549 E583.06589
G0 F12000 X-42.974 Y-5.199
G1 F900 X-31.024 Y-5.199 E584.0347
G0 F12000 X-31.024 Y-5.849
G1 F900 X-42.974 Y-5.849 E585.0035
G0 F12000 X-42.974 Y-6.499
G1 F900 X-31.024 Y-6.499 E585.97231
G0 F12000 X-31.024 Y-7.149
G1 F900 X-42.974 Y-7.149 E586.94111
G0 F12000 X-42.974 Y-7.799
G1 F900 X-31.024 Y-7.799 E587.90992
G0 F12000 X-31.024 Y-8.449
G1 F900 X-42.974 Y-8.449 E588.87873
G0 F12000 X-42.974 Y-9.099
G1 F900 X-31.024 Y-9.099 E589.84753
G0 F12000 X-31.024 Y-9.749
G1 F900 X-42.974 Y-9.749 E590.81634
G0 F12000 X-42.974 Y-10.399
G1 F900 X-31.024 Y-10.399 E591.78514
G0 F12000 X-31.024 Y-11.049
G1 F900 X-42.974 Y-11.049 E592.75395
G0 F12000 X-42.974 Y-11.699
G1 F900 X-31.024 Y-11.699 E593.72275
G0 F12000 X-31.024 Y-12.349
G1 F900 X-42.974 Y-12.349 E594.69156
G0 F12000 X-42.974 Y-12.999
G1 F900 X-31.024 Y-12.999 E595.66036
G0 F12000 X-31.024 Y-13.649
G1 F900 X-42.974 Y-13.649 E596.62917
G0 F12000 X-42.974 Y-14.299
G1 F900 X-31.024 Y-14.299 E597.59797
G0 F12000 X-31.024 Y-14.949
G1 F900 X-42.974 Y-14.949 E598.56678
G0 F12000 X-42.974 Y-15.599
G1 F900 X-31.024 Y-15.599 E599.53558
G0 F12000 X-31.024 Y-16.249
G1 F900 X-42.974 Y-16.249 E600.50439
G0 F12000 X-42.974 Y-16.899
G1 F900 X-31.024 Y-16.899 E601.4732
G0 F12000 X-31.024 Y-17.549
G1 F900 X-42.974 Y-17.549 E602.442
G0 F12000 X-42.974 Y-18.199
G1 F900 X-31.024 Y-18.199 E603.41081
G0 F12000 X-31.024 Y-18.849
G1 F900 X-42.974 Y-18.849 E604.37961
G0 F12000 X-42.974 Y-19.499
G1 F900 X-31.024 Y-19.499 E605.34842
G0 F12000 X-31.024 Y-20.149
G1 F900 X-42.974 Y-20.149 E606.31722
G0 F12000 X-42.974 Y-20.799
G1 F900 X-31.024 Y-20.799 E607.28603
G0 F12000 X-31.024 Y-21.449
G1 F900 X-42.974 Y-21.449 E608.25483
G0 F12000 X-42.974 Y-22.099
G1 F900 X-31.024 Y-22.099 E609.22364
G0 F12000 X-31.024 Y-22.749
G1 F900 X-42.974 Y-22.749 E610.19244
G0 F12000 X-42.974 Y-23.399
G1 F900 X-31.024 Y-23.399 E611.16125
G0 F12000 X-31.024 Y-24.049
G1 F900 X-42.974 Y-24.049 E612.13005
G0 F12000 X-42.974 Y-24.699
G1 F900 X-31.024 Y-24.699 E613.09886
G0 F12000 X-31.024 Y-25.349
G1 F900 X-42.974 Y-25.349 E614.06767
G1 F6000 E611.56767
G0 F900 X-32.974 Y-25.349
G1 Z0.8
G0 F12000 X-44.024 Y-26.761
G0 X-44.999 Y-27.736
G0 X-50.999 Y-27.236
G0 X-51.974 Y-26.261
G0 X-51.974 Y13.484
G0 X-37.697 Y30.012
G0 X-37.206 Y29.588
; TYPE:WALL-OUTER
G1 Z0.3
G1 F6000 E614.06767
G1 F900 X-26.324 Y29.588 E614.94989
G1 X-26.324 Y44.938 E616.19433
G1 X-34.351 Y44.938 E616.8451
G1 X-52.055 Y24.438 E619.04105
G1 X-66.674 Y24.438 E620.22623
G1 X-66.674 Y-26.911 E624.38918
G1 X-51.324 Y-26.911 E625.63362
G1 X-51.324 Y13.242 E628.88889
G1 X-37.206 Y29.588 E630.63994
G0 F12000 X-37.697 Y30.012
G0 X-37.503 Y30.238
; TYPE:WALL-INNER
G1 F900 X-26.974 Y30.238 E631.49355
G1 X-26.974 Y44.288 E632.6326
G1 X-34.053 Y44.288 E633.20651
G1 X-51.758 Y23.788 E635.40251
G1 X-66.024 Y23.788 E636.55908
G1 X-66.024 Y-26.261 E640.61663
G1 X-51.974 Y-26.261 E641.75569
G1 X-51.974 Y13.484 E644.97787
G1 X-37.503 Y30.238 E646.77267
G0 F12000 X-37.801 Y30.888
G1 F900 X-27.624 Y30.888 E647.59773
G1 X-27.624 Y43.638 E648.63139
G1 X-33.755 Y43.638 E649.12844
G1 X-51.46 Y23.138 E651.32445
G1 X-65.374 Y23.138 E652.45248
G1 X-65.374 Y-25.611 E656.40463
G1 X-52.624 Y-25.611 E657.4383
G1 X-52.624 Y13.726 E660.62741
G1 X-37.801 Y30.888 E662.46589
G1 F6000 E659.96589
G0 F900 X-44.337 Y23.32
G1 Z0.8
G0 F12000 X-35.363 Y37.165
G0 X-35.016 Y38.005
G0 X-34.461 Y38.725
G0 X-33.741 Y39.28
G0 X-32.901 Y39.627
G0 X-32.084 Y39.735
G0 X-31.999 Y39.091
; TYPE:WALL-OUTER
G1 Z0.3
G1 F6000 E662.46589
G1 F900 X-31.266 Y38.994 E662.52583
G1 X-30.585 Y38.712 E662.58559
G1 X-29.999 Y38.262 E662.64549
G1 X-29.549 Y37.677 E662.70532
G1 X-29.267 Y36.995 E662.76515
G1 X-29.171 Y36.263 E662.82501
G1 X-29.267 Y35.53 E662.88494
G1 X-29.549 Y34.849 E662.94469
G1 X-29.999 Y34.263 E663.00459
G1 X-30.585 Y33.813 E663.06449
G1 X-31.266 Y33.531 E663.12425
G1 X-31.999 Y33.435 E663.18418
G1 X-32.731 Y33.531 E663.24404
G1 X-33.413 Y33.813 E663.30387
G1 X-33.998 Y34.263 E663.3637
G1 X-34.448 Y34.849 E663.4236
G1 X-34.73 Y35.53 E663.48336
G1 X-34.827 Y36.263 E663.5433
G1 X-34.73 Y36.995 E663.60316
G1 X-34.448 Y37.677 E663.66299
G1 X-33.998 Y38.262 E663.72283
G1 X-33.413 Y38.712 E663.78267
G1 X-32.731 Y38.994 E663.8425
G1 X-31.999 Y39.091 E663.90236
G0 F12000 X-32.084 Y39.735
G0 X-31.999 Y39.747
; TYPE:WALL-INNER
G1 F900 X-31.096 Y39.627 E663.97621
G1 X-30.257 Y39.28 E664.04982
G1 X-29.536 Y38.726 E664.12353
G1 X-28.981 Y38.005 E664.1973
G1 X-28.634 Y37.164 E664.27105
G1 X-28.516 Y36.263 E664.34472
G1 X-28.634 Y35.361 E664.41847
G1 X-28.981 Y34.521 E664.49216
G1 X-29.536 Y33.8 E664.56592
G1 X-30.257 Y33.245 E664.63968
G1 X-31.097 Y32.898 E664.71337
G1 X-31.999 Y32.78 E664.78712
G1 X-32.9 Y32.898 E664.86079
G1 X-33.741 Y33.245 E664.93454
G1 X-34.462 Y33.8 E665.00831
G1 X-35.016 Y34.521 E665.08202
G1 X-35.363 Y35.36 E665.15563
G1 X-35.483 Y36.263 E665.22948
G1 X-35.363 Y37.165 E665.30325
G1 X-35.016 Y38.005 E665.37693
G1 X-34.461 Y38.725 E665.45063
G1 X-33.741 Y39.28 E665.52433
G1 X-32.901 Y39.627 E665.59802
G1 X-31.999 Y39.747 E665.67179
G0 F12000 X-31.999 Y40.402
G1 F900 X-30.926 Y40.26 E665.75954
G1 X-29.929 Y39.847 E665.84702
G1 X-29.073 Y39.189 E665.93456
G1 X-28.414 Y38.333 E666.02214
G1 X-28.001 Y37.333 E666.10985
G1 X-27.86 Y36.263 E666.19735
G1 X-28.001 Y35.192 E666.28492
G1 X-28.414 Y34.193 E666.37256
G1 X-29.072 Y33.336 E666.46016
G1 X-29.929 Y32.678 E666.54775
G1 X-30.928 Y32.265 E666.63539
G1 X-31.999 Y32.124 E666.72297
G1 X-33.069 Y32.265 E666.81046
G1 X-34.069 Y32.678 E666.89818
G1 X-34.925 Y33.337 E666.98576
G1 X-35.583 Y34.193 E667.07329
G1 X-35.996 Y35.19 E667.16078
G1 X-36.138 Y36.263 E667.24853
G1 X-35.996 Y37.334 E667.33611
G1 X-35.583 Y38.333 E667.42375
G1 X-34.925 Y39.189 E667.51128
G1 X-34.069 Y39.847 E667.59882
G1 X-33.07 Y40.26 E667.68645
G1 X-31.999 Y40.402 E667.77404
G1 F6000 E665.27404
G0 F900 X-33.07 Y40.26
G0 X-34.069 Y39.847
G0 X-34.925 Y39.189
G0 X-35.583 Y38.333
G0 X-35.996 Y37.334
G0 X-36.138 Y36.263
G0 X-35.996 Y35.19
G0 X-35.583 Y34.193
G0 X-34.925 Y33.337
G0 X-34.704 Y33.167
G1 Z0.8
G0 F12000 X-33.741 Y39.28
G0 X-47.156 Y29.117
G0 X-51.758 Y23.788
G0 X-59.084 Y20.235
G0 X-58.999 Y19.591
; TYPE:WALL-OUTER
G1 Z0.3
G1 F6000 E667.77404
G1 F900 X-58.266 Y19.494 E667.83398
G1 X-57.585 Y19.212 E667.89374
G1 X-56.999 Y18.762 E667.95364
G1 X-56.549 Y18.177 E668.01348
G1 X-56.267 Y17.495 E668.07331
G1 X-56.171 Y16.763 E668.13316
G1 X-56.267 Y16.03 E668.19309
G1 X-56.549 Y15.349 E668.25285
G1 X-56.999 Y14.763 E668.31275
G1 X-57.585 Y14.313 E668.37265
G1 X-58.266 Y14.031 E668.4324
G1 X-58.999 Y13.935 E668.49234
G1 X-59.731 Y14.031 E668.55219
G1 X-60.413 Y14.313 E668.61202
G1 X-60.998 Y14.763 E668.67186
G1 X-61.448 Y15.349 E668.73176
G1 X-61.73 Y16.03 E668.79151
G1 X-61.827 Y16.763 E668.85145
G1 X-61.73 Y17.495 E668.91132
G1 X-61.448 Y18.177 E668.97115
G1 X-60.998 Y18.762 E669.03098
G1 X-60.413 Y19.212 E669.09082
G1 X-59.731 Y19.494 E669.15065
G1 X-58.999 Y19.591 E669.21051
G0 F12000 X-59.084 Y20.235
G0 X-58.999 Y20.247
; TYPE:WALL-INNER
G1 F900 X-58.096 Y20.127 E669.28437
G1 X-57.257 Y19.78 E669.35797
G1 X-56.536 Y19.226 E669.43169
G1 X-55.981 Y18.505 E669.50545
G1 X-55.634 Y17.664 E669.57921
G1 X-55.516 Y16.763 E669.65288
G1 X-55.634 Y15.861 E669.72663
G1 X-55.981 Y15.021 E669.80031
G1 X-56.536 Y14.3 E669.87407
G1 X-57.257 Y13.745 E669.94784
G1 X-58.097 Y13.398 E670.02152
G1 X-58.999 Y13.28 E670.09527
G1 X-59.9 Y13.398 E670.16894
G1 X-60.741 Y13.745 E670.2427
G1 X-61.462 Y14.3 E670.31646
G1 X-62.016 Y15.021 E670.39018
G1 X-62.363 Y15.86 E670.46378
G1 X-62.483 Y16.763 E670.53764
G1 X-62.363 Y17.665 E670.61141
G1 X-62.016 Y18.505 E670.68509
G1 X-61.461 Y19.225 E670.75879
G1 X-60.741 Y19.78 E670.83249
G1 X-59.901 Y20.127 E670.90617
G1 X-58.999 Y20.247 E670.97994
G0 F12000 X-58.999 Y20.902
G1 F900 X-57.926 Y20.76 E671.06769
G1 X-56.929 Y20.347 E671.15518
G1 X-56.073 Y19.689 E671.24271
G1 X-55.414 Y18.833 E671.33029
G1 X-55.001 Y17.833 E671.418
G1 X-54.86 Y16.763 E671.5055
G1 X-55.001 Y15.692 E671.59308
G1 X-55.414 Y14.693 E671.68072
G1 X-56.072 Y13.836 E671.76831
G1 X-56.929 Y13.178 E671.85591
G1 X-57.928 Y12.765 E671.94355
G1 X-58.999 Y12.624 E672.03112
G1 X-60.069 Y12.765 E672.11862
G1 X-61.069 Y13.178 E672.20633
G1 X-61.925 Y13.837 E672.29391
G1 X-62.583 Y14.693 E672.38144
G1 X-62.996 Y15.69 E672.46893
G1 X-63.138 Y16.763 E672.55668
G1 X-62.996 Y17.834 E672.64427
G1 X-62.583 Y18.833 E672.73191
G1 X-61.925 Y19.689 E672.81944
G1 X-61.069 Y20.347 E672.90697
G1 X-60.07 Y20.76 E672.99461
G1 X-58.999 Y20.902 E673.0822
G1 F6000 E670.5822
G0 F900 X-60.07 Y20.76
G0 X-61.069 Y20.347
G0 X-61.925 Y19.689
G0 X-62.583 Y18.833
G0 X-62.996 Y17.834
G0 X-63.138 Y16.763
G0 X-62.996 Y15.69
G0 X-62.583 Y14.693
G0 X-61.925 Y13.837
G0 X-61.704 Y13.667
G1 Z0.8
G0 F12000 X-60.741 Y19.78
G0 X-61.461 Y19.225
G0 X-62.016 Y18.505
G0 X-62.363 Y17.665
G0 X-62.483 Y16.763
G0 X-62.363 Y15.86
G0 X-62.016 Y15.021
G0 X-59.084 Y8.235
G0 X-58.999 Y7.591
; TYPE:WALL-OUTER
G1 Z0.3
G1 F6000 E673.0822
G1 F900 X-58.266 Y7.494 E673.14214
G1 X-57.585 Y7.212 E673.2019
G1 X-56.999 Y6.762 E673.2618
G1 X-56.549 Y6.177 E673.32163
G1 X-56.267 Y5.495 E673.38146
G1 X-56.171 Y4.763 E673.44131
G1 X-56.267 Y4.03 E673.50125
G1 X-56.549 Y3.349 E673.561
G1 X-56.999 Y2.763 E673.6209
G1 X-57.585 Y2.313 E673.6808
G1 X-58.266 Y2.031 E673.74056
G1 X-58.999 Y1.935 E673.80049
G1 X-59.731 Y2.031 E673.86034
G1 X-60.413 Y2.313 E673.92017
G1 X-60.998 Y2.763 E673.98001
G1 X-61.448 Y3.349 E674.03991
G1 X-61.73 Y4.03 E674.09967
G1 X-61.827 Y4.763 E674.15961
G1 X-61.73 Y5.495 E674.21947
G1 X-61.448 Y6.177 E674.2793
G1 X-60.998 Y6.762 E674.33914
G1 X-60.413 Y7.212 E674.39897
G1 X-59.731 Y7.494 E674.45881
G1 X-58.999 Y7.591 E674.51867
G0 F12000 X-59.084 Y8.235
G0 X-58.999 Y8.247
; TYPE:WALL-INNER
G1 F900 X-58.096 Y8.127 E674.59252
G1 X-57.257 Y7.78 E674.66613
G1 X-56.536 Y7.226 E674.73984
G1 X-55.981 Y6.505 E674.81361
G1 X-55.634 Y5.664 E674.88736
G1 X-55.516 Y4.763 E674.96103
G1 X-55.634 Y3.861 E675.03478
G1 X-55.981 Y3.021 E675.10846
G1 X-56.536 Y2.3 E675.18223
G1 X-57.257 Y1.745 E675.25599
G1 X-58.097 Y1.398 E675.32968
G1 X-58.999 Y1.28 E675.40343
G1 X-59.9 Y1.398 E675.47709
G1 X-60.741 Y1.745 E675.55085
G1 X-61.462 Y2.3 E675.62462
G1 X-62.016 Y3.021 E675.69833
G1 X-62.363 Y3.86 E675.77194
G1 X-62.483 Y4.763 E675.84579
G1 X-62.363 Y5.665 E675.91956
G1 X-62.016 Y6.505 E675.99324
G1 X-61.461 Y7.225 E676.06694
G1 X-60.741 Y7.78 E676.14064
G1 X-59.901 Y8.127 E676.21433
G1 X-58.999 Y8.247 E676.2881
G0 F12000 X-58.999 Y8.902
G1 F900 X-57.926 Y8.76 E676.37584
G1 X-56.929 Y8.347 E676.46333
G1 X-56.073 Y7.689 E676.55086
G1 X-55.414 Y6.833 E676.63844
G1 X-55.001 Y5.833 E676.72616
G1 X-54.86 Y4.763 E676.81366
G1 X-55.001 Y3.692 E676.90123
G1 X-55.414 Y2.693 E676.98887
G1 X-56.072 Y1.836 E677.07647
G1 X-56.929 Y1.178 E677.16406
G1 X-57.928 Y0.765 E677.2517
G1 X-58.999 Y0.624 E677.33928
G1 X-60.069 Y0.765 E677.42677
G1 X-61.069 Y1.178 E677.51449
G1 X-61.925 Y1.837 E677.60207
G1 X-62.583 Y2.693 E677.6896
G1 X-62.996 Y3.69 E677.77709
G1 X-63.138 Y4.763 E677.86484
G1 X-62.996 Y5.834 E677.95242
G1 X-62.583 Y6.833 E678.04006
G1 X-61.925 Y7.689 E678.12759
G1 X-61.069 Y8.347 E678.21512
G1 X-60.07 Y8.76 E678.30276
G1 X-58.999 Y8.902 E678.39035
G1 F6000 E675.89035
G0 F900 X-60.07 Y8.76
G0 X-61.069 Y8.347
G0 X-61.925 Y7.689
G0 X-62.583 Y6.833
G0 X-62.996 Y5.834
G0 X-63.138 Y4.763
G0 X-62.996 Y3.69
G0 X-62.583 Y2.693
G0 X-61.925 Y1.837
G0 X-61.704 Y1.667
G1 Z0.8
G0 F12000 X-60.741 Y7.78
G0 X-61.461 Y7.225
G0 X-62.016 Y6.505
G0 X-62.363 Y5.665
G0 X-62.483 Y4.763
G0 X-62.363 Y3.86
G0 X-59.083 Y-13.765
G0 X-58.999 Y-14.408
; TYPE:WALL-OUTER
G1 Z0.3
G1 F6000 E678.39035
G1 F900 X-58.266 Y-14.504 E678.45028
G1 X-57.585 Y-14.786 E678.51004
G1 X-56.999 Y-15.236 E678.56994
G1 X-56.549 Y-15.822 E678.62984
G1 X-56.267 Y-16.503 E678.68959
G1 X-56.171 Y-17.236 E678.74953
G1 X-56.267 Y-17.968 E678.80938
G1 X-56.549 Y-18.65 E678.86921
G1 X-56.999 Y-19.235 E678.92905
G1 X-57.585 Y-19.685 E678.98895
G1 X-58.266 Y-19.967 E679.0487
G1 X-58.999 Y-20.064 E679.10865
G1 X-59.731 Y-19.967 E679.16851
G1 X-60.413 Y-19.685 E679.22834
G1 X-60.998 Y-19.235 E679.28818
G1 X-61.448 Y-18.65 E679.34801
G1 X-61.73 Y-17.968 E679.40784
G1 X-61.827 Y-17.236 E679.4677
G1 X-61.73 Y-16.503 E679.52765
G1 X-61.448 Y-15.822 E679.5874
G1 X-60.998 Y-15.236 E679.6473
G1 X-60.413 Y-14.786 E679.70714
G1 X-59.731 Y-14.504 E679.76697
G1 X-58.999 Y-14.408 E679.82682
G0 F12000 X-59.083 Y-13.765
G0 X-58.999 Y-13.753
; TYPE:WALL-INNER
G1 F900 X-58.097 Y-13.871 E679.90057
G1 X-57.257 Y-14.218 E679.97425
G1 X-56.536 Y-14.773 E680.04802
G1 X-55.981 Y-15.494 E680.12178
G1 X-55.634 Y-16.334 E680.19547
G1 X-55.516 Y-17.236 E680.26922
G1 X-55.634 Y-18.137 E680.34288
G1 X-55.981 Y-18.978 E680.41664
G1 X-56.536 Y-19.699 E680.49041
G1 X-57.257 Y-20.253 E680.56412
G1 X-58.096 Y-20.6 E680.63773
G1 X-58.999 Y-20.72 E680.71158
G1 X-59.901 Y-20.6 E680.78535
G1 X-60.741 Y-20.253 E680.85903
G1 X-61.461 Y-19.698 E680.93273
G1 X-62.016 Y-18.978 E681.00643
G1 X-62.363 Y-18.138 E681.08012
G1 X-62.483 Y-17.236 E681.15389
G1 X-62.363 Y-16.333 E681.22774
G1 X-62.016 Y-15.494 E681.30134
G1 X-61.462 Y-14.773 E681.37506
G1 X-60.741 Y-14.218 E681.44882
G1 X-59.9 Y-13.871 E681.52258
G1 X-58.999 Y-13.753 E681.59625
G0 F12000 X-58.999 Y-13.097
G1 F900 X-57.928 Y-13.238 E681.68383
G1 X-56.929 Y-13.651 E681.77147
G1 X-56.072 Y-14.309 E681.85906
G1 X-55.414 Y-15.166 E681.94666
G1 X-55.001 Y-16.165 E682.0343
G1 X-54.86 Y-17.236 E682.12187
G1 X-55.001 Y-18.306 E682.20937
G1 X-55.414 Y-19.306 E682.29708
G1 X-56.073 Y-20.162 E682.38466
G1 X-56.929 Y-20.82 E682.47219
G1 X-57.926 Y-21.233 E682.55968
G1 X-58.999 Y-21.375 E682.64743
G1 X-60.07 Y-21.233 E682.73502
G1 X-61.069 Y-20.82 E682.82266
G1 X-61.925 Y-20.162 E682.91019
G1 X-62.583 Y-19.306 E682.99772
G1 X-62.996 Y-18.307 E683.08536
G1 X-63.138 Y-17.236 E683.17295
G1 X-62.996 Y-16.163 E683.26069
G1 X-62.583 Y-15.166 E683.34818
G1 X-61.925 Y-14.31 E683.43571
G1 X-61.069 Y-13.651 E683.52329
G1 X-60.069 Y-13.238 E683.61101
G1 X-58.999 Y-13.097 E683.6985
G0 F12000 X-60.54 Y-12.999
; TYPE:BOTTOM-FILL
G1 F900 X-64.974 Y-12.999 E684.05798
G0 F12000 X-64.974 Y-13.649
G1 F900 X-61.722 Y-13.649 E684.32162
G0 F12000 X-62.422 Y-14.299
G1 F900 X-64.974 Y-14.299 E684.52852
G0 F12000 X-64.974 Y-14.949
G1 F900 X-62.923 Y-14.949 E684.69479
G0 F12000 X-63.196 Y-15.599
G1 F900 X-64.974 Y-15.599 E684.83894
G0 F12000 X-64.974 Y-16.249
G1 F900 X-63.411 Y-16.249 E684.96565
G0 F12000 X-63.497 Y-16.899
G1 F900 X-64.974 Y-16.899 E685.0854
G0 F12000 X-64.974 Y-17.549
G1 F900 X-63.5 Y-17.549 E685.2049
G0 F12000 X-63.413 Y-18.199
G1 F900 X-64.974 Y-18.199 E685.33145
G0 F12000 X-64.974 Y-18.849
G1 F900 X-63.205 Y-18.849 E685.47486
G0 F12000 X-62.937 Y-19.499
G1 F900 X-64.974 Y-19.499 E685.64001
G0 F12000 X-64.974 Y-20.149
G1 F900 X-62.44 Y-20.149 E685.84544
G0 F12000 X-61.753 Y-20.799
G1 F900 X-64.974 Y-20.799 E686.10657
G0 F12000 X-64.974 Y-21.449
G1 F900 X-60.593 Y-21.449 E686.46175
G0 F12000 X-57.405 Y-21.449
G1 F900 X-53.024 Y-21.449 E686.81692
G0 F12000 X-53.024 Y-20.799
G1 F900 X-56.246 Y-20.799 E687.07814
G0 F12000 X-55.56 Y-20.149
G1 F900 X-53.024 Y-20.149 E687.28373
G0 F12000 X-53.024 Y-19.499
G1 F900 X-55.062 Y-19.499 E687.44896
G0 F12000 X-54.793 Y-18.849
G1 F900 X-53.024 Y-18.849 E687.59237
G0 F12000 X-53.024 Y-18.199
G1 F900 X-54.584 Y-18.199 E687.71884
G0 F12000 X-54.498 Y-17.549
G1 F900 X-53.024 Y-17.549 E687.83834
G0 F12000 X-53.024 Y-16.899
G1 F900 X-54.501 Y-16.899 E687.95809
G0 F12000 X-54.587 Y-16.249
G1 F900 X-53.024 Y-16.249 E688.0848
G0 F12000 X-53.024 Y-15.599
G1 F900 X-54.802 Y-15.599 E688.22895
G0 F12000 X-55.074 Y-14.949
G1 F900 X-53.024 Y-14.949 E688.39514
G0 F12000 X-53.024 Y-14.299
G1 F900 X-55.573 Y-14.299 E688.60179
G0 F12000 X-56.272 Y-13.649
G1 F900 X-53.024 Y-13.649 E688.86512
G0 F12000 X-53.024 Y-12.999
G1 F900 X-57.457 Y-12.999 E689.22451
G0 F12000 X-53.024 Y-12.349
G1 F900 X-64.974 Y-12.349 E690.19331
G0 F12000 X-64.974 Y-11.699
G1 F900 X-53.024 Y-11.699 E691.16212
G0 F12000 X-53.024 Y-11.049
G1 F900 X-64.974 Y-11.049 E692.13092
G0 F12000 X-64.974 Y-10.399
G1 F900 X-53.024 Y-10.399 E693.09973
G0 F12000 X-53.024 Y-9.749
G1 F900 X-64.974 Y-9.749 E694.06853
G0 F12000 X-64.974 Y-9.099
G1 F900 X-53.024 Y-9.099 E695.03734
G0 F12000 X-53.024 Y-8.449
G1 F900 X-64.974 Y-8.449 E696.00614
G0 F12000 X-64.974 Y-7.799
G1 F900 X-53.024 Y-7.799 E696.97495
G0 F12000 X-53.024 Y-7.149
G1 F900 X-64.974 Y-7.149 E697.94375
G0 F12000 X-64.974 Y-6.499
G1 F900 X-53.024 Y-6.499 E698.91256
G0 F12000 X-53.024 Y-5.849
G1 F900 X-64.974 Y-5.849 E699.88136
G0 F12000 X-64.974 Y-5.199
G1 F900 X-53.024 Y-5.199 E700.85017
G0 F12000 X-53.024 Y-4.549
G1 F900 X-64.974 Y-4.549 E701.81898
G0 F12000 X-64.974 Y-3.899
G1 F900 X-53.024 Y-3.899 E702.78778
G0 F12000 X-53.024 Y-3.249
G1 F900 X-64.974 Y-3.249 E703.75659
G0 F12000 X-64.974 Y-2.599
G1 F900 X-53.024 Y-2.599 E704.72539
G0 F12000 X-53.024 Y-1.949
G1 F900 X-64.974 Y-1.949 E705.6942
G0 F12000 X-64.974 Y-1.299
G1 F900 X-53.024 Y-1.299 E706.663
G0 F12000 X-53.024 Y-0.649
G1 F900 X-64.974 Y-0.649 E707.63181
G0 F12000 X-64.974 Y0
G1 F900 X-53.024 Y0 E708.60061
G0 F12000 X-53.024 Y0.65
G1 F900 X-57.156 Y0.65 E708.9356
G0 F12000 X-56.11 Y1.3
G1 F900 X-53.024 Y1.3 E709.18579
G0 F12000 X-53.024 Y1.95
G1 F900 X-55.478 Y1.95 E709.38474
G0 F12000 X-55.018 Y2.6
G1 F900 X-53.024 Y2.6 E709.54639
G0 F12000 X-53.024 Y3.25
G1 F900 X-54.75 Y3.25 E709.68632
G0 F12000 X-54.57 Y3.9
G1 F900 X-53.024 Y3.9 E709.81166
G0 F12000 X-53.024 Y4.55
G1 F900 X-54.484 Y4.55 E709.93002
G0 F12000 X-54.514 Y5.2
G1 F900 X-53.024 Y5.2 E710.05082
G0 F12000 X-53.024 Y5.85
G1 F900 X-54.6 Y5.85 E710.17859
G0 F12000 X-54.844 Y6.5
G1 F900 X-53.024 Y6.5 E710.32614
G0 F12000 X-53.024 Y7.15
G1 F900 X-55.155 Y7.15 E710.4989
G0 F12000 X-55.655 Y7.8
G1 F900 X-53.024 Y7.8 E710.7122
G0 F12000 X-53.024 Y8.45
G1 F900 X-56.407 Y8.45 E710.98647
G0 F12000 X-57.705 Y9.1
G1 F900 X-53.024 Y9.1 E711.36596
G0 F12000 X-53.024 Y9.75
G1 F900 X-64.974 Y9.75 E712.33477
G0 F12000 X-64.974 Y9.1
G1 F900 X-60.292 Y9.1 E712.71435
G0 F12000 X-61.592 Y8.45
G1 F900 X-64.974 Y8.45 E712.98853
G0 F12000 X-64.974 Y7.8
G1 F900 X-62.345 Y7.8 E713.20167
G0 F12000 X-62.845 Y7.15
G1 F900 X-64.974 Y7.15 E713.37427
G0 F12000 X-64.974 Y6.5
G1 F900 X-63.154 Y6.5 E713.52182
G0 F12000 X-63.397 Y5.85
G1 F900 X-64.974 Y5.85 E713.64967
G0 F12000 X-64.974 Y5.2
G1 F900 X-63.484 Y5.2 E713.77047
G0 F12000 X-63.514 Y4.55
G1 F900 X-64.974 Y4.55 E713.88883
G0 F12000 X-64.974 Y3.9
G1 F900 X-63.427 Y3.9 E714.01425
G0 F12000 X-63.247 Y3.25
G1 F900 X-64.974 Y3.25 E714.15426
G0 F12000 X-64.974 Y2.6
G1 F900 X-62.978 Y2.6 E714.31608
G0 F12000 X-62.518 Y1.95
G1 F900 X-64.974 Y1.95 E714.51519
G0 F12000 X-64.974 Y1.3
G1 F900 X-61.883 Y1.3 E714.76578
G0 F12000 X-60.84 Y0.65
G1 F900 X-64.974 Y0.65 E715.10093
G1 F6000 E712.60093
G0 F900 X-60.84 Y0.65
G0 X-61.883 Y1.3
G0 X-64.974 Y1.3
G0 X-64.974 Y1.95
G0 X-64.077 Y1.95
G1 Z0.8
G0 F12000 X-64.974 Y10.4
G1 Z0.3
G1 F6000 E715.10093
G1 F900 X-53.024 Y10.4 E716.06974
G0 F12000 X-53.024 Y11.05
G1 F900 X-64.974 Y11.05 E717.03854
G0 F12000 X-64.974 Y11.7
G1 F900 X-53.024 Y11.7 E718.00735
G0 F12000 X-53.024 Y12.35
G1 F900 X-58.011 Y12.35 E718.41165
G0 F12000 X-56.501 Y13
G1 F900 X-53.024 Y13 E718.69354
G0 F12000 X-53.024 Y13.65
G1 F900 X-55.708 Y13.65 E718.91113
G0 F12000 X-55.209 Y14.3
G1 F900 X-52.657 Y14.3 E719.11803
G0 F12000 X-52.095 Y14.95
G1 F900 X-54.874 Y14.95 E719.34333
G0 F12000 X-54.61 Y15.6
G1 F900 X-51.534 Y15.6 E719.5927
G0 F12000 X-50.973 Y16.25
G1 F900 X-54.524 Y16.25 E719.88059
G0 F12000 X-54.474 Y16.9
G1 F900 X-50.411 Y16.9 E720.20998
G0 F12000 X-49.85 Y17.55
G1 F900 X-54.561 Y17.55 E720.59191
G0 F12000 X-54.721 Y18.2
G1 F900 X-49.288 Y18.2 E721.03237
G0 F12000 X-48.727 Y18.85
G1 F900 X-54.989 Y18.85 E721.54004
G0 F12000 X-55.424 Y19.5
G1 F900 X-48.165 Y19.5 E722.12854
G0 F12000 X-47.604 Y20.15
G1 F900 X-56.017 Y20.15 E722.8106
G0 F12000 X-56.979 Y20.8
G1 F900 X-47.042 Y20.8 E723.6162
G0 F12000 X-46.481 Y21.45
G1 F900 X-64.974 Y21.45 E725.11546
G0 F12000 X-64.974 Y20.8
G1 F900 X-61.02 Y20.8 E725.43602
G0 F12000 X-61.982 Y20.15
G1 F900 X-64.974 Y20.15 E725.67858
G0 F12000 X-64.974 Y19.5
G1 F900 X-62.575 Y19.5 E725.87308
G0 F12000 X-63.009 Y18.85
G1 F900 X-64.974 Y18.85 E726.03238
G0 F12000 X-64.974 Y18.2
G1 F900 X-63.277 Y18.2 E726.16996
G0 F12000 X-63.437 Y17.55
G1 F900 X-64.974 Y17.55 E726.29457
G0 F12000 X-64.974 Y16.9
G1 F900 X-63.524 Y16.9 E726.41212
G0 F12000 X-63.474 Y16.25
G1 F900 X-64.974 Y16.25 E726.53373
G0 F12000 X-64.974 Y15.6
G1 F900 X-63.387 Y15.6 E726.66239
G0 F12000 X-63.123 Y14.95
G1 F900 X-64.974 Y14.95 E726.81245
G0 F12000 X-64.974 Y14.3
G1 F900 X-62.787 Y14.3 E726.98975
G0 F12000 X-62.287 Y13.65
G1 F900 X-64.974 Y13.65 E727.20759
G0 F12000 X-64.974 Y13
G1 F900 X-61.494 Y13 E727.48972
G0 F12000 X-59.986 Y12.35
G1 F900 X-64.974 Y12.35 E727.89411
G1 F6000 E725.39411
G0 F900 X-59.986 Y12.35
G0 X-61.494 Y13
G0 X-64.864 Y13
G1 Z0.8
G0 F12000 X-64.974 Y22.1
G1 Z0.3
G1 F6000 E727.89411
G1 F900 X-45.919 Y22.1 E729.43893
G0 F12000 X-45.358 Y22.75
G1 F900 X-51.266 Y22.75 E729.9179
G0 F12000 X-50.704 Y23.4
G1 F900 X-44.797 Y23.4 E730.39679
G0 F12000 X-44.235 Y24.05
G1 F900 X-50.143 Y24.05 E730.87576
G0 F12000 X-49.582 Y24.7
G1 F900 X-43.674 Y24.7 E731.35473
G0 F12000 X-43.112 Y25.35
G1 F900 X-49.02 Y25.35 E731.8337
G0 F12000 X-48.459 Y26
G1 F900 X-42.551 Y26 E732.31267
G0 F12000 X-41.989 Y26.65
G1 F900 X-47.897 Y26.65 E732.79164
G0 F12000 X-47.336 Y27.3
G1 F900 X-41.428 Y27.3 E733.27061
G0 F12000 X-40.866 Y27.95
G1 F900 X-46.775 Y27.95 E733.74967
G0 F12000 X-46.213 Y28.6
G1 F900 X-40.305 Y28.6 E734.22864
G0 F12000 X-39.744 Y29.25
G1 F900 X-45.652 Y29.25 E734.70761
G0 F12000 X-45.091 Y29.9
G1 F900 X-39.182 Y29.9 E735.18666
G0 F12000 X-38.621 Y30.55
G1 F900 X-44.529 Y30.55 E735.66563
G0 F12000 X-43.968 Y31.2
G1 F900 X-38.059 Y31.2 E736.14468
G0 F12000 X-35.286 Y33.15
G1 F900 X-42.284 Y33.15 E736.71202
G0 F12000 X-42.845 Y32.5
G1 F900 X-34.493 Y32.5 E737.38913
G0 F12000 X-32.986 Y31.85
G1 F900 X-43.406 Y31.85 E738.2339
G0 F12000 X-41.722 Y33.8
G1 F900 X-35.786 Y33.8 E738.71514
G0 F12000 X-36.123 Y34.45
G1 F900 X-41.161 Y34.45 E739.12358
G0 F12000 X-40.6 Y35.1
G1 F900 X-36.387 Y35.1 E739.46513
G0 F12000 X-36.474 Y35.75
G1 F900 X-40.038 Y35.75 E739.75407
G0 F12000 X-39.477 Y36.4
G1 F900 X-36.524 Y36.4 E739.99347
G0 F12000 X-36.437 Y37.05
G1 F900 X-38.915 Y37.05 E740.19437
G0 F12000 X-38.354 Y37.7
G1 F900 X-36.278 Y37.7 E740.36267
G0 F12000 X-36.01 Y38.35
G1 F900 X-37.793 Y38.35 E740.50722
G0 F12000 X-37.231 Y39
G1 F900 X-35.576 Y39 E740.6414
G0 F12000 X-34.983 Y39.65
G1 F900 X-36.67 Y39.65 E740.77817
G0 F12000 X-36.108 Y40.3
G1 F900 X-34.022 Y40.3 E740.94728
G0 F12000 X-34.986 Y41.6
G1 F900 X-28.023 Y41.6 E741.51178
G0 F12000 X-28.023 Y42.25
G1 F900 X-34.424 Y42.25 E742.03072
G0 F12000 X-33.863 Y42.9
G1 F900 X-28.023 Y42.9 E742.50418
G0 F12000 X-28.023 Y40.95
G1 F900 X-35.547 Y40.95 E743.11416
G1 F6000 E740.61416
G0 F900 X-28.023 Y40.95
G0 X-28.023 Y42.9
G0 X-28.549 Y42.9
G1 Z0.8
G0 F12000 X-29.976 Y40.3
G1 Z0.3
G1 F6000 E743.11416
G1 F900 X-28.023 Y40.3 E743.2725
G0 F12000 X-28.023 Y39.65
G1 F900 X-28.718 Y39.325 E743.35288
G1 X-28.135 Y39 E743.40699
G0 F12000 X-28.023 Y33.15
G1 F900 X-28.708 Y33.15 E743.46252
G0 F12000 X-28.023 Y32.5
G1 F900 X-29.5 Y32.5 E743.58227
G0 F12000 X-28.023 Y31.85
G1 F900 X-31.01 Y31.85 E743.82443
G1 F6000 E741.32443
G0 F900 X-28.023 Y31.85
G0 X-29.5 Y32.5
G0 X-28.023 Y32.5
G0 X-28.708 Y33.15
G0 X-28.023 Y33.15
G0 X-28.066 Y35.443
G1 Z0.8
G0 F12000 X-37.503 Y30.238
G0 X-51.974 Y13.484
G0 X-53.024 Y-22.099
G1 Z0.3
G1 F6000 E743.82443
G1 F900 X-64.974 Y-22.099 E744.79323
G0 F12000 X-64.974 Y-22.749
G1 F900 X-53.024 Y-22.749 E745.76204
G0 F12000 X-53.024 Y-23.399
G1 F900 X-64.974 Y-23.399 E746.73084
G0 F12000 X-64.974 Y-24.049
G1 F900 X-53.024 Y-24.049 E747.69965
G0 F12000 X-53.024 Y-24.699
G1 F900 X-64.974 Y-24.699 E748.66846
G1 F6000 E746.16846
G0 F900 X-54.974 Y-24.699
G1 Z0.8
G0 F12000 X-62.363 Y-16.333
G0 X-51.974 Y13.484
G0 X-37.503 Y30.238
G0 X-26.974 Y30.238
G0 X-25.999 Y29.263
G0 X-21.42 Y28.891
G0 X-20.171 Y29.474
G0 X-15.365 Y42.677
G0 X-15.754 Y43.51
; TYPE:WALL-OUTER
G1 Z0.3
G1 F6000 E748.66846
G1 F900 X-21.004 Y29.085 E749.91296
G1 X10.333 Y17.679 E752.61655
G1 X15.584 Y32.104 E753.86108
G1 X-15.754 Y43.51 E756.56475
G0 F12000 X-15.365 Y42.677
; TYPE:WALL-INNER
G1 F900 X-20.171 Y29.474 E757.70385
G1 X9.944 Y18.512 E760.30204
G1 X14.75 Y31.716 E761.44121
G1 X-15.365 Y42.677 E764.03937
G0 F12000 X-14.977 Y41.843
G1 F900 X-19.337 Y29.862 E765.07301
G1 X9.556 Y19.346 E767.56573
G1 X13.917 Y31.327 E768.59939
G1 X-14.977 Y41.843 E771.0922
G0 F12000 X-14.874 Y40.95
; TYPE:BOTTOM-FILL
G1 F900 X-13.692 Y40.95 E771.18802
G0 F12000 X-15.111 Y40.3
G1 F900 X-11.906 Y40.3 E771.44786
G0 F12000 X-10.121 Y39.65
G1 F900 X-15.348 Y39.65 E771.87162
G0 F12000 X-15.584 Y39
G1 F900 X-8.335 Y39 E772.45931
G0 F12000 X-6.549 Y38.35
G1 F900 X-15.821 Y38.35 E773.211
G0 F12000 X-16.057 Y37.7
G1 F900 X-4.764 Y37.7 E774.12654
G0 F12000 X-2.978 Y37.05
G1 F900 X-16.294 Y37.05 E775.20609
G0 F12000 X-16.531 Y36.4
G1 F900 X-1.192 Y36.4 E776.44965
G0 F12000 X0.593 Y35.75
G1 F900 X-16.767 Y35.75 E777.85705
G0 F12000 X-17.004 Y35.1
G1 F900 X2.378 Y35.1 E779.42838
G0 F12000 X4.164 Y34.45
G1 F900 X-17.24 Y34.45 E781.16364
G0 F12000 X-17.477 Y33.8
G1 F900 X5.95 Y33.8 E783.0629
G0 F12000 X7.735 Y33.15
G1 F900 X-17.714 Y33.15 E785.12609
G0 F12000 X-17.95 Y32.5
G1 F900 X9.521 Y32.5 E787.35321
G0 F12000 X11.307 Y31.85
G1 F900 X-18.187 Y31.85 E789.74434
G0 F12000 X-18.423 Y31.2
G1 F900 X13.093 Y31.2 E792.29939
G0 F12000 X13.207 Y30.55
G1 F900 X-18.66 Y30.55 E794.8829
G0 F12000 X-18.268 Y29.9
G1 F900 X12.971 Y29.9 E797.41549
G0 F12000 X12.734 Y29.25
G1 F900 X-16.483 Y29.25 E799.78416
G0 F12000 X-14.697 Y28.6
G1 F900 X12.498 Y28.6 E801.9889
G0 F12000 X12.261 Y27.95
G1 F900 X-12.911 Y27.95 E804.02963
G0 F12000 X-11.126 Y27.3
G1 F900 X12.024 Y27.3 E805.90644
G0 F12000 X11.788 Y26.65
G1 F900 X-9.34 Y26.65 E807.61932
G0 F12000 X-7.554 Y26
G1 F900 X11.551 Y26 E809.16819
G0 F12000 X11.314 Y25.35
G1 F900 X-5.769 Y25.35 E810.55314
G0 F12000 X-3.983 Y24.7
G1 F900 X11.078 Y24.7 E811.77416
G0 F12000 X10.841 Y24.05
G1 F900 X-2.197 Y24.05 E812.83117
G0 F12000 X-0.412 Y23.4
G1 F900 X10.604 Y23.4 E813.72425
G0 F12000 X10.368 Y22.75
G1 F900 X1.373 Y22.75 E814.45349
G0 F12000 X3.159 Y22.1
G1 F900 X10.131 Y22.1 E815.01872
G0 F12000 X9.894 Y21.45
G1 F900 X4.944 Y21.45 E815.42003
G0 F12000 X6.73 Y20.8
G1 F900 X9.658 Y20.8 E815.65741
G0 F12000 X9.421 Y20.15
G1 F900 X8.516 Y20.15 E815.73078
G1 F6000 E813.23078
G0 F900 X9.421 Y20.15
G0 X9.658 Y20.8
G0 X6.73 Y20.8
G0 X4.944 Y21.45
G0 X8.52 Y21.45
G1 Z0.8
G0 F12000 X14.75 Y31.716
G0 X16 Y32.298
G0 X20.107 Y40.514
G0 X19.656 Y39.651
G0 X19.543 Y39.709
G0 X18.873 Y40.322
G0 X18.384 Y41.089
G0 X18.111 Y41.956
G0 X18.07 Y42.865
G0 X18.268 Y43.753
G0 X18.687 Y44.559
G0 X19.302 Y45.23
G0 X20.069 Y45.719
G0 X20.936 Y45.991
G0 X21.758 Y46.029
G0 X21.787 Y45.379
; TYPE:WALL-OUTER
G1 Z0.3
G1 F6000 E815.73078
G1 F900 X22.508 Y45.219 E815.79065
G1 X23.163 Y44.877 E815.85056
G1 X23.707 Y44.379 E815.91035
G1 X24.104 Y43.757 E815.97017
G1 X24.326 Y43.053 E816.03001
G1 X24.358 Y42.315 E816.0899
G1 X24.198 Y41.594 E816.14978
G1 X23.858 Y40.939 E816.20961
G1 X23.359 Y40.395 E816.26945
G1 X22.736 Y39.999 E816.3293
G1 X22.032 Y39.776 E816.38917
G1 X21.294 Y39.744 E816.44906
G1 X20.574 Y39.904 E816.50885
G1 X19.919 Y40.246 E816.56876
G1 X19.375 Y40.743 E816.62849
G1 X18.978 Y41.366 E816.68839
G1 X18.756 Y42.07 E816.74823
G1 X18.723 Y42.808 E816.80812
G1 X18.884 Y43.528 E816.86793
G1 X19.224 Y44.183 E816.92776
G1 X19.723 Y44.728 E816.98767
G1 X20.346 Y45.124 E817.04752
G1 X21.05 Y45.346 E817.10736
G1 X21.787 Y45.379 E817.16717
G0 F12000 X21.758 Y46.029
G0 X21.844 Y46.032
; TYPE:WALL-INNER
G1 F900 X22.733 Y45.835 E817.24099
G1 X23.539 Y45.414 E817.31471
G1 X24.209 Y44.8 E817.38839
G1 X24.698 Y44.034 E817.46207
G1 X24.972 Y43.166 E817.53586
G1 X25.011 Y42.258 E817.60954
G1 X24.814 Y41.37 E817.68328
G1 X24.395 Y40.563 E817.757
G1 X23.78 Y39.892 E817.83079
G1 X23.013 Y39.405 E817.90445
G1 X22.146 Y39.13 E817.97819
G1 X21.237 Y39.091 E818.05195
G1 X20.349 Y39.288 E818.12569
G1 X19.543 Y39.709 E818.19941
G1 X18.873 Y40.322 E818.27304
G1 X18.384 Y41.089 E818.34678
G1 X18.111 Y41.956 E818.42047
G1 X18.07 Y42.865 E818.49424
G1 X18.268 Y43.753 E818.568
G1 X18.687 Y44.559 E818.64165
G1 X19.302 Y45.23 E818.71544
G1 X20.069 Y45.719 E818.78918
G1 X20.936 Y45.991 E818.86285
G1 X21.844 Y46.032 E818.93654
G0 F12000 X21.901 Y46.685
G1 F900 X22.957 Y46.451 E819.02422
G1 X23.916 Y45.951 E819.1119
G1 X24.711 Y45.222 E819.19935
G1 X25.292 Y44.311 E819.28695
G1 X25.617 Y43.28 E819.37459
G1 X25.664 Y42.201 E819.46215
G1 X25.431 Y41.146 E819.54974
G1 X24.932 Y40.187 E819.63738
G1 X24.201 Y39.39 E819.72506
G1 X23.29 Y38.811 E819.81257
G1 X22.26 Y38.485 E819.90016
G1 X21.18 Y38.438 E819.9878
G1 X20.125 Y38.672 E820.07541
G1 X19.167 Y39.172 E820.16301
G1 X18.371 Y39.9 E820.25047
G1 X17.789 Y40.812 E820.33818
G1 X17.465 Y41.842 E820.42571
G1 X17.417 Y42.922 E820.51336
G1 X17.652 Y43.977 E820.60098
G1 X18.15 Y44.934 E820.68845
G1 X18.88 Y45.733 E820.77619
G1 X19.792 Y46.313 E820.86381
G1 X20.822 Y46.637 E820.95135
G1 X21.901 Y46.685 E821.03891
G1 F6000 E818.53891
G0 F900 X20.822 Y46.637
G0 X19.792 Y46.313
G0 X18.88 Y45.733
G0 X18.15 Y44.934
G0 X17.652 Y43.977
G0 X17.417 Y42.922
G0 X17.465 Y41.842
G0 X17.789 Y40.812
G0 X18.371 Y39.9
G0 X18.577 Y39.711
G1 Z0.8
G0 F12000 X2.998 Y53.017
G0 X2.111 Y53.214
G0 X2.027 Y53.211
G0 X2.054 Y52.561
; TYPE:WALL-OUTER
G1 Z0.3
G1 F6000 E821.03891
G1 F900 X2.774 Y52.401 E821.09871
G1 X3.429 Y52.061 E821.15854
G1 X3.973 Y51.562 E821.21838
G1 X4.37 Y50.939 E821.27827
G1 X4.592 Y50.235 E821.33812
G1 X4.625 Y49.497 E821.39801
G1 X4.464 Y48.777 E821.45782
G1 X4.124 Y48.122 E821.51765
G1 X3.625 Y47.578 E821.5775
G1 X3.003 Y47.181 E821.63732
G1 X2.298 Y46.959 E821.69724
G1 X1.56 Y46.926 E821.75713
G1 X0.84 Y47.087 E821.81695
G1 X0.185 Y47.428 E821.87681
G1 X-0.358 Y47.926 E821.93655
G1 X-0.755 Y48.548 E821.99637
G1 X-0.977 Y49.253 E822.05629
G1 X-1.009 Y49.991 E822.11618
G1 X-0.849 Y50.711 E822.17597
G1 X-0.509 Y51.366 E822.2358
G1 X-0.011 Y51.91 E822.2956
G1 X0.612 Y52.307 E822.35549
G1 X1.316 Y52.529 E822.41533
G1 X2.054 Y52.561 E822.47522
G0 F12000 X2.027 Y53.211
G0 X2.111 Y53.214
; TYPE:WALL-INNER
G1 F900 X2.998 Y53.017 E822.54888
G1 X3.805 Y52.598 E822.6226
G1 X4.475 Y51.983 E822.69633
G1 X4.964 Y51.216 E822.77007
G1 X5.237 Y50.349 E822.84377
G1 X5.278 Y49.44 E822.91753
G1 X5.08 Y48.552 E822.99129
G1 X4.661 Y47.746 E823.06494
G1 X4.046 Y47.076 E823.13867
G1 X3.28 Y46.587 E823.21235
G1 X2.412 Y46.314 E823.28612
G1 X1.503 Y46.273 E823.35989
G1 X0.615 Y46.471 E823.43364
G1 X-0.191 Y46.891 E823.50733
G1 X-0.86 Y47.505 E823.58095
G1 X-1.349 Y48.271 E823.65462
G1 X-1.623 Y49.14 E823.72849
G1 X-1.662 Y50.048 E823.80217
G1 X-1.465 Y50.935 E823.87583
G1 X-1.046 Y51.741 E823.94948
G1 X-0.432 Y52.412 E824.02322
G1 X0.335 Y52.901 E824.09696
G1 X1.203 Y53.175 E824.17075
G1 X2.111 Y53.214 E824.24444
G0 F12000 X2.168 Y53.867
G1 F900 X3.222 Y53.633 E824.33197
G1 X4.181 Y53.135 E824.41957
G1 X4.978 Y52.404 E824.50725
G1 X5.559 Y51.493 E824.59485
G1 X5.883 Y50.463 E824.68238
G1 X5.931 Y49.383 E824.77003
G1 X5.696 Y48.328 E824.85765
G1 X5.198 Y47.37 E824.94519
G1 X4.468 Y46.574 E825.03275
G1 X3.557 Y45.992 E825.12039
G1 X2.526 Y45.668 E825.20801
G1 X1.446 Y45.62 E825.29565
G1 X0.391 Y45.855 E825.38328
G1 X-0.568 Y46.354 E825.47092
G1 X-1.363 Y47.084 E825.55842
G1 X-1.944 Y47.994 E825.64595
G1 X-2.268 Y49.026 E825.73364
G1 X-2.315 Y50.105 E825.8212
G1 X-2.081 Y51.159 E825.90873
G1 X-1.583 Y52.117 E825.99626
G1 X-0.854 Y52.914 E826.08383
G1 X0.058 Y53.496 E826.17154
G1 X1.089 Y53.82 E826.25916
G1 X2.168 Y53.867 E826.34672
G1 F6000 E823.84672
G0 F900 X1.089 Y53.82
G0 X0.058 Y53.496
G0 X-0.854 Y52.914
G0 X-1.583 Y52.117
G0 X-2.081 Y51.159
G0 X-2.315 Y50.105
G0 X-2.268 Y49.026
G0 X-1.944 Y47.994
G0 X-1.363 Y47.084
G0 X-1.156 Y46.894
G1 Z0.8
G0 F12000 X-24.048 Y66.488
G0 X-24.437 Y67.321
; TYPE:WALL-OUTER
G1 Z0.3
G1 F6000 E826.34672
G1 F900 X-29.687 Y52.896 E827.59122
G1 X53.333 Y22.679 E834.75374
G1 X58.584 Y37.104 E835.99827
G1 X-24.437 Y67.321 E843.16087
G0 F12000 X-24.048 Y66.488
; TYPE:WALL-INNER
G1 F900 X-28.854 Y53.285 E844.29996
G1 X52.944 Y23.512 E851.35708
G1 X57.75 Y36.716 E852.49625
G1 X-24.048 Y66.488 E859.55334
G0 F12000 X-23.66 Y65.654
G1 F900 X-28.02 Y53.673 E860.58697
G1 X52.556 Y24.346 E867.53863
G1 X56.917 Y36.327 E868.57229
G1 X-23.66 Y65.654 E875.52402
G1 F6000 E873.02402
G0 F900 X-14.264 Y62.234
G1 Z0.8
G0 F12000 X44.313 Y37.82
G0 X44.34 Y37.17
; TYPE:WALL-OUTER
G1 Z0.3
G1 F6000 E875.52402
G1 F900 X45.06 Y37.01 E875.58381
G1 X45.715 Y36.67 E875.64364
G1 X46.26 Y36.171 E875.70355
G1 X46.656 Y35.547 E875.76347
G1 X46.878 Y34.844 E875.82323
G1 X46.911 Y34.107 E875.88304
G1 X46.751 Y33.386 E875.94292
G1 X46.409 Y32.731 E876.00282
G1 X45.911 Y32.187 E876.06261
G1 X45.289 Y31.79 E876.12244
G1 X44.585 Y31.568 E876.18228
G1 X43.847 Y31.535 E876.24217
G1 X43.126 Y31.696 E876.30206
G1 X42.471 Y32.036 E876.36189
G1 X41.927 Y32.535 E876.42174
G1 X41.531 Y33.157 E876.48152
G1 X41.308 Y33.862 E876.54147
G1 X41.276 Y34.6 E876.60135
G1 X41.436 Y35.32 E876.66115
G1 X41.778 Y35.975 E876.72105
G1 X42.275 Y36.519 E876.78079
G1 X42.898 Y36.916 E876.84068
G1 X43.602 Y37.138 E876.90053
G1 X44.34 Y37.17 E876.96041
G0 F12000 X44.313 Y37.82
G0 X44.397 Y37.823
; TYPE:WALL-INNER
G1 F900 X45.284 Y37.626 E877.03408
G1 X46.091 Y37.207 E877.10779
G1 X46.763 Y36.592 E877.18165
G1 X47.251 Y35.824 E877.25541
G1 X47.523 Y34.958 E877.329
G1 X47.564 Y34.05 E877.40269
G1 X47.367 Y33.161 E877.47651
G1 X46.946 Y32.355 E877.55023
G1 X46.332 Y31.685 E877.62391
G1 X45.566 Y31.196 E877.69759
G1 X44.699 Y30.923 E877.77128
G1 X43.79 Y30.882 E877.84505
G1 X42.902 Y31.08 E877.91881
G1 X42.095 Y31.499 E877.99252
G1 X41.424 Y32.114 E878.06632
G1 X40.937 Y32.88 E878.1399
G1 X40.662 Y33.748 E878.21372
G1 X40.623 Y34.657 E878.28748
G1 X40.82 Y35.545 E878.36123
G1 X41.241 Y36.351 E878.43495
G1 X41.854 Y37.021 E878.50857
G1 X42.621 Y37.51 E878.58231
G1 X43.489 Y37.784 E878.65611
G1 X44.397 Y37.823 E878.72979
G0 F12000 X44.454 Y38.476
G1 F900 X45.508 Y38.242 E878.81732
G1 X46.466 Y37.744 E878.90485
G1 X47.265 Y37.013 E878.99265
G1 X47.845 Y36.101 E879.08027
G1 X48.169 Y35.072 E879.16773
G1 X48.217 Y33.993 E879.25529
G1 X47.983 Y32.937 E879.34298
G1 X47.483 Y31.978 E879.43066
G1 X46.754 Y31.183 E879.51811
G1 X45.843 Y30.602 E879.60571
G1 X44.813 Y30.277 E879.69327
G1 X43.733 Y30.229 E879.78091
G1 X42.677 Y30.464 E879.86862
G1 X41.719 Y30.962 E879.95615
G1 X40.922 Y31.693 E880.04383
G1 X40.343 Y32.603 E880.13127
G1 X40.017 Y33.634 E880.21893
G1 X39.97 Y34.714 E880.30657
G1 X40.204 Y35.769 E880.39418
G1 X40.704 Y36.727 E880.48179
G1 X41.432 Y37.523 E880.56924
G1 X42.344 Y38.105 E880.65695
G1 X43.375 Y38.429 E880.74457
G1 X44.454 Y38.476 E880.83213
G0 F12000 X46.167 Y38.35
; TYPE:BOTTOM-FILL
G1 F900 X50.187 Y38.35 E881.15803
G0 F12000 X51.972 Y37.7
G1 F900 X47.107 Y37.7 E881.55245
G0 F12000 X47.715 Y37.05
G1 F900 X53.758 Y37.05 E882.04236
G0 F12000 X55.544 Y36.4
G1 F900 X48.128 Y36.4 E882.64359
G0 F12000 X48.375 Y35.75
G1 F900 X56.281 Y35.75 E883.28454
G0 F12000 X56.045 Y35.1
G1 F900 X48.568 Y35.1 E883.89071
G0 F12000 X48.597 Y34.45
G1 F900 X55.808 Y34.45 E884.47532
G0 F12000 X55.571 Y33.8
G1 F900 X48.584 Y33.8 E885.04177
G0 F12000 X48.44 Y33.15
G1 F900 X55.335 Y33.15 E885.60076
G0 F12000 X55.098 Y32.499
G1 F900 X48.206 Y32.499 E886.1595
G0 F12000 X47.867 Y31.849
G1 F900 X54.861 Y31.849 E886.72652
G0 F12000 X54.625 Y31.199
G1 F900 X47.312 Y31.199 E887.31939
G0 F12000 X46.505 Y30.549
G1 F900 X54.388 Y30.549 E887.95848
G0 F12000 X54.151 Y29.899
G1 F900 X44.949 Y29.899 E888.7045
G0 F12000 X43.37 Y29.899
G1 F900 X38.466 Y29.899 E889.10208
G0 F12000 X36.681 Y30.549
G1 F900 X41.645 Y30.549 E889.50452
G0 F12000 X40.868 Y31.199
G1 F900 X34.895 Y31.199 E889.98876
G0 F12000 X33.109 Y31.849
G1 F900 X40.348 Y31.849 E890.57563
G0 F12000 X39.956 Y32.499
G1 F900 X31.323 Y32.499 E891.27552
G0 F12000 X29.537 Y33.15
G1 F900 X39.75 Y33.15 E892.10351
G0 F12000 X39.61 Y33.8
G1 F900 X27.751 Y33.8 E893.06494
G0 F12000 X25.966 Y34.45
G1 F900 X39.581 Y34.45 E894.16873
G0 F12000 X39.646 Y35.1
G1 F900 X24.18 Y35.1 E895.42258
G0 F12000 X22.394 Y35.75
G1 F900 X39.79 Y35.75 E896.8329
G0 F12000 X40.083 Y36.4
G1 F900 X20.608 Y36.4 E898.41177
G0 F12000 X18.822 Y37.05
G1 F900 X40.458 Y37.05 E900.16583
G0 F12000 X41.052 Y37.7
G1 F900 X17.037 Y37.7 E902.11277
G0 F12000 X15.251 Y38.35
G1 F900 X19.877 Y38.35 E902.4878
G0 F12000 X18.762 Y39
G1 F900 X13.465 Y39 E902.91724
G0 F12000 X11.679 Y39.65
G1 F900 X18.055 Y39.65 E903.43415
G0 F12000 X17.641 Y40.3
G1 F900 X9.893 Y40.3 E904.0623
G0 F12000 X8.108 Y40.95
G1 F900 X17.325 Y40.95 E904.80953
G0 F12000 X17.12 Y41.6
G1 F900 X6.322 Y41.6 E905.68494
G0 F12000 X4.536 Y42.25
G1 F900 X17.046 Y42.25 E906.69915
G0 F12000 X17.017 Y42.9
G1 F900 X2.75 Y42.9 E907.8558
G0 F12000 X0.964 Y43.55
G1 F900 X17.146 Y43.55 E909.1677
G0 F12000 X17.317 Y44.2
G1 F900 X-0.82 Y44.2 E910.63809
G0 F12000 X0.207 Y45.5
G1 F900 X-4.392 Y45.5 E911.01094
G0 F12000 X-6.178 Y46.15
G1 F900 X-0.936 Y46.15 E911.43592
G0 F12000 X-1.644 Y46.8
G1 F900 X-7.964 Y46.8 E911.94829
G0 F12000 X-9.75 Y47.45
G1 F900 X-2.069 Y47.45 E912.571
G0 F12000 X-2.396 Y48.1
G1 F900 X-11.535 Y48.1 E913.31191
G0 F12000 X-13.321 Y48.75
G1 F900 X-2.6 Y48.75 E914.18108
G0 F12000 X-2.684 Y49.4
G1 F900 X-15.107 Y49.4 E915.18824
G0 F12000 X-16.893 Y50.05
G1 F900 X-2.712 Y50.05 E916.33791
G0 F12000 X-2.592 Y50.7
G1 F900 X-18.679 Y50.7 E917.64211
G0 F12000 X-20.464 Y51.35
G1 F900 X-2.431 Y51.35 E919.10407
G0 F12000 X-2.093 Y52
G1 F900 X-22.25 Y52 E920.73823
G0 F12000 X-24.036 Y52.65
G1 F900 X-1.637 Y52.65 E922.55416
G0 F12000 X-0.992 Y53.3
G1 F900 X-25.822 Y53.3 E924.56716
G0 F12000 X-27.493 Y53.95
G1 F900 X0.168 Y53.95 E926.80968
G0 F12000 X0.183 Y56.55
G1 F900 X-26.546 Y56.55 E928.97665
G0 F12000 X-26.31 Y57.2
G1 F900 X-1.602 Y57.2 E930.97976
G0 F12000 X-3.387 Y57.85
G1 F900 X-26.073 Y57.85 E932.81895
G0 F12000 X-25.836 Y58.5
G1 F900 X-5.173 Y58.5 E934.49413
G0 F12000 X-6.959 Y59.15
G1 F900 X-25.6 Y59.15 E936.00539
G0 F12000 X-25.363 Y59.8
G1 F900 X-8.745 Y59.8 E937.35264
G0 F12000 X-10.531 Y60.45
G1 F900 X-25.127 Y60.45 E938.53596
G0 F12000 X-24.89 Y61.1
G1 F900 X-12.317 Y61.1 E939.55527
G0 F12000 X-14.102 Y61.75
G1 F900 X-24.653 Y61.75 E940.41066
G0 F12000 X-24.417 Y62.4
G1 F900 X-15.888 Y62.4 E941.10212
G0 F12000 X-17.674 Y63.05
G1 F900 X-24.18 Y63.05 E941.62957
G0 F12000 X-23.944 Y63.7
G1 F900 X-19.46 Y63.7 E941.99309
G0 F12000 X-21.246 Y64.35
G1 F900 X-23.707 Y64.35 E942.19261
G0 F12000 X-23.47 Y65
G1 F900 X-23.032 Y65 E942.22812
G1 F6000 E939.72812
G0 F900 X-23.47 Y65
G0 X-23.707 Y64.35
G0 X-21.246 Y64.35
G0 X-19.46 Y63.7
G0 X-23.944 Y63.7
G0 X-23.952 Y63.676
G1 Z0.8
G0 F12000 X-26.783 Y55.9
G1 Z0.3
