; Generated with MatterSlice 1.0
; filamentDiameter = 1.75
; extrusionWidth = 0.5
; firstLayerExtrusionWidth = 0.65
; layerThickness = 0.2
; firstLayerThickness = 0.3
; automatic settings before start_gcode
G21 ; set units to millimeters
M107 ; fan off
M190 S60 ; wait for bed temperature to be reached
M104 T0 S210 ; start heating extruder 1
M109 T0 S210 ; wait for extruder 1
T0 ; set the active extruder to 0
; settings from start_gcode
G28
; automatic settings after start_gcode
T0 ; set the active extruder to 0
G90 ; use absolute coordinates
G92 E0 ; reset the expected extruder position
M82 ; use absolute distance for extrusion
; Layer count: 15
; Layer Change GCode
; LAYER:0
M400
M107
G0 F12000 X-11.815 Y-66.172 Z0.8
; TYPE:SKIRT
G1 Z0.3
G1 F6000 E0
G1 F900 X28.154 Y-59.591 E3.28398
G1 X63.189 Y-37.492 E6.64216
G1 X63.189 Y18.101 E11.14917
G1 X30.56 Y58.616 E15.36655
G1 X29.882 Y59.386 E15.44972
G1 X27.973 Y61.216 E15.66411
G1 X27.111 Y61.913 E15.75398
G1 X24.918 Y63.394 E15.96852
G1 X23.951 Y63.934 E16.05831
G1 X21.542 Y65.023 E16.27264
G1 X20.498 Y65.393 E16.36244
G1 X17.935 Y66.059 E16.57712
G1 X16.844 Y66.246 E16.66686
G1 X14.208 Y66.471 E16.88134
G1 X13.1 Y66.471 E16.97117
G1 X10.546 Y66.253 E17.17898
G1 X-35.822 Y60.266 E20.96931
G1 X-52.032 Y32.189 E23.59769
G1 X-62.455 Y-1.96 E26.49229
G1 X-63.056 Y-4.786 E26.72652
G1 X-63.188 Y-6.034 E26.82826
G1 X-63.188 Y-8.963 E27.06572
G1 X-63.056 Y-10.211 E27.16746
G1 X-62.448 Y-13.073 E27.40467
G1 X-62.06 Y-14.267 E27.50645
G1 X-60.943 Y-16.775 E27.72903
G1 X-50.057 Y-40.347 E29.83399
G1 X-49.813 Y-40.815 E29.87678
G1 X-49.181 Y-41.857 E29.97558
G1 X-46.867 Y-44.171 E30.24089
G1 X-29.559 Y-60.439 E32.1666
G1 X-27.508 Y-62.284 E32.39025
G1 X-26.494 Y-63.023 E32.49198
G1 X-23.957 Y-64.486 E32.7294
G1 X-22.812 Y-64.997 E32.83106
G1 X-20.027 Y-65.902 E33.06846
G1 X-18.8 Y-66.163 E33.17016
G1 X-15.889 Y-66.468 E33.40745
G1 X-14.635 Y-66.468 E33.50912
G1 X-11.815 Y-66.172 E33.73899
G0 F12000 X-11.902 Y-65.528
G1 F900 X27.918 Y-58.971 E37.01074
G1 X62.539 Y-37.134 E40.3292
G1 X62.539 Y17.871 E44.78854
G1 X30.063 Y58.198 E48.98626
G1 X29.412 Y58.936 E49.06605
G1 X27.543 Y60.728 E49.27596
G1 X26.724 Y61.389 E49.36129
G1 X24.577 Y62.84 E49.57137
G1 X23.659 Y63.353 E49.65663
G1 X21.299 Y64.419 E49.86657
G1 X20.308 Y64.771 E49.95183
G1 X17.798 Y65.423 E50.16207
G1 X16.762 Y65.601 E50.24729
G1 X14.18 Y65.821 E50.45738
G1 X13.128 Y65.821 E50.54267
G1 X10.616 Y65.607 E50.74706
G1 X-35.42 Y59.663 E54.51025
G1 X-51.432 Y31.929 E57.10651
G1 X-61.825 Y-2.122 E59.9928
G1 X-62.413 Y-4.888 E60.22206
G1 X-62.538 Y-6.068 E60.31826
G1 X-62.538 Y-8.929 E60.5502
G1 X-62.413 Y-10.109 E60.6464
G1 X-61.819 Y-12.905 E60.87814
G1 X-61.452 Y-14.033 E60.97431
G1 X-60.351 Y-16.506 E61.19377
G1 X-49.474 Y-40.06 E63.2971
G1 X-49.246 Y-40.496 E63.33699
G1 X-48.666 Y-41.453 E63.42771
G1 X-46.415 Y-43.705 E63.68585
G1 X-29.119 Y-59.961 E65.61019
G1 X-27.098 Y-61.779 E65.83057
G1 X-26.14 Y-62.477 E65.92667
G1 X-23.662 Y-63.906 E66.15857
G1 X-22.579 Y-64.389 E66.25471
G1 X-19.859 Y-65.273 E66.48658
G1 X-18.698 Y-65.52 E66.58281
G1 X-15.855 Y-65.818 E66.81456
G1 X-14.669 Y-65.818 E66.91071
G1 X-11.902 Y-65.528 E67.13626
G1 F6000 E64.63626
G0 F900 X-14.669 Y-65.818
G0 X-15.855 Y-65.818
G0 X-18.698 Y-65.52
G0 X-19.859 Y-65.273
G0 X-21.749 Y-64.659
G1 Z0.8
G0 F12000 X-21.202 Y-26.993
G0 X4.849 Y-29.939
G0 X5.997 Y-28.387
G0 X8.587 Y-16.92
G0 X8.371 Y-16.4
G0 X8.253 Y-15.498
G0 X8.371 Y-14.596
G0 X8.719 Y-13.756
G0 X11.908 Y-2.217
G0 X12.544 Y-2.088
; TYPE:WALL-OUTER
G1 Z0.3
G1 F6000 E67.13626
G1 F900 X12.341 Y-1.09 E67.21883
G1 X12.141 Y-0.399 E67.27715
G1 X11.929 Y0.17 E67.32638
G1 X11.542 Y0.17 E67.35775
G1 X11.344 Y-0.354 E67.40316
G1 X11.141 Y-1.056 E67.46241
G1 X10.927 Y-2.089 E67.54793
G1 X9.738 Y-2.213 E67.64485
G1 X9.333 Y-1.281 E67.72723
G1 X8.986 Y-0.634 E67.78675
G1 X8.667 Y-0.133 E67.83491
G1 X8.289 Y-0.213 E67.86623
G1 X8.205 Y-0.762 E67.91126
G1 X8.153 Y-1.49 E67.97043
G1 X8.158 Y-2.55 E68.05636
G1 X7.021 Y-2.919 E68.15328
G1 X6.431 Y-2.092 E68.23563
G1 X5.96 Y-1.532 E68.29496
G1 X5.54 Y-1.105 E68.34351
G1 X5.186 Y-1.262 E68.37491
G1 X5.217 Y-1.805 E68.419
G1 X5.32 Y-2.538 E68.47901
G1 X5.544 Y-3.577 E68.56518
G1 X4.509 Y-4.175 E68.66209
G1 X3.756 Y-3.485 E68.74489
G1 X3.179 Y-3.036 E68.80416
G1 X2.683 Y-2.707 E68.85242
G1 X2.369 Y-2.935 E68.88388
G1 X2.513 Y-3.46 E68.92801
G1 X2.77 Y-4.17 E68.98923
G1 X3.201 Y-5.125 E69.07417
G1 X2.313 Y-5.925 E69.17107
G1 X1.43 Y-5.406 E69.2541
G1 X0.776 Y-5.087 E69.3131
G1 X0.222 Y-4.869 E69.36136
G1 X-0.037 Y-5.156 E69.3927
G1 X0.223 Y-5.658 E69.43853
G1 X0.603 Y-6.271 E69.49701
G1 X1.23 Y-7.126 E69.58296
G1 X0.528 Y-8.094 E69.6799
G1 X-0.43 Y-7.773 E69.76182
G1 X-1.16 Y-7.593 E69.82277
G1 X-1.735 Y-7.496 E69.87004
G1 X-1.929 Y-7.831 E69.90143
G1 X-1.575 Y-8.263 E69.94671
G1 X-1.068 Y-8.79 E70.006
G1 X-0.28 Y-9.493 E70.09161
G1 X-0.765 Y-10.586 E70.18855
G1 X-1.778 Y-10.471 E70.2712
G1 X-2.507 Y-10.446 E70.33034
G1 X-3.105 Y-10.472 E70.37887
G1 X-3.224 Y-10.84 E70.41022
G1 X-2.785 Y-11.191 E70.45579
G1 X-2.184 Y-11.599 E70.51468
G1 X-1.265 Y-12.124 E70.60049
G1 X-1.514 Y-13.292 E70.69731
G1 X-2.522 Y-13.39 E70.77941
G1 X-3.245 Y-13.518 E70.83894
G1 X-3.826 Y-13.668 E70.88758
G1 X-3.866 Y-14.053 E70.91896
G1 X-3.369 Y-14.302 E70.96403
G1 X-2.687 Y-14.579 E71.02371
G1 X-1.682 Y-14.901 E71.10927
G1 X-1.682 Y-16.096 E71.20615
G1 X-2.659 Y-16.404 E71.2892
G1 X-3.327 Y-16.676 E71.34767
G1 X-3.866 Y-16.944 E71.39647
G1 X-3.826 Y-17.329 E71.42785
G1 X-3.293 Y-17.468 E71.47251
G1 X-2.561 Y-17.599 E71.53279
G1 X-1.514 Y-17.703 E71.61809
G1 X-1.265 Y-18.872 E71.71499
G1 X-2.156 Y-19.378 E71.79806
G1 X-2.751 Y-19.781 E71.85632
G1 X-3.224 Y-20.157 E71.90531
G1 X-3.105 Y-20.524 E71.93659
G1 X-2.546 Y-20.55 E71.98196
G1 X-1.814 Y-20.525 E72.04134
G1 X-0.764 Y-20.411 E72.12696
G1 X-0.279 Y-21.502 E72.22376
G1 X-1.042 Y-22.177 E72.30635
G1 X-1.542 Y-22.697 E72.36483
G1 X-1.929 Y-23.166 E72.41413
G1 X-1.736 Y-23.5 E72.4454
G1 X-1.187 Y-23.409 E72.49051
G1 X-0.476 Y-23.234 E72.54988
G1 X0.528 Y-22.903 E72.63558
G1 X1.231 Y-23.869 E72.73244
G1 X0.618 Y-24.701 E72.81622
G1 X0.244 Y-25.304 E72.87375
G1 X-0.036 Y-25.84 E72.92277
G1 X0.222 Y-26.126 E72.954
G1 X0.747 Y-25.922 E72.99966
G1 X1.39 Y-25.609 E73.05764
G1 X2.313 Y-25.072 E73.14421
G1 X3.201 Y-25.871 E73.24106
G1 X2.78 Y-26.797 E73.32352
G1 X2.53 Y-27.491 E73.38333
G1 X2.371 Y-28.061 E73.4313
G1 X2.683 Y-28.289 E73.46263
G1 X3.152 Y-27.981 E73.50812
G1 X3.724 Y-27.534 E73.56697
G1 X4.51 Y-26.821 E73.65301
G1 X5.545 Y-27.419 E73.74991
G1 X5.326 Y-28.412 E73.83235
G1 X5.223 Y-29.151 E73.89284
G1 X5.187 Y-29.734 E73.9402
G1 X5.541 Y-29.892 E73.97163
G1 X5.928 Y-29.5 E74.01628
G1 X6.401 Y-28.938 E74.07584
G1 X7.022 Y-28.077 E74.1619
G1 X8.159 Y-28.445 E74.25879
G1 X8.15 Y-29.468 E74.34173
G1 X8.202 Y-30.198 E74.40106
G1 X8.29 Y-30.785 E74.44918
G1 X8.668 Y-30.865 E74.4805
G1 X8.967 Y-30.397 E74.52553
G1 X9.311 Y-29.755 E74.58458
G1 X9.739 Y-28.782 E74.67075
G1 X10.928 Y-28.907 E74.76768
G1 X11.131 Y-29.905 E74.85024
G1 X11.331 Y-30.597 E74.90864
G1 X11.543 Y-31.167 E74.95795
G1 X11.93 Y-31.167 E74.98932
G1 X12.126 Y-30.646 E75.03445
G1 X12.329 Y-29.944 E75.09369
G1 X12.545 Y-28.906 E75.17965
G1 X13.734 Y-28.782 E75.27656
G1 X14.14 Y-29.716 E75.35913
G1 X14.491 Y-30.372 E75.41945
G1 X14.805 Y-30.865 E75.46683
G1 X15.184 Y-30.785 E75.49824
G1 X15.268 Y-30.235 E75.54334
G1 X15.32 Y-29.508 E75.60243
G1 X15.315 Y-28.445 E75.68861
G1 X16.452 Y-28.076 E75.78552
G1 X17.042 Y-28.903 E75.86788
G1 X17.513 Y-29.463 E75.92721
G1 X17.933 Y-29.891 E75.97582
G1 X18.287 Y-29.733 E76.00725
G1 X18.256 Y-29.19 E76.05134
G1 X18.154 Y-28.457 E76.11134
G1 X17.929 Y-27.418 E76.19753
G1 X18.964 Y-26.82 E76.29444
G1 X19.717 Y-27.51 E76.37724
G1 X20.288 Y-27.955 E76.43593
G1 X20.79 Y-28.288 E76.48476
G1 X21.104 Y-28.06 E76.51622
G1 X20.96 Y-27.535 E76.56036
G1 X20.706 Y-26.833 E76.62088
G1 X20.272 Y-25.87 E76.70652
G1 X21.161 Y-25.071 E76.80342
G1 X22.043 Y-25.59 E76.88639
G1 X22.697 Y-25.908 E76.94534
G1 X23.251 Y-26.126 E76.99361
G1 X23.51 Y-25.839 E77.02495
G1 X23.254 Y-25.344 E77.07013
G1 X22.866 Y-24.72 E77.1297
G1 X22.243 Y-23.869 E77.2152
G1 X22.945 Y-22.903 E77.31201
G1 X23.904 Y-23.222 E77.39395
G1 X24.632 Y-23.402 E77.45475
G1 X25.21 Y-23.5 E77.50228
G1 X25.404 Y-23.164 E77.53373
G1 X25.049 Y-22.732 E77.57906
G1 X24.542 Y-22.205 E77.63835
G1 X23.754 Y-21.502 E77.72396
G1 X24.239 Y-20.41 E77.82083
G1 X25.25 Y-20.524 E77.90331
G1 X25.981 Y-20.549 E77.96261
G1 X26.579 Y-20.523 E78.01114
G1 X26.699 Y-20.156 E78.04244
G1 X26.259 Y-19.804 E78.08812
G1 X25.658 Y-19.397 E78.14697
G1 X24.739 Y-18.871 E78.23281
G1 X24.988 Y-17.702 E78.32971
G1 X26.008 Y-17.604 E78.41279
G1 X26.719 Y-17.477 E78.47134
G1 X27.3 Y-17.327 E78.51999
G1 X27.34 Y-16.942 E78.55137
G1 X26.843 Y-16.693 E78.59643
G1 X26.173 Y-16.421 E78.65506
G1 X25.156 Y-16.095 E78.74164
G1 X25.156 Y-14.9 E78.83852
G1 X26.133 Y-14.591 E78.92159
G1 X26.801 Y-14.319 E78.98007
G1 X27.34 Y-14.051 E79.02887
G1 X27.3 Y-13.666 E79.06025
G1 X26.767 Y-13.527 E79.10491
G1 X26.036 Y-13.397 E79.1651
G1 X24.988 Y-13.291 E79.25049
G1 X24.738 Y-12.123 E79.34733
G1 X25.63 Y-11.618 E79.43043
G1 X26.225 Y-11.214 E79.48874
G1 X26.698 Y-10.839 E79.53767
G1 X26.578 Y-10.472 E79.56898
G1 X26.02 Y-10.446 E79.61426
G1 X25.288 Y-10.47 E79.67364
G1 X24.238 Y-10.585 E79.75928
G1 X23.753 Y-9.492 E79.85622
G1 X24.516 Y-8.818 E79.93875
G1 X25.014 Y-8.3 E79.99701
G1 X25.403 Y-7.83 E80.04647
G1 X25.209 Y-7.495 E80.07786
G1 X24.661 Y-7.586 E80.12289
G1 X23.95 Y-7.761 E80.18225
G1 X22.944 Y-8.093 E80.26814
G1 X22.242 Y-7.125 E80.36508
G1 X22.844 Y-6.311 E80.44716
G1 X23.237 Y-5.68 E80.50742
G1 X23.51 Y-5.156 E80.55533
G1 X23.251 Y-4.869 E80.58667
G1 X22.726 Y-5.073 E80.63233
G1 X22.083 Y-5.387 E80.69034
G1 X21.16 Y-5.924 E80.77691
G1 X20.272 Y-5.124 E80.87381
G1 X20.689 Y-4.207 E80.95548
G1 X20.946 Y-3.497 E81.0167
G1 X21.102 Y-2.934 E81.06406
G1 X20.789 Y-2.707 E81.09541
G1 X20.324 Y-3.013 E81.14054
G1 X19.748 Y-3.461 E81.19969
G1 X18.963 Y-4.174 E81.28567
G1 X17.928 Y-3.576 E81.38258
G1 X18.147 Y-2.586 E81.46478
G1 X18.251 Y-1.844 E81.52552
G1 X18.286 Y-1.262 E81.57279
G1 X17.932 Y-1.105 E81.60418
G1 X17.539 Y-1.502 E81.64947
G1 X17.072 Y-2.057 E81.70828
G1 X16.451 Y-2.918 E81.79434
G1 X15.314 Y-2.55 E81.89123
G1 X15.323 Y-1.527 E81.97417
G1 X15.271 Y-0.799 E82.03334
G1 X15.183 Y-0.213 E82.08138
G1 X14.804 Y-0.133 E82.11278
G1 X14.506 Y-0.596 E82.15742
G1 X14.161 Y-1.24 E82.21665
G1 X13.733 Y-2.213 E82.30283
G1 X12.544 Y-2.088 E82.39975
G0 F12000 X11.908 Y-2.217
G0 X12.003 Y-2.685
; TYPE:WALL-INNER
G1 F900 X14.137 Y-2.909 E82.57371
G0 F12000 X14.398 Y-2.965
G1 F900 X14.42 Y-2.862 E82.58225
G1 X14.671 Y-1.695 E82.67902
G0 F12000 X14.66 Y-3.021
G1 F900 X16.701 Y-3.683 E82.85298
G0 F12000 X16.946 Y-3.792
G1 F900 X16.99 Y-3.695 E82.86161
G1 X17.476 Y-2.607 E82.95822
G0 F12000 X17.191 Y-3.901
G1 F900 X19.048 Y-4.974 E83.13209
G0 F12000 X19.265 Y-5.131
G1 F900 X19.328 Y-5.046 E83.14067
G1 X20.031 Y-4.082 E83.2374
G0 F12000 X19.483 Y-5.289
G1 F900 X21.077 Y-6.725 E83.41133
G0 F12000 X21.257 Y-6.923
G1 F900 X21.336 Y-6.853 E83.41989
G1 X22.224 Y-6.056 E83.51662
G0 F12000 X21.437 Y-7.122
G1 F900 X22.697 Y-8.859 E83.69059
G0 F12000 X22.831 Y-9.09
G1 F900 X22.922 Y-9.038 E83.69909
G1 X23.958 Y-8.443 E83.79595
G0 F12000 X22.966 Y-9.321
G1 F900 X23.837 Y-11.283 E83.96998
G0 F12000 X23.92 Y-11.537
G1 F900 X24.02 Y-11.505 E83.97849
G1 X25.158 Y-11.138 E84.07543
G0 F12000 X24.003 Y-11.792
G1 F900 X24.451 Y-13.89 E84.24935
G0 F12000 X24.478 Y-14.157
G1 F900 X24.584 Y-14.146 E84.25799
G1 X25.769 Y-14.024 E84.35457
G0 F12000 X24.506 Y-14.424
G1 F900 X24.506 Y-16.57 E84.52855
G0 F12000 X24.478 Y-16.835
G1 F900 X24.583 Y-16.847 E84.53712
G1 X25.769 Y-16.974 E84.63382
G0 F12000 X24.451 Y-17.101
G1 F900 X24.004 Y-19.2 E84.8078
G0 F12000 X23.921 Y-19.455
G1 F900 X24.021 Y-19.489 E84.81637
G1 X25.158 Y-19.86 E84.91333
G0 F12000 X23.838 Y-19.711
G1 F900 X22.967 Y-21.671 E85.08721
G0 F12000 X22.833 Y-21.903
G1 F900 X22.924 Y-21.956 E85.09575
G1 X23.958 Y-22.555 E85.19263
G0 F12000 X22.699 Y-22.136
G1 F900 X21.438 Y-23.87 E85.36645
G0 F12000 X21.259 Y-24.07
G1 F900 X21.337 Y-24.142 E85.37505
G1 X22.222 Y-24.942 E85.47177
G0 F12000 X21.08 Y-24.27
G1 F900 X19.484 Y-25.704 E85.64572
G0 F12000 X19.267 Y-25.861
G1 F900 X19.329 Y-25.947 E85.65431
G1 X20.03 Y-26.915 E85.75121
G0 F12000 X19.051 Y-26.019
G1 F900 X17.193 Y-27.093 E85.92519
G0 F12000 X16.949 Y-27.202
G1 F900 X16.991 Y-27.298 E85.93369
G1 X17.474 Y-28.39 E86.03049
G0 F12000 X16.705 Y-27.311
G1 F900 X14.663 Y-27.973 E86.20452
G0 F12000 X14.401 Y-28.029
G1 F900 X14.422 Y-28.133 E86.21312
G1 X14.669 Y-29.302 E86.30999
G0 F12000 X14.14 Y-28.086
G1 F900 X12.005 Y-28.309 E86.48402
G0 F12000 X11.737 Y-28.309
G1 F900 X11.736 Y-28.414 E86.49253
G1 X11.734 Y-29.61 E86.58949
G0 F12000 X11.469 Y-28.31
G1 F900 X9.335 Y-28.086 E86.76345
G0 F12000 X9.074 Y-28.03
G1 F900 X9.052 Y-28.133 E86.77199
G1 X8.802 Y-29.297 E86.86851
G0 F12000 X8.813 Y-27.974
G1 F900 X6.772 Y-27.312 E87.04246
G0 F12000 X6.527 Y-27.203
G1 F900 X6.483 Y-27.3 E87.0511
G1 X5.997 Y-28.387 E87.14763
G0 F12000 X6.282 Y-27.094
G1 F900 X4.425 Y-26.021 E87.3215
G0 F12000 X4.207 Y-25.863
G1 F900 X4.144 Y-25.949 E87.33014
G1 X3.442 Y-26.913 E87.42682
G0 F12000 X3.99 Y-25.706
G1 F900 X2.395 Y-24.272 E87.60071
G0 F12000 X2.215 Y-24.072
G1 F900 X2.136 Y-24.143 E87.60932
G1 X1.25 Y-24.939 E87.70588
G0 F12000 X2.036 Y-23.872
G1 F900 X0.775 Y-22.137 E87.87977
G0 F12000 X0.641 Y-21.905
G1 F900 X0.55 Y-21.957 E87.88827
G1 X-0.485 Y-22.553 E87.98509
G0 F12000 X0.508 Y-21.673
G1 F900 X-0.363 Y-19.714 E88.1589
G0 F12000 X-0.446 Y-19.458
G1 F900 X-0.548 Y-19.49 E88.16757
G1 X-1.684 Y-19.857 E88.26435
G0 F12000 X-0.53 Y-19.202
G1 F900 X-0.977 Y-17.104 E88.43826
G0 F12000 X-1.004 Y-16.838
G1 F900 X-1.109 Y-16.849 E88.44682
G1 X-2.297 Y-16.972 E88.54365
G0 F12000 X-1.032 Y-16.573
G1 F900 X-1.032 Y-14.427 E88.71762
G0 F12000 X-1.004 Y-14.16
G1 F900 X-1.109 Y-14.148 E88.72619
G1 X-2.297 Y-14.021 E88.82305
G0 F12000 X-0.977 Y-13.893
G1 F900 X-0.53 Y-11.795 E88.99696
G0 F12000 X-0.447 Y-11.54
G1 F900 X-0.546 Y-11.507 E89.00542
G1 X-1.684 Y-11.136 E89.10246
G0 F12000 X-0.364 Y-11.286
G1 F900 X0.506 Y-9.324 E89.27646
G0 F12000 X0.64 Y-9.093
G1 F900 X0.549 Y-9.04 E89.285
G1 X-0.483 Y-8.441 E89.38173
G0 F12000 X0.774 Y-8.862
G1 F900 X2.035 Y-7.124 E89.55582
G0 F12000 X2.214 Y-6.925
G1 F900 X2.136 Y-6.854 E89.56437
G1 X1.251 Y-6.054 E89.66108
G0 F12000 X2.394 Y-6.727
G1 F900 X3.988 Y-5.29 E89.83507
G0 F12000 X4.205 Y-5.133
G1 F900 X4.144 Y-5.048 E89.84356
G1 X3.443 Y-4.079 E89.94052
G0 F12000 X4.422 Y-4.976
G1 F900 X6.279 Y-3.903 E90.11439
G0 F12000 X6.523 Y-3.793
G1 F900 X6.481 Y-3.697 E90.12289
G1 X5.999 Y-2.606 E90.21958
G0 F12000 X6.768 Y-3.684
G1 F900 X8.81 Y-3.022 E90.39361
G0 F12000 X9.071 Y-2.965
G1 F900 X9.05 Y-2.862 E90.40213
G1 X8.804 Y-1.695 E90.49882
G0 F12000 X9.332 Y-2.909
G1 F900 X11.467 Y-2.686 E90.67285
G0 F12000 X11.735 Y-2.685
G1 F900 X11.736 Y-2.58 E90.68137
G1 X11.738 Y-1.385 E90.77825
G0 F12000 X11.738 Y-3.311
G1 F900 X9.213 Y-3.575 E90.98407
G1 X6.783 Y-4.362 E91.19115
G1 X4.568 Y-5.642 E91.39855
G1 X2.674 Y-7.35 E91.60531
G1 X1.18 Y-9.408 E91.81149
G1 X0.148 Y-11.734 E92.01779
G1 X-0.382 Y-14.217 E92.22362
G1 X-0.382 Y-16.776 E92.43108
G1 X0.148 Y-19.264 E92.63732
G1 X1.184 Y-21.595 E92.84412
G1 X2.683 Y-23.656 E93.05073
G1 X4.574 Y-25.357 E93.25693
G1 X6.784 Y-26.633 E93.46382
G1 X9.208 Y-27.419 E93.67041
G1 X11.734 Y-27.684 E93.87632
G1 X14.26 Y-27.42 E94.08222
G1 X16.692 Y-26.632 E94.28948
G1 X18.9 Y-25.356 E94.49623
G1 X20.791 Y-23.655 E94.70243
G1 X22.292 Y-21.591 E94.90933
G1 X23.326 Y-19.263 E95.11584
G1 X23.856 Y-16.776 E95.322
G1 X23.856 Y-14.217 E95.52946
G1 X23.327 Y-11.738 E95.73496
G1 X22.296 Y-9.414 E95.94108
G1 X20.798 Y-7.349 E96.1479
G1 X18.901 Y-5.639 E96.35496
G1 X16.689 Y-4.362 E96.56203
G1 X14.265 Y-3.576 E96.76862
G1 X11.738 Y-3.311 E96.97461
G1 F6000 E94.47461
G0 F900 X14.265 Y-3.576
G0 X16.689 Y-4.362
G0 X18.901 Y-5.639
G0 X20.653 Y-7.218
G1 Z0.8
G0 F12000 X11.652 Y-12.026
G0 X11.736 Y-12.67
; TYPE:WALL-OUTER
G1 Z0.3
G1 F6000 E96.97461
G1 F900 X12.468 Y-12.766 E97.03446
G1 X13.15 Y-13.049 E97.09432
G1 X13.736 Y-13.498 E97.15417
G1 X14.185 Y-14.084 E97.21402
G1 X14.468 Y-14.766 E97.27388
G1 X14.564 Y-15.498 E97.33374
G1 X14.468 Y-16.23 E97.39359
G1 X14.185 Y-16.912 E97.45345
G1 X13.736 Y-17.497 E97.51324
G1 X13.15 Y-17.947 E97.57314
G1 X12.468 Y-18.229 E97.63297
G1 X11.736 Y-18.326 E97.69283
G1 X11.004 Y-18.229 E97.75269
G1 X10.322 Y-17.947 E97.81253
G1 X9.736 Y-17.497 E97.87243
G1 X9.287 Y-16.912 E97.93221
G1 X9.004 Y-16.23 E97.99207
G1 X8.908 Y-15.498 E98.05193
G1 X9.004 Y-14.766 E98.11178
G1 X9.287 Y-14.084 E98.17164
G1 X9.736 Y-13.498 E98.23149
G1 X10.322 Y-13.049 E98.29134
G1 X11.004 Y-12.766 E98.3512
G1 X11.736 Y-12.67 E98.41106
G0 F12000 X11.652 Y-12.026
G0 X11.736 Y-12.015
; TYPE:WALL-INNER
G1 F900 X12.638 Y-12.133 E98.4848
G1 X13.478 Y-12.481 E98.55852
G1 X14.199 Y-13.035 E98.63223
G1 X14.753 Y-13.756 E98.70595
G1 X15.101 Y-14.596 E98.77966
G1 X15.219 Y-15.498 E98.85341
G1 X15.101 Y-16.4 E98.92716
G1 X14.752 Y-17.24 E99.0009
G1 X14.199 Y-17.96 E99.07451
G1 X13.478 Y-18.515 E99.14827
G1 X12.638 Y-18.862 E99.22195
G1 X11.736 Y-18.982 E99.29572
G1 X10.834 Y-18.862 E99.36949
G1 X9.994 Y-18.515 E99.44318
G1 X9.273 Y-17.96 E99.51694
G1 X8.72 Y-17.24 E99.59054
G1 X8.371 Y-16.4 E99.66429
G1 X8.253 Y-15.498 E99.73804
G1 X8.371 Y-14.596 E99.81179
G1 X8.719 Y-13.756 E99.8855
G1 X9.273 Y-13.035 E99.95921
G1 X9.994 Y-12.481 E100.03293
G1 X10.834 Y-12.133 E100.10664
G1 X11.736 Y-12.015 E100.18039
G0 F12000 X11.736 Y-11.359
G1 F900 X12.807 Y-11.5 E100.26797
G1 X13.805 Y-11.914 E100.35556
G1 X14.663 Y-12.571 E100.44317
G1 X15.32 Y-13.429 E100.53078
G1 X15.734 Y-14.427 E100.61838
G1 X15.875 Y-15.498 E100.70596
G1 X15.734 Y-16.569 E100.79353
G1 X15.32 Y-17.568 E100.8812
G1 X14.663 Y-18.424 E100.96868
G1 X13.805 Y-19.083 E101.05639
G1 X12.807 Y-19.495 E101.14393
G1 X11.736 Y-19.637 E101.23151
G1 X10.665 Y-19.495 E101.3191
G1 X9.667 Y-19.083 E101.40663
G1 X8.809 Y-18.424 E101.49434
G1 X8.152 Y-17.568 E101.58183
G1 X7.738 Y-16.569 E101.66949
G1 X7.597 Y-15.498 E101.75707
G1 X7.738 Y-14.427 E101.84465
G1 X8.152 Y-13.429 E101.93224
G1 X8.809 Y-12.571 E102.01985
G1 X9.667 Y-11.914 E102.10746
G1 X10.665 Y-11.5 E102.19506
G1 X11.736 Y-11.359 E102.28264
G1 F6000 E99.78264
G0 F900 X10.665 Y-11.5
G0 X9.667 Y-11.914
G0 X8.809 Y-12.571
G0 X8.152 Y-13.429
G0 X7.738 Y-14.427
G0 X7.597 Y-15.498
G0 X7.738 Y-16.569
G0 X8.152 Y-17.568
G0 X8.809 Y-18.424
G0 X9.031 Y-18.594
G1 Z0.8
G0 F12000 X11.738 Y-1.385
G0 X11.758 Y-1.094
; TYPE:FILL
G1 Z0.3
G1 F6000 E102.28264
G1 F900 X11.815 Y-0.712 E102.31342
G1 X11.773 Y-0.343 E102.34116
G1 X11.735 Y-0.444 E102.35285
G1 X11.699 Y-0.335 E102.35499
G0 F12000 X11.738 Y-1.385
G0 X11.467 Y-2.686
G0 X9.332 Y-2.909
G0 X8.804 Y-1.695
G0 X8.74 Y-1.008
G1 F900 X8.622 Y-0.667 E102.38267
G1 X8.606 Y-0.776 E102.39331
G1 X8.642 Y-0.851 E102.40216
G1 X8.763 Y-1.402 E102.44114
G0 F12000 X8.804 Y-1.695
G0 X8.81 Y-3.022
G0 X6.768 Y-3.684
G0 X5.999 Y-2.606
G0 X5.897 Y-2.326
G1 F900 X5.797 Y-1.959 E102.47141
G1 X5.605 Y-1.634 E102.49966
G1 X5.611 Y-1.741 E102.51086
G1 X5.534 Y-1.656 E102.513
G0 F12000 X5.999 Y-2.606
G0 X6.279 Y-3.903
G0 X4.422 Y-4.976
G0 X3.443 Y-4.079
G0 X3.105 Y-3.481
G1 F900 X2.861 Y-3.216 E102.54041
G1 X2.89 Y-3.323 E102.5516
G1 X2.951 Y-3.375 E102.56028
G1 X3.282 Y-3.824 E102.59855
G0 F12000 X3.443 Y-4.079
G0 X3.988 Y-5.29
G0 X2.394 Y-6.727
G0 X1.251 Y-6.054
G0 X1.042 Y-5.839
G1 F900 X0.803 Y-5.546 E102.62859
G1 X0.5 Y-5.328 E102.65639
G1 X0.55 Y-5.424 E102.66792
G1 X0.443 Y-5.377 E102.67012
G0 F12000 X1.251 Y-6.054
G0 X2.035 Y-7.124
G0 X0.774 Y-8.862
G0 X-0.483 Y-8.441
G0 X-1.033 Y-8.031
G1 F900 X-1.368 Y-7.887 E102.69777
G1 X-1.299 Y-7.971 E102.7091
G1 X-1.218 Y-7.994 E102.71706
G1 X-0.725 Y-8.276 E102.75645
G0 F12000 X-0.483 Y-8.441
G0 X0.506 Y-9.324
G0 X-0.364 Y-11.286
G0 X-1.684 Y-11.136
G0 X-1.957 Y-11.024
G1 F900 X-2.3 Y-10.851 E102.78702
G1 X-2.669 Y-10.778 E102.81522
G1 X-2.587 Y-10.843 E102.82622
G1 X-2.699 Y-10.844 E102.82827
G1 F6000 E100.32827
G0 F900 X-2.587 Y-10.843
G0 X-2.669 Y-10.778
G0 X-2.3 Y-10.851
G0 X-1.957 Y-11.024
G0 X-1.684 Y-11.136
G0 X-0.364 Y-11.286
G0 X0.506 Y-9.324
G0 X-0.483 Y-8.441
G0 X-0.725 Y-8.276
G0 X-1.218 Y-7.994
G0 X-1.299 Y-7.971
G0 X-1.368 Y-7.887
G0 X-1.033 Y-8.031
G0 X-0.483 Y-8.441
G0 X0.774 Y-8.862
G0 X1.07 Y-8.455
G1 Z0.8
G0 F12000 X-1.684 Y-11.136
G0 X-0.53 Y-11.795
G0 X-0.977 Y-13.893
G0 X-2.297 Y-14.021
G0 X-2.971 Y-13.869
G1 Z0.3
G1 F6000 E102.82827
G1 F900 X-3.331 Y-13.875 E102.85589
G1 X-3.234 Y-13.924 E102.86657
G1 X-3.152 Y-13.913 E102.87524
G1 X-2.588 Y-13.97 E102.91427
G0 F12000 X-2.297 Y-14.021
G0 X-1.032 Y-14.427
G0 X-1.032 Y-16.573
G0 X-2.297 Y-16.972
G0 X-2.598 Y-16.981
G1 F900 X-2.976 Y-16.964 E102.94452
G1 X-3.339 Y-17.044 E102.97229
G1 X-3.233 Y-17.07 E102.98397
G1 X-3.339 Y-17.119 E102.98615
G0 F12000 X-2.297 Y-16.972
G0 X-0.977 Y-17.104
G0 X-0.53 Y-19.202
G0 X-1.684 Y-19.857
G0 X-2.352 Y-19.989
G1 F900 X-2.689 Y-20.145 E103.01413
G1 X-2.583 Y-20.15 E103.02597
G1 X-2.508 Y-20.103 E103.03315
G1 X-1.975 Y-19.93 E103.07173
G0 F12000 X-1.684 Y-19.857
G0 X-0.363 Y-19.714
G0 X0.508 Y-21.673
G0 X-0.485 Y-22.553
G0 X-0.754 Y-22.684
G1 F900 X-1.106 Y-22.821 E103.10193
G1 X-1.406 Y-23.044 E103.12995
G1 X-1.301 Y-23.026 E103.14143
G1 X-1.377 Y-23.112 E103.14353
G0 F12000 X-0.485 Y-22.553
G0 X0.775 Y-22.137
G0 X2.036 Y-23.872
G0 X1.25 Y-24.939
G0 X0.691 Y-25.335
G1 F900 X0.45 Y-25.611 E103.17137
G1 X0.55 Y-25.571 E103.18278
G1 X0.598 Y-25.501 E103.19072
G1 X1.015 Y-25.122 E103.22952
G0 F12000 X1.25 Y-24.939
G0 X2.395 Y-24.272
G0 X3.99 Y-25.706
G0 X3.442 Y-26.913
G0 X3.247 Y-27.145
G1 F900 X2.981 Y-27.414 E103.25958
G1 X2.798 Y-27.736 E103.28715
G1 X2.889 Y-27.677 E103.29863
G1 X2.854 Y-27.788 E103.30082
G0 F12000 X3.442 Y-26.913
G0 X4.425 Y-26.021
G0 X6.282 Y-27.094
G0 X5.997 Y-28.387
G0 X5.647 Y-28.975
G1 F900 X5.538 Y-29.329 E103.32886
G1 X5.613 Y-29.253 E103.34037
G1 X5.628 Y-29.167 E103.34801
G1 X5.857 Y-28.651 E103.38688
G1 F6000 E100.88688
G0 F900 X5.628 Y-29.167
G0 X5.613 Y-29.253
G0 X5.538 Y-29.329
G0 X5.647 Y-28.975
G0 X5.997 Y-28.387
G0 X6.282 Y-27.094
G0 X4.425 Y-26.021
G0 X3.442 Y-26.913
G0 X2.854 Y-27.788
G0 X2.889 Y-27.677
G0 X2.798 Y-27.736
G0 X2.981 Y-27.414
G0 X3.247 Y-27.145
G0 X3.442 Y-26.913
G0 X3.882 Y-25.943
G1 Z0.8
G0 F12000 X5.997 Y-28.387
G0 X6.772 Y-27.312
G0 X8.813 Y-27.974
G0 X8.802 Y-29.297
G0 X8.717 Y-29.591
G1 Z0.3
G1 F6000 E103.38688
G1 F900 X8.585 Y-29.946 E103.41716
G1 X8.548 Y-30.312 E103.44459
G1 X8.607 Y-30.221 E103.45631
G1 X8.62 Y-30.336 E103.45849
G0 F12000 X8.802 Y-29.297
G0 X9.335 Y-28.086
G0 X11.469 Y-28.31
G0 X11.734 Y-29.61
G0 X11.654 Y-30.288
G1 F900 X11.698 Y-30.653 E103.48632
G1 X11.736 Y-30.551 E103.498
G1 X11.716 Y-30.469 E103.50574
G1 X11.723 Y-29.878 E103.53589
G1 X11.739 Y-29.998 E103.54312
G0 F12000 X11.734 Y-29.61
G0 X12.005 Y-28.309
G0 X14.14 Y-28.086
G0 X14.669 Y-29.302
G0 X14.733 Y-29.981
G1 F900 X14.847 Y-30.325 E103.57051
G1 X14.864 Y-30.214 E103.58253
G1 X14.83 Y-30.143 E103.59063
G1 X14.71 Y-29.598 E103.62905
G0 F12000 X14.669 Y-29.302
G0 X14.663 Y-27.973
G0 X16.705 Y-27.311
G0 X17.474 Y-28.39
G0 X17.576 Y-28.668
G1 F900 X17.676 Y-29.036 E103.65939
G1 X17.867 Y-29.36 E103.68745
G1 X17.86 Y-29.253 E103.69857
G1 X17.938 Y-29.339 E103.70076
G0 F12000 X17.474 Y-28.39
G0 X17.193 Y-27.093
G0 X19.051 Y-26.019
G0 X20.03 Y-26.915
G0 X20.367 Y-27.514
G1 F900 X20.612 Y-27.78 E103.72818
G1 X20.583 Y-27.675 E103.73971
G1 X20.521 Y-27.622 E103.74786
G1 X20.192 Y-27.174 E103.78592
G0 F12000 X20.03 Y-26.915
G0 X19.484 Y-25.704
G0 X21.08 Y-24.27
G0 X22.222 Y-24.942
G0 X22.426 Y-25.153
G1 F900 X22.674 Y-25.452 E103.81684
G1 X22.974 Y-25.667 E103.84437
G1 X22.925 Y-25.572 E103.85564
G1 X23.031 Y-25.619 E103.8578
G0 F12000 X22.222 Y-24.942
G0 X21.438 Y-23.87
G0 X22.699 Y-22.136
G0 X23.958 Y-22.555
G0 X24.507 Y-22.964
G1 F900 X24.841 Y-23.107 E103.88535
G1 X24.773 Y-23.023 E103.8967
G1 X24.692 Y-23 E103.90466
G1 X24.204 Y-22.721 E103.94343
G1 F6000 E101.44343
G0 F900 X24.692 Y-23
G0 X24.773 Y-23.023
G0 X24.841 Y-23.107
G0 X24.507 Y-22.964
G0 X23.958 Y-22.555
G0 X22.699 Y-22.136
G0 X21.438 Y-23.87
G0 X22.222 Y-24.942
G0 X23.031 Y-25.619
G0 X22.925 Y-25.572
G0 X22.974 Y-25.667
G0 X22.674 Y-25.452
G0 X22.426 Y-25.153
G0 X22.222 Y-24.942
G0 X21.295 Y-24.397
G1 Z0.8
G0 F12000 X23.958 Y-22.555
G0 X22.967 Y-21.671
G0 X23.838 Y-19.711
G0 X25.158 Y-19.86
G0 X25.429 Y-19.97
G1 Z0.3
G1 F6000 E103.94343
G1 F900 X25.779 Y-20.142 E103.97437
G1 X26.142 Y-20.217 E104.00211
G1 X26.059 Y-20.151 E104.01289
G1 X26.175 Y-20.152 E104.01509
G0 F12000 X25.158 Y-19.86
G0 X24.004 Y-19.2
G0 X24.451 Y-17.101
G0 X25.769 Y-16.974
G0 X26.444 Y-17.126
G1 F900 X26.805 Y-17.119 E104.04278
G1 X26.708 Y-17.07 E104.05346
G1 X26.625 Y-17.082 E104.06215
G1 X26.061 Y-17.025 E104.10139
G0 F12000 X25.769 Y-16.974
G0 X24.506 Y-16.57
G0 X24.506 Y-14.424
G0 X25.769 Y-14.024
G0 X26.074 Y-14.013
G1 F900 X26.449 Y-14.03 E104.1314
G1 X26.813 Y-13.951 E104.15923
G1 X26.707 Y-13.923 E104.17096
G1 X26.813 Y-13.875 E104.17313
G0 F12000 X25.769 Y-14.024
G0 X24.451 Y-13.89
G0 X24.003 Y-11.792
G0 X25.158 Y-11.138
G0 X25.829 Y-11.005
G1 F900 X26.164 Y-10.848 E104.20124
G1 X26.058 Y-10.843 E104.21259
G1 X25.983 Y-10.89 E104.22009
G1 X25.446 Y-11.066 E104.25914
G0 F12000 X25.158 Y-11.138
G0 X23.837 Y-11.283
G0 X22.966 Y-9.321
G0 X23.958 Y-8.443
G0 X24.228 Y-8.311
G1 F900 X24.581 Y-8.173 E104.28934
G1 X24.88 Y-7.951 E104.31717
G1 X24.775 Y-7.968 E104.32863
G1 X24.851 Y-7.883 E104.33075
G0 F12000 X23.958 Y-8.443
G0 X22.697 Y-8.859
G0 X21.437 Y-7.122
G0 X22.224 Y-6.056
G0 X22.787 Y-5.656
G1 F900 X23.025 Y-5.383 E104.3583
G1 X22.923 Y-5.422 E104.36927
G1 X22.876 Y-5.492 E104.37765
G1 X22.459 Y-5.872 E104.41649
G0 F12000 X22.224 Y-6.056
G0 X21.077 Y-6.725
G0 X19.483 Y-5.289
G0 X20.031 Y-4.082
G0 X20.226 Y-3.849
G1 F900 X20.491 Y-3.581 E104.44644
G1 X20.675 Y-3.257 E104.47427
G1 X20.584 Y-3.316 E104.48566
G1 X20.62 Y-3.206 E104.48783
G1 F6000 E101.98783
G0 F900 X20.584 Y-3.316
G0 X20.675 Y-3.257
G0 X20.491 Y-3.581
G0 X20.226 Y-3.849
G0 X20.031 Y-4.082
G0 X19.483 Y-5.289
G0 X21.077 Y-6.725
G0 X22.224 Y-6.056
G0 X22.459 Y-5.872
G0 X22.876 Y-5.492
G0 X22.923 Y-5.422
G0 X23.025 Y-5.383
G0 X22.787 Y-5.656
G0 X22.224 Y-6.056
G0 X21.437 Y-7.122
G0 X21.728 Y-7.524
G1 Z0.8
G0 F12000 X20.031 Y-4.082
G0 X19.048 Y-4.974
G0 X17.191 Y-3.901
G0 X17.476 Y-2.607
G0 X17.827 Y-2.019
G1 Z0.3
G1 F6000 E104.48783
G1 F900 X17.935 Y-1.668 E104.51581
G1 X17.858 Y-1.744 E104.52693
G1 X17.843 Y-1.83 E104.53498
G1 X17.616 Y-2.345 E104.57373
G0 F12000 X17.476 Y-2.607
G0 X16.701 Y-3.683
G0 X14.66 Y-3.021
G0 X14.671 Y-1.695
G0 X14.755 Y-1.404
G1 F900 X14.887 Y-1.051 E104.60376
G1 X14.924 Y-0.683 E104.63135
G1 X14.865 Y-0.775 E104.64305
G1 X14.852 Y-0.659 E104.64526
G0 F12000 X14.671 Y-1.695
G0 X14.137 Y-2.909
G0 X13.533 Y-3.9
; TYPE:BOTTOM-FILL
G1 F900 X9.938 Y-3.9 E104.93671
G0 F12000 X7.498 Y-4.55
G1 F900 X15.977 Y-4.55 E105.62412
G0 F12000 X17.342 Y-5.2
G1 F900 X6.133 Y-5.2 E106.53285
G0 F12000 X5.008 Y-5.85
G1 F900 X18.468 Y-5.85 E107.62407
G0 F12000 X19.26 Y-6.5
G1 F900 X4.214 Y-6.5 E108.84388
G0 F12000 X3.492 Y-7.15
G1 F900 X19.981 Y-7.15 E110.18066
G0 F12000 X20.632 Y-7.8
G1 F900 X2.841 Y-7.8 E111.62301
G0 F12000 X2.369 Y-8.45
G1 F900 X21.103 Y-8.45 E113.1418
G0 F12000 X21.575 Y-9.1
G1 F900 X1.897 Y-9.1 E114.73713
G0 F12000 X1.464 Y-9.75
G1 F900 X22.008 Y-9.75 E116.40267
G0 F12000 X22.297 Y-10.4
G1 F900 X1.176 Y-10.4 E118.11498
G0 F12000 X0.888 Y-11.05
G1 F900 X11.02 Y-11.05 E118.9364
G0 F12000 X12.452 Y-11.05
G1 F900 X22.585 Y-11.05 E119.75789
G0 F12000 X22.873 Y-11.7
G1 F900 X14.184 Y-11.7 E120.46232
G0 F12000 X14.998 Y-12.35
G1 F900 X23.049 Y-12.35 E121.11503
G0 F12000 X23.187 Y-13
G1 F900 X15.496 Y-13 E121.73855
G0 F12000 X15.845 Y-13.65
G1 F900 X23.326 Y-13.65 E122.34505
G0 F12000 X23.456 Y-14.3
G1 F900 X16.114 Y-14.3 E122.94028
G0 F12000 X16.205 Y-14.95
G1 F900 X23.456 Y-14.95 E123.52813
G0 F12000 X23.456 Y-15.6
G1 F900 X16.264 Y-15.6 E124.11119
G0 F12000 X16.178 Y-16.25
G1 F900 X23.456 Y-16.25 E124.70123
G0 F12000 X23.42 Y-16.9
G1 F900 X16.029 Y-16.9 E125.30043
G0 F12000 X15.76 Y-17.55
G1 F900 X23.282 Y-17.55 E125.91025
G0 F12000 X23.143 Y-18.2
G1 F900 X15.339 Y-18.2 E126.54294
G0 F12000 X14.765 Y-18.85
G1 F900 X23.005 Y-18.85 E127.21097
G0 F12000 X22.783 Y-19.5
G1 F900 X13.844 Y-19.5 E127.93566
G0 F12000 X9.626 Y-19.5
G1 F900 X0.69 Y-19.5 E128.66012
G0 F12000 X0.468 Y-18.85
G1 F900 X8.705 Y-18.85 E129.32791
G0 F12000 X8.131 Y-18.2
G1 F900 X0.33 Y-18.2 E129.96035
G0 F12000 X0.191 Y-17.55
G1 F900 X7.71 Y-17.55 E130.56992
G0 F12000 X7.441 Y-16.9
G1 F900 X0.053 Y-16.9 E131.16888
G0 F12000 X0.017 Y-16.25
G1 F900 X7.292 Y-16.25 E131.75868
G0 F12000 X7.206 Y-15.6
G1 F900 X0.017 Y-15.6 E132.3415
G0 F12000 X0.017 Y-14.95
G1 F900 X7.265 Y-14.95 E132.92911
G0 F12000 X7.357 Y-14.3
G1 F900 X0.017 Y-14.3 E133.52417
G0 F12000 X0.147 Y-13.65
G1 F900 X7.626 Y-13.65 E134.13051
G0 F12000 X7.976 Y-13
G1 F900 X0.286 Y-13 E134.75395
G0 F12000 X0.425 Y-12.35
G1 F900 X8.475 Y-12.35 E135.40657
G0 F12000 X9.289 Y-11.7
G1 F900 X0.599 Y-11.7 E136.11108
G1 F6000 E133.61108
G0 F900 X9.289 Y-11.7
G0 X8.475 Y-12.35
G0 X8.206 Y-12.35
G1 Z0.8
G0 F12000 X0.978 Y-20.15
G1 Z0.3
G1 F6000 E136.11108
G1 F900 X22.495 Y-20.15 E137.8555
G0 F12000 X22.206 Y-20.8
G1 F900 X1.267 Y-20.8 E139.55306
G0 F12000 X1.572 Y-21.45
G1 F900 X21.9 Y-21.45 E141.20108
G0 F12000 X21.428 Y-22.1
G1 F900 X2.045 Y-22.1 E142.77249
G0 F12000 X2.518 Y-22.75
G1 F900 X20.955 Y-22.75 E144.26721
G0 F12000 X20.476 Y-23.4
G1 F900 X2.995 Y-23.4 E145.68442
G0 F12000 X3.718 Y-24.05
G1 F900 X19.754 Y-24.05 E146.98449
G0 F12000 X19.031 Y-24.7
G1 F900 X4.441 Y-24.7 E148.16732
G0 F12000 X5.361 Y-25.35
G1 F900 X18.11 Y-25.35 E149.2009
G0 F12000 X16.986 Y-26
G1 F900 X6.487 Y-26 E150.05207
G0 F12000 X8.13 Y-26.65
G1 F900 X15.34 Y-26.65 E150.6366
G1 F6000 E148.1366
G0 F900 X8.13 Y-26.65
G0 X6.487 Y-26
G0 X7.511 Y-26
G1 Z0.8
G0 F12000 X4.425 Y-26.021
G0 X3.442 Y-26.913
G0 X2.674 Y-28.684
G0 X-1.62 Y-38.139
G0 X-3.036 Y-39.44
G0 X-4.299 Y-39.862
G0 X-5.127 Y-38.72
G0 X-19.811 Y-33.664
G0 X-20.038 Y-33.057
; TYPE:WALL-OUTER
G1 Z0.3
G1 F6000 E150.6366
G1 F900 X-20.467 Y-33.212 E150.67358
G1 X-20.935 Y-32.649 E150.73293
G1 X-21.455 Y-32.104 E150.794
G1 X-21.813 Y-32.263 E150.82576
G1 X-21.782 Y-32.806 E150.86985
G1 X-21.673 Y-33.587 E150.93378
G1 X-21.454 Y-34.577 E151.01598
G1 X-22.49 Y-35.176 E151.113
G1 X-23.243 Y-34.486 E151.1958
G1 X-23.847 Y-34.016 E151.25785
G1 X-24.316 Y-33.708 E151.30334
G1 X-24.63 Y-33.936 E151.3348
G1 X-24.486 Y-34.461 E151.37893
G1 X-24.219 Y-35.199 E151.44256
G1 X-23.798 Y-36.125 E151.52503
G1 X-24.686 Y-36.926 E151.62198
G1 X-25.569 Y-36.407 E151.70501
G1 X-26.252 Y-36.075 E151.76658
G1 X-26.777 Y-35.87 E151.81227
G1 X-27.036 Y-36.158 E151.84367
G1 X-26.777 Y-36.657 E151.88925
G1 X-26.37 Y-37.312 E151.95177
G1 X-25.768 Y-38.126 E152.03385
G1 X-26.471 Y-39.095 E152.13091
G1 X-27.442 Y-38.77 E152.21392
G1 X-28.175 Y-38.589 E152.27513
G1 X-28.735 Y-38.496 E152.32115
G1 X-28.929 Y-38.832 E152.35261
G1 X-28.575 Y-39.264 E152.39789
G1 X-28.042 Y-39.819 E152.46027
G1 X-27.279 Y-40.493 E152.5428
G1 X-27.765 Y-41.587 E152.63986
G1 X-28.776 Y-41.473 E152.72234
G1 X-29.546 Y-41.447 E152.7848
G1 X-30.105 Y-41.473 E152.83017
G1 X-30.225 Y-41.841 E152.86155
G1 X-29.785 Y-42.192 E152.90718
G1 X-29.156 Y-42.619 E152.96881
G1 X-28.264 Y-43.124 E153.05191
G1 X-28.514 Y-44.293 E153.14883
G1 X-29.522 Y-44.391 E153.23093
G1 X-30.293 Y-44.528 E153.29442
G1 X-30.826 Y-44.667 E153.33908
G1 X-30.866 Y-45.054 E153.37062
G1 X-30.369 Y-45.303 E153.41568
G1 X-29.659 Y-45.592 E153.47783
G1 X-28.682 Y-45.901 E153.56091
G1 X-28.682 Y-47.097 E153.65787
G1 X-29.654 Y-47.404 E153.74051
G1 X-30.363 Y-47.692 E153.80255
G1 X-30.866 Y-47.945 E153.84819
G1 X-30.826 Y-48.33 E153.87957
G1 X-30.293 Y-48.469 E153.92423
G1 X-29.522 Y-48.607 E153.98773
G1 X-28.514 Y-48.705 E154.06984
G1 X-28.264 Y-49.874 E154.16675
G1 X-29.156 Y-50.379 E154.24985
G1 X-29.785 Y-50.805 E154.31144
G1 X-30.225 Y-51.157 E154.35712
G1 X-30.105 Y-51.525 E154.3885
G1 X-29.546 Y-51.551 E154.43387
G1 X-28.776 Y-51.525 E154.49633
G1 X-27.765 Y-51.411 E154.57881
G1 X-27.279 Y-52.503 E154.67572
G1 X-28.047 Y-53.185 E154.75899
G1 X-28.575 Y-53.734 E154.82074
G1 X-28.93 Y-54.166 E154.86607
G1 X-28.736 Y-54.502 E154.89752
G1 X-28.175 Y-54.409 E154.94363
G1 X-27.442 Y-54.228 E155.00484
G1 X-26.471 Y-53.903 E155.08785
G1 X-25.768 Y-54.87 E155.18477
G1 X-26.375 Y-55.694 E155.26774
G1 X-26.777 Y-56.341 E155.3295
G1 X-27.036 Y-56.84 E155.37508
G1 X-26.777 Y-57.128 E155.40648
G1 X-26.252 Y-56.923 E155.45217
G1 X-25.569 Y-56.591 E155.51374
G1 X-24.687 Y-56.072 E155.5967
G1 X-23.798 Y-56.872 E155.69366
G1 X-24.217 Y-57.794 E155.77577
G1 X-24.486 Y-58.537 E155.83983
G1 X-24.63 Y-59.061 E155.88389
G1 X-24.316 Y-59.29 E155.91539
G1 X-23.847 Y-58.982 E155.96088
G1 X-23.243 Y-58.511 E156.02298
G1 X-22.489 Y-57.823 E156.10573
G1 X-21.454 Y-58.421 E156.20264
G1 X-21.673 Y-59.413 E156.285
G1 X-21.782 Y-60.191 E156.34869
G1 X-21.813 Y-60.734 E156.39278
G1 X-21.458 Y-60.893 E156.42431
G1 X-21.071 Y-60.501 E156.46897
G1 X-20.571 Y-59.908 E156.53186
G1 X-19.978 Y-59.077 E156.61462
G1 X-18.84 Y-59.448 E156.71166
G1 X-18.849 Y-60.47 E156.79452
G1 X-18.794 Y-61.236 E156.85678
G1 X-18.71 Y-61.786 E156.90189
G1 X-18.33 Y-61.866 E156.93337
G1 X-18.03 Y-61.398 E156.97844
G1 X-17.666 Y-60.717 E157.04104
G1 X-17.26 Y-59.783 E157.1236
G1 X-16.07 Y-59.908 E157.22061
G1 X-15.867 Y-60.906 E157.30317
G1 X-15.652 Y-61.647 E157.36573
G1 X-15.456 Y-62.168 E157.41085
G1 X-15.068 Y-62.168 E157.44231
G1 X-14.872 Y-61.647 E157.48744
G1 X-14.657 Y-60.906 E157.54999
G1 X-14.454 Y-59.908 E157.63256
G1 X-13.264 Y-59.783 E157.72956
G1 X-12.858 Y-60.717 E157.81213
G1 X-12.494 Y-61.398 E157.87473
G1 X-12.194 Y-61.866 E157.9198
G1 X-11.814 Y-61.786 E157.95128
G1 X-11.73 Y-61.236 E157.99639
G1 X-11.675 Y-60.47 E158.05865
G1 X-11.684 Y-59.448 E158.14151
G1 X-10.546 Y-59.077 E158.23854
G1 X-9.953 Y-59.908 E158.32131
G1 X-9.453 Y-60.501 E158.38419
G1 X-9.066 Y-60.893 E158.42885
G1 X-8.711 Y-60.734 E158.46039
G1 X-8.742 Y-60.191 E158.50448
G1 X-8.851 Y-59.413 E158.56817
G1 X-9.07 Y-58.421 E158.65053
G1 X-8.035 Y-57.823 E158.74744
G1 X-7.281 Y-58.511 E158.83019
G1 X-6.674 Y-58.984 E158.89257
G1 X-6.209 Y-59.29 E158.9377
G1 X-5.894 Y-59.061 E158.96928
G1 X-6.038 Y-58.537 E159.01333
G1 X-6.307 Y-57.794 E159.07739
G1 X-6.726 Y-56.872 E159.1595
G1 X-5.837 Y-56.072 E159.25646
G1 X-4.955 Y-56.591 E159.33942
G1 X-4.272 Y-56.923 E159.40099
G1 X-3.747 Y-57.128 E159.44668
G1 X-3.488 Y-56.84 E159.47808
G1 X-3.744 Y-56.345 E159.52326
G1 X-4.149 Y-55.694 E159.58542
G1 X-4.756 Y-54.87 E159.66839
G1 X-4.053 Y-53.903 E159.76532
G1 X-3.082 Y-54.228 E159.84833
G1 X-2.349 Y-54.409 E159.90954
G1 X-1.788 Y-54.502 E159.95564
G1 X-1.594 Y-54.166 E159.9871
G1 X-1.949 Y-53.734 E160.03243
G1 X-2.477 Y-53.185 E160.09418
G1 X-3.245 Y-52.503 E160.17745
G1 X-2.759 Y-51.411 E160.27435
G1 X-1.748 Y-51.525 E160.35683
G1 X-0.978 Y-51.551 E160.41929
G1 X-0.42 Y-51.525 E160.46458
G1 X-0.3 Y-51.157 E160.49596
G1 X-0.739 Y-50.805 E160.54158
G1 X-1.368 Y-50.379 E160.60317
G1 X-2.26 Y-49.874 E160.68627
G1 X-2.01 Y-48.705 E160.78319
G1 X-1.002 Y-48.607 E160.86529
G1 X-0.232 Y-48.469 E160.92871
G1 X0.301 Y-48.33 E160.97337
G1 X0.341 Y-47.944 E161.00483
G1 X-0.161 Y-47.692 E161.05037
G1 X-0.87 Y-47.404 E161.11241
G1 X-1.842 Y-47.097 E161.19505
G1 X-1.842 Y-45.901 E161.29201
G1 X-0.865 Y-45.592 E161.37508
G1 X-0.155 Y-45.303 E161.43723
G1 X0.341 Y-45.054 E161.48222
G1 X0.301 Y-44.667 E161.51376
G1 X-0.231 Y-44.528 E161.55834
G1 X-1.002 Y-44.391 E161.62183
G1 X-2.01 Y-44.293 E161.70393
G1 X-2.26 Y-43.124 E161.80085
G1 X-1.368 Y-42.619 E161.88395
G1 X-0.739 Y-42.192 E161.94558
G1 X-0.3 Y-41.841 E161.99115
G1 X-0.42 Y-41.473 E162.02253
G1 X-0.978 Y-41.447 E162.06782
G1 X-1.748 Y-41.473 E162.13028
G1 X-2.759 Y-41.587 E162.21276
G1 X-3.245 Y-40.493 E162.30981
G1 X-2.482 Y-39.819 E162.39235
G1 X-1.949 Y-39.264 E162.45473
G1 X-1.595 Y-38.832 E162.50001
G1 X-1.789 Y-38.496 E162.53147
G1 X-2.349 Y-38.589 E162.57749
G1 X-3.082 Y-38.77 E162.6387
G1 X-4.053 Y-39.095 E162.72171
G1 X-4.756 Y-38.126 E162.81877
G1 X-4.154 Y-37.312 E162.90085
G1 X-3.744 Y-36.653 E162.96377
G1 X-3.488 Y-36.158 E163.00895
G1 X-3.747 Y-35.87 E163.04035
G1 X-4.272 Y-36.075 E163.08604
G1 X-4.955 Y-36.407 E163.14761
G1 X-5.838 Y-36.926 E163.23064
G1 X-6.726 Y-36.125 E163.3276
G1 X-6.305 Y-35.199 E163.41006
G1 X-6.038 Y-34.461 E163.47369
G1 X-5.894 Y-33.936 E163.51782
G1 X-6.209 Y-33.708 E163.54935
G1 X-6.674 Y-34.014 E163.59448
G1 X-7.281 Y-34.486 E163.65682
G1 X-8.034 Y-35.176 E163.73962
G1 X-9.07 Y-34.577 E163.83663
G1 X-8.851 Y-33.587 E163.91884
G1 X-8.742 Y-32.806 E163.98277
G1 X-8.711 Y-32.263 E164.02686
G1 X-9.068 Y-32.104 E164.05854
G1 X-9.34 Y-32.375 E164.08967
G1 X-9.74 Y-32.825 E164.13848
G1 X-10.251 Y-33.475 E164.20551
G1 X-10.688 Y-33.323 E164.24302
G1 X-10.688 Y-8.307 E166.27111
G1 X2.838 Y12.466 E168.28075
G1 X-5.244 Y17.132 E169.03733
G1 X-20.038 Y-8.49 E171.43594
G1 X-20.038 Y-33.057 E173.42763
G0 F12000 X-19.811 Y-33.664
G0 X-20.653 Y-33.979
G0 X-21.011 Y-33.569
G0 X-21.009 Y-33.577
; TYPE:WALL-INNER
G1 F900 X-20.793 Y-34.004 E173.46642
G0 F12000 X-20.676 Y-33.979
G1 F900 X-19.388 Y-33.514 E173.57744
G1 X-19.388 Y-8.664 E175.59207
G1 X-5.006 Y16.244 E177.92384
G1 X1.919 Y12.246 E178.57211
G1 X-11.338 Y-8.114 E180.5418
G1 X-11.338 Y-33.786 E182.62307
G1 X-10.026 Y-34.24 E182.73562
G0 F12000 X-9.852 Y-34.278
G1 F900 X-9.519 Y-33.595 E182.79722
G0 F12000 X-9.679 Y-34.317
G1 F900 X-9.807 Y-34.902 E182.84577
G1 X-7.947 Y-35.977 E183.01994
G0 F12000 X-7.731 Y-36.133
G1 F900 X-7.669 Y-36.049 E183.0284
G1 X-6.963 Y-35.076 E183.12586
G0 F12000 X-7.515 Y-36.289
G1 F900 X-5.919 Y-37.728 E183.30008
G0 F12000 X-5.74 Y-37.925
G1 F900 X-5.662 Y-37.856 E183.30852
G1 X-4.769 Y-37.051 E183.40599
G0 F12000 X-5.561 Y-38.123
G1 F900 X-4.299 Y-39.862 E183.58019
G0 F12000 X-4.165 Y-40.092
G1 F900 X-4.075 Y-40.04 E183.58862
G1 X-3.036 Y-39.44 E183.68589
G0 F12000 X-4.032 Y-40.322
G1 F900 X-3.16 Y-42.286 E183.8601
G0 F12000 X-3.077 Y-42.539
G1 F900 X-2.978 Y-42.507 E183.86853
G1 X-1.836 Y-42.137 E183.96586
G0 F12000 X-2.995 Y-42.793
G1 F900 X-2.547 Y-44.894 E184.14002
G0 F12000 X-2.519 Y-45.159
G1 F900 X-2.415 Y-45.149 E184.14849
G1 X-1.223 Y-45.023 E184.24566
G0 F12000 X-2.492 Y-45.425
G1 F900 X-2.492 Y-47.574 E184.41988
G0 F12000 X-2.519 Y-47.839
G1 F900 X-2.416 Y-47.85 E184.42828
G1 X-1.22 Y-47.975 E184.52577
G0 F12000 X-2.547 Y-48.104
G1 F900 X-2.995 Y-50.205 E184.69993
G0 F12000 X-3.077 Y-50.458
G1 F900 X-2.978 Y-50.49 E184.70837
G1 X-1.836 Y-50.861 E184.80571
G0 F12000 X-3.16 Y-50.712
G1 F900 X-4.032 Y-52.674 E184.97978
G0 F12000 X-4.165 Y-52.905
G1 F900 X-4.075 Y-52.957 E184.98821
G1 X-3.035 Y-53.558 E185.08559
G0 F12000 X-4.299 Y-53.136
G1 F900 X-5.561 Y-54.873 E185.25965
G0 F12000 X-5.739 Y-55.072
G1 F900 X-5.661 Y-55.142 E185.26815
G1 X-4.77 Y-55.946 E185.36544
G0 F12000 X-5.918 Y-55.271
G1 F900 X-7.515 Y-56.707 E185.53956
G0 F12000 X-7.731 Y-56.864
G1 F900 X-7.669 Y-56.95 E185.54815
G1 X-6.964 Y-57.92 E185.64537
G0 F12000 X-7.948 Y-57.022
G1 F900 X-9.807 Y-58.096 E185.81943
G0 F12000 X-10.05 Y-58.204
G1 F900 X-10.008 Y-58.299 E185.82785
G1 X-9.52 Y-59.395 E185.92511
G0 F12000 X-10.294 Y-58.312
G1 F900 X-12.338 Y-58.977 E186.09937
G0 F12000 X-12.598 Y-59.032
G1 F900 X-12.576 Y-59.133 E186.10775
G1 X-12.327 Y-60.309 E186.20521
G0 F12000 X-12.858 Y-59.087
G1 F900 X-14.995 Y-59.311 E186.3794
G0 F12000 X-15.262 Y-59.311
G1 F900 X-15.262 Y-59.414 E186.38775
G1 X-15.262 Y-60.619 E186.48545
G0 F12000 X-15.529 Y-59.311
G1 F900 X-17.666 Y-59.087 E186.65964
G0 F12000 X-17.926 Y-59.032
G1 F900 X-17.947 Y-59.133 E186.66801
G1 X-18.197 Y-60.309 E186.76548
G0 F12000 X-18.186 Y-58.977
G1 F900 X-20.23 Y-58.312 E186.93974
G0 F12000 X-20.473 Y-58.204
G1 F900 X-20.516 Y-58.299 E186.94819
G1 X-21.004 Y-59.395 E187.04546
G0 F12000 X-20.717 Y-58.096
G1 F900 X-22.576 Y-57.022 E187.21951
G0 F12000 X-22.792 Y-56.864
G1 F900 X-22.854 Y-56.949 E187.22804
G1 X-23.56 Y-57.92 E187.32537
G0 F12000 X-23.009 Y-56.707
G1 F900 X-24.606 Y-55.271 E187.49949
G0 F12000 X-24.784 Y-55.072
G1 F900 X-24.862 Y-55.142 E187.50798
G1 X-25.754 Y-55.946 E187.60534
G0 F12000 X-24.963 Y-54.873
G1 F900 X-26.225 Y-53.136 E187.7794
G0 F12000 X-26.358 Y-52.905
G1 F900 X-26.448 Y-52.957 E187.78783
G1 X-27.489 Y-53.558 E187.88528
G0 F12000 X-26.492 Y-52.674
G1 F900 X-27.364 Y-50.712 E188.05935
G0 F12000 X-27.446 Y-50.458
G1 F900 X-27.546 Y-50.49 E188.06786
G1 X-28.688 Y-50.861 E188.16521
G0 F12000 X-27.529 Y-50.205
G1 F900 X-27.977 Y-48.104 E188.33937
G0 F12000 X-28.004 Y-47.839
G1 F900 X-28.108 Y-47.849 E188.34784
G1 X-29.304 Y-47.975 E188.44533
G0 F12000 X-28.032 Y-47.574
G1 F900 X-28.032 Y-45.425 E188.61956
G0 F12000 X-28.004 Y-45.159
G1 F900 X-28.108 Y-45.148 E188.62804
G1 X-29.301 Y-45.023 E188.72528
G0 F12000 X-27.977 Y-44.894
G1 F900 X-27.529 Y-42.793 E188.89944
G0 F12000 X-27.446 Y-42.539
G1 F900 X-27.545 Y-42.508 E188.90785
G1 X-28.688 Y-42.137 E189.00528
G0 F12000 X-27.364 Y-42.286
G1 F900 X-26.492 Y-40.322 E189.17949
G0 F12000 X-26.358 Y-40.092
G1 F900 X-26.448 Y-40.04 E189.18792
G1 X-27.488 Y-39.44 E189.28526
G0 F12000 X-26.225 Y-39.862
G1 F900 X-24.963 Y-38.123 E189.45945
G0 F12000 X-24.784 Y-37.925
G1 F900 X-24.861 Y-37.856 E189.46784
G1 X-25.755 Y-37.051 E189.56537
G0 F12000 X-24.605 Y-37.728
G1 F900 X-23.009 Y-36.289 E189.73959
G0 F12000 X-22.793 Y-36.133
G1 F900 X-22.854 Y-36.049 E189.748
G1 X-23.561 Y-35.076 E189.84551
G0 F12000 X-22.577 Y-35.977
G1 F900 X-20.717 Y-34.902 E190.01968
G1 X-20.91 Y-34.03 E190.09208
G0 F12000 X-20.145 Y-34.478
G1 F900 X-19.98 Y-35.227 E190.15426
G1 X-22.431 Y-36.644 E190.38378
G1 X-24.325 Y-38.351 E190.59049
G1 X-25.821 Y-40.412 E190.79696
G1 X-26.852 Y-42.736 E191.00308
G1 X-27.382 Y-45.218 E191.20883
G1 X-27.382 Y-47.78 E191.41654
G1 X-26.852 Y-50.266 E191.62261
G1 X-25.817 Y-52.592 E191.82901
G1 X-24.317 Y-54.656 E192.03586
G1 X-22.422 Y-56.36 E192.24247
G1 X-20.224 Y-57.63 E192.44827
G1 X-17.797 Y-58.42 E192.6552
G1 X-15.262 Y-58.685 E192.86183
G1 X-12.727 Y-58.42 E193.06847
G1 X-10.3 Y-57.63 E193.27539
G1 X-8.102 Y-56.36 E193.48119
G1 X-6.207 Y-54.656 E193.6878
G1 X-4.707 Y-52.592 E193.89465
G1 X-3.672 Y-50.266 E194.10105
G1 X-3.142 Y-47.78 E194.30713
G1 X-3.142 Y-45.218 E194.51483
G1 X-3.672 Y-42.736 E194.72059
G1 X-4.703 Y-40.412 E194.92671
G1 X-6.199 Y-38.351 E195.13317
G1 X-8.093 Y-36.644 E195.33988
G1 X-10.544 Y-35.227 E195.56941
G1 X-10.446 Y-34.783 E195.60627
G1 X-11.988 Y-34.249 E195.73856
G1 X-11.988 Y-7.921 E197.87302
G1 X0.999 Y12.026 E199.8027
G1 X-4.768 Y15.356 E200.34259
G1 X-18.738 Y-8.838 E202.60753
G1 X-18.738 Y-33.97 E204.64502
G1 X-20.145 Y-34.478 E204.7663
G1 F6000 E202.2663
G0 F900 X-18.738 Y-33.97
G0 X-18.738 Y-25.465
G1 Z0.8
G0 F12000 X-15.346 Y-43.027
G0 X-15.262 Y-43.671
; TYPE:WALL-OUTER
G1 Z0.3
G1 F6000 E204.7663
G1 F900 X-14.53 Y-43.767 E204.82615
G1 X-13.848 Y-44.05 E204.88601
G1 X-13.262 Y-44.499 E204.94586
G1 X-12.813 Y-45.085 E205.00571
G1 X-12.53 Y-45.767 E205.06557
G1 X-12.434 Y-46.499 E205.12543
G1 X-12.53 Y-47.231 E205.18528
G1 X-12.813 Y-47.913 E205.24514
G1 X-13.262 Y-48.499 E205.30499
G1 X-13.848 Y-48.948 E205.36484
G1 X-14.53 Y-49.231 E205.4247
G1 X-15.262 Y-49.327 E205.48456
G1 X-15.994 Y-49.231 E205.54441
G1 X-16.676 Y-48.948 E205.60427
G1 X-17.262 Y-48.499 E205.66412
G1 X-17.711 Y-47.913 E205.72397
G1 X-17.994 Y-47.231 E205.78383
G1 X-18.09 Y-46.499 E205.84369
G1 X-17.994 Y-45.767 E205.90354
G1 X-17.711 Y-45.085 E205.9634
G1 X-17.262 Y-44.499 E206.02325
G1 X-16.676 Y-44.05 E206.0831
G1 X-15.994 Y-43.767 E206.14296
G1 X-15.262 Y-43.671 E206.20282
G0 F12000 X-15.346 Y-43.027
G0 X-15.262 Y-43.016
; TYPE:WALL-INNER
G1 F900 X-14.36 Y-43.134 E206.27657
G1 X-13.52 Y-43.482 E206.35028
G1 X-12.799 Y-44.036 E206.42399
G1 X-12.245 Y-44.757 E206.49771
G1 X-11.897 Y-45.597 E206.57142
G1 X-11.779 Y-46.499 E206.64517
G1 X-11.897 Y-47.401 E206.71892
G1 X-12.245 Y-48.241 E206.79263
G1 X-12.799 Y-48.962 E206.86635
G1 X-13.52 Y-49.516 E206.94007
G1 X-14.36 Y-49.864 E207.01378
G1 X-15.262 Y-49.982 E207.08753
G1 X-16.164 Y-49.864 E207.16128
G1 X-17.004 Y-49.516 E207.23499
G1 X-17.725 Y-48.962 E207.30871
G1 X-18.279 Y-48.241 E207.38242
G1 X-18.627 Y-47.401 E207.45613
G1 X-18.745 Y-46.499 E207.52988
G1 X-18.627 Y-45.597 E207.60363
G1 X-18.279 Y-44.757 E207.67735
G1 X-17.725 Y-44.036 E207.75106
G1 X-17.004 Y-43.482 E207.82478
G1 X-16.164 Y-43.134 E207.89849
G1 X-15.262 Y-43.016 E207.97224
G0 F12000 X-15.262 Y-42.36
G1 F900 X-14.191 Y-42.501 E208.05982
G1 X-13.193 Y-42.915 E208.14741
G1 X-12.335 Y-43.572 E208.23502
G1 X-11.678 Y-44.43 E208.32263
G1 X-11.264 Y-45.428 E208.41023
G1 X-11.123 Y-46.499 E208.4978
G1 X-11.264 Y-47.57 E208.58538
G1 X-11.678 Y-48.568 E208.67298
G1 X-12.335 Y-49.426 E208.76059
G1 X-13.193 Y-50.083 E208.8482
G1 X-14.191 Y-50.497 E208.93579
G1 X-15.262 Y-50.638 E209.02337
G1 X-16.333 Y-50.497 E209.11094
G1 X-17.331 Y-50.083 E209.19854
G1 X-18.189 Y-49.426 E209.28615
G1 X-18.846 Y-48.568 E209.37376
G1 X-19.26 Y-47.57 E209.46135
G1 X-19.401 Y-46.499 E209.54893
G1 X-19.26 Y-45.428 E209.63651
G1 X-18.846 Y-44.43 E209.7241
G1 X-18.189 Y-43.572 E209.81171
G1 X-17.331 Y-42.915 E209.89932
G1 X-16.333 Y-42.501 E209.98692
G1 X-15.262 Y-42.36 E210.0745
G1 F6000 E207.5745
G0 F900 X-16.333 Y-42.501
G0 X-17.331 Y-42.915
G0 X-18.189 Y-43.572
G0 X-18.846 Y-44.43
G0 X-19.26 Y-45.428
G0 X-19.401 Y-46.499
G0 X-19.26 Y-47.57
G0 X-18.846 Y-48.568
G0 X-18.189 Y-49.426
G0 X-17.967 Y-49.596
G1 Z0.8
G0 F12000 X-9.519 Y-33.595
G0 X-9.328 Y-33.275
; TYPE:FILL
G1 Z0.3
G1 F6000 E210.0745
G1 F900 X-9.112 Y-32.848 E210.10959
G1 X-9.09 Y-32.663 E210.11981
G1 X-9.273 Y-32.858 E210.14506
G1 X-9.116 Y-32.615 E210.15167
G0 F12000 X-9.519 Y-33.595
G0 X-9.807 Y-34.902
G0 X-7.947 Y-35.977
G0 X-6.963 Y-35.076
G0 X-6.365 Y-34.199
G1 F900 X-6.411 Y-34.299 E210.15375
G0 F12000 X-6.314 Y-34.235
G1 F900 X-6.397 Y-34.314 E210.156
G1 X-6.517 Y-34.598 E210.16203
G1 X-6.772 Y-34.851 E210.18668
G0 F12000 X-6.963 Y-35.076
G0 X-7.515 Y-36.289
G0 X-5.919 Y-37.728
G0 X-4.769 Y-37.051
G0 X-4.613 Y-36.909
G1 F900 X-4.498 Y-36.808 E210.18975
G1 X-4.078 Y-36.43 E210.2011
G0 F12000 X-4.054 Y-36.42
G1 F900 X-3.98 Y-36.339 E210.21014
G1 X-4.064 Y-36.402 E210.21208
G0 F12000 X-4.769 Y-37.051
G0 X-5.561 Y-38.123
G0 X-4.299 Y-39.862
G0 X-3.036 Y-39.44
G0 X-2.127 Y-38.88
G1 F900 X-2.205 Y-38.96 E210.22105
G1 X-2.098 Y-38.933 E210.22311
G0 F12000 X-2.228 Y-38.973
G1 F900 X-2.721 Y-39.258 E210.23447
G1 X-2.855 Y-39.335 E210.2439
G0 F12000 X-3.036 Y-39.44
G0 X-4.032 Y-40.322
G0 X-3.16 Y-42.286
G0 X-1.836 Y-42.137
G0 X-1.633 Y-42.07
G1 F900 X-1.487 Y-42.024 E210.24699
G1 X-0.95 Y-41.85 E210.25839
G0 F12000 X-0.926 Y-41.852
G1 F900 X-0.823 Y-41.806 E210.26778
G1 X-0.924 Y-41.829 E210.26968
G0 F12000 X-1.836 Y-42.137
G0 X-2.995 Y-42.793
G0 X-2.547 Y-44.894
G0 X-1.223 Y-45.023
G0 X-0.171 Y-44.88
G1 F900 X-0.275 Y-44.913 E210.27179
G0 F12000 X-0.162 Y-44.943
G1 F900 X-0.278 Y-44.934 E210.27408
G1 X-0.571 Y-45.036 E210.28019
G1 X-0.924 Y-45.014 E210.30437
G0 F12000 X-1.223 Y-45.023
G0 X-2.492 Y-45.425
G0 X-2.492 Y-47.574
G0 X-1.22 Y-47.975
G0 X-0.936 Y-48.027
G1 F900 X-0.586 Y-48.123 E210.31129
G1 X-0.275 Y-48.084 E210.31728
G1 X-0.167 Y-48.116 E210.31942
G0 F12000 X-0.162 Y-48.055
G1 F900 X-0.27 Y-48.064 E210.32147
G0 F12000 X-1.22 Y-47.975
G0 X-2.547 Y-48.104
G0 X-2.995 Y-50.205
G0 X-1.836 Y-50.861
G0 X-0.811 Y-51.163
G1 F900 X-0.93 Y-51.145 E210.32387
G0 F12000 X-0.836 Y-51.22
G1 F900 X-0.923 Y-51.168 E210.32573
G1 X-1.244 Y-51.135 E210.33164
G1 X-1.569 Y-50.971 E210.35684
G0 F12000 X-1.836 Y-50.861
G0 X-3.16 Y-50.712
G0 X-4.032 Y-52.674
G0 X-3.035 Y-53.558
G0 X-2.858 Y-53.659
G1 F900 X-2.725 Y-53.738 E210.35987
G1 X-2.225 Y-54.028 E210.37119
G0 F12000 X-2.21 Y-54.046
G1 F900 X-2.11 Y-54.09 E210.3802
G1 X-2.193 Y-54.033 E210.38199
G0 F12000 X-3.035 Y-53.558
G0 X-4.299 Y-53.136
G0 X-5.561 Y-54.873
G0 X-4.77 Y-55.946
G0 X-3.958 Y-56.637
G1 F900 X-4.054 Y-56.577 E210.38415
G0 F12000 X-4.001 Y-56.68
G1 F900 X-4.063 Y-56.596 E210.38609
G1 X-4.343 Y-56.439 E210.39206
G1 X-4.572 Y-56.154 E210.41737
G0 F12000 X-4.77 Y-55.946
G0 X-5.918 Y-55.271
G0 X-7.515 Y-56.707
G0 X-6.964 Y-57.92
G0 X-6.814 Y-58.163
G1 F900 X-6.648 Y-58.49 E210.42414
G1 X-6.406 Y-58.704 E210.4301
G1 X-6.366 Y-58.797 E210.43197
G0 F12000 X-6.313 Y-58.766
G1 F900 X-6.397 Y-58.683 E210.43427
G0 F12000 X-6.964 Y-57.92
G0 X-7.948 Y-57.022
G0 X-9.807 Y-58.096
G0 X-9.52 Y-59.395
G0 X-9.058 Y-60.356
G1 F900 X-9.121 Y-60.265 E210.43636
G0 F12000 X-9.115 Y-60.38
G1 F900 X-9.139 Y-60.274 E210.43844
G1 X-9.33 Y-60.02 E210.4445
G1 X-9.421 Y-59.671 E210.46933
G0 F12000 X-9.52 Y-59.395
G0 X-10.294 Y-58.312
G0 X-12.338 Y-58.977
G0 X-12.327 Y-60.309
G0 X-12.289 Y-60.594
G1 F900 X-12.27 Y-60.956 E210.47616
G1 X-12.138 Y-61.244 E210.48213
G1 X-12.138 Y-61.35 E210.48412
G0 F12000 X-12.076 Y-61.341
G1 F900 X-12.12 Y-61.232 E210.48644
G0 F12000 X-12.327 Y-60.309
G0 X-12.858 Y-59.087
G0 X-14.995 Y-59.311
G0 X-15.262 Y-60.619
G0 X-15.231 Y-61.68
G1 F900 X-15.252 Y-61.57 E210.48858
G0 F12000 X-15.293 Y-61.679
G1 F900 X-15.272 Y-61.571 E210.49066
G1 X-15.342 Y-61.265 E210.49662
G1 X-15.284 Y-60.911 E210.52122
G0 F12000 X-15.262 Y-60.987
G1 F900 X-15.262 Y-60.834 E210.53048
G0 F12000 X-15.262 Y-60.619
G0 X-15.529 Y-59.311
G0 X-17.666 Y-59.087
G0 X-18.197 Y-60.309
G0 X-18.241 Y-60.518
G1 F900 X-18.275 Y-60.668 E210.53364
G1 X-18.391 Y-61.211 E210.54507
G0 F12000 X-18.404 Y-61.233
G1 F900 X-18.417 Y-61.346 E210.55453
G1 X-18.386 Y-61.244 E210.55655
G0 F12000 X-18.197 Y-60.309
G0 X-18.186 Y-58.977
G0 X-20.23 Y-58.312
G0 X-21.004 Y-59.395
G0 X-21.409 Y-60.381
G1 F900 X-21.384 Y-60.274 E210.55864
G0 F12000 X-21.465 Y-60.356
G1 F900 X-21.403 Y-60.266 E210.56071
G1 X-21.341 Y-59.955 E210.56672
G1 X-21.142 Y-59.652 E210.59168
G1 F6000 E208.09168
G0 F900 X-21.341 Y-59.955
G0 X-21.403 Y-60.266
G0 X-21.465 Y-60.356
G0 X-21.384 Y-60.274
G0 X-21.409 Y-60.381
G0 X-21.004 Y-59.395
G0 X-20.23 Y-58.312
G0 X-18.186 Y-58.977
G0 X-18.197 Y-60.309
G0 X-18.386 Y-61.244
G0 X-18.417 Y-61.346
G0 X-18.404 Y-61.233
G0 X-18.391 Y-61.211
G0 X-18.275 Y-60.668
G0 X-18.241 Y-60.518
G0 X-18.197 Y-60.309
G0 X-17.802 Y-59.399
G1 Z0.8
G0 F12000 X-21.004 Y-59.395
G0 X-20.717 Y-58.096
G0 X-22.576 Y-57.022
G0 X-23.56 Y-57.92
G0 X-23.684 Y-58.093
G1 Z0.3
G1 F6000 E210.59168
G1 F900 X-23.777 Y-58.216 E210.59481
G1 X-24.108 Y-58.671 E210.60625
G0 F12000 X-24.126 Y-58.683
G1 F900 X-24.184 Y-58.781 E210.61581
G1 X-24.117 Y-58.704 E210.61768
G0 F12000 X-23.56 Y-57.92
G0 X-23.009 Y-56.707
G0 X-24.606 Y-55.271
G0 X-25.754 Y-55.946
G0 X-26.524 Y-56.68
G1 F900 X-26.465 Y-56.586 E210.62635
G1 X-26.565 Y-56.636 E210.62848
G0 F12000 X-26.446 Y-56.568
G1 F900 X-26.026 Y-56.19 E210.63983
G1 X-25.911 Y-56.088 E210.64919
G0 F12000 X-25.754 Y-55.946
G0 X-24.963 Y-54.873
G0 X-26.225 Y-53.136
G0 X-27.489 Y-53.558
G0 X-27.666 Y-53.659
G1 F900 X-27.799 Y-53.739 E210.65222
G1 X-28.299 Y-54.028 E210.66353
G0 F12000 X-28.313 Y-54.045
G1 F900 X-28.413 Y-54.091 E210.67277
G1 X-28.332 Y-54.034 E210.67454
G0 F12000 X-27.489 Y-53.558
G0 X-26.492 Y-52.674
G0 X-27.364 Y-50.712
G0 X-28.688 Y-50.861
G0 X-29.692 Y-51.219
G1 F900 X-29.6 Y-51.156 E210.68308
G1 X-29.713 Y-51.162 E210.68524
G0 F12000 X-29.575 Y-51.148
G1 F900 X-29.039 Y-50.973 E210.69656
G1 X-28.893 Y-50.929 E210.70582
G0 F12000 X-28.688 Y-50.861
G0 X-27.529 Y-50.205
G0 X-27.977 Y-48.104
G0 X-29.304 Y-47.975
G0 X-29.593 Y-47.982
G1 F900 X-29.954 Y-47.961 E210.71263
G1 X-30.254 Y-48.064 E210.71861
G1 X-30.362 Y-48.054 E210.72065
G0 F12000 X-30.357 Y-48.115
G1 F900 X-30.25 Y-48.083 E210.72277
G0 F12000 X-29.304 Y-47.975
G0 X-28.032 Y-47.574
G0 X-28.032 Y-45.425
G0 X-29.301 Y-45.023
G0 X-30.363 Y-44.942
G1 F900 X-30.245 Y-44.934 E210.7251
G0 F12000 X-30.353 Y-44.88
G1 F900 X-30.251 Y-44.913 E210.72713
G1 X-29.936 Y-44.877 E210.73314
G1 X-29.588 Y-44.971 E210.75796
G0 F12000 X-29.301 Y-45.023
G0 X-27.977 Y-44.894
G0 X-27.529 Y-42.793
G0 X-28.688 Y-42.137
G0 X-28.955 Y-42.026
G1 F900 X-29.278 Y-41.86 E210.76462
G1 X-29.6 Y-41.829 E210.77055
G1 X-29.689 Y-41.778 E210.77243
G0 F12000 X-29.712 Y-41.834
G1 F900 X-29.597 Y-41.851 E210.77466
G0 F12000 X-28.688 Y-42.137
G0 X-27.364 Y-42.286
G0 X-26.492 Y-40.322
G0 X-27.488 Y-39.44
G0 X-28.425 Y-38.933
G1 F900 X-28.318 Y-38.96 E210.78336
G1 X-28.395 Y-38.881 E210.78542
G0 F12000 X-28.295 Y-38.973
G1 F900 X-27.802 Y-39.258 E210.79679
G1 X-27.669 Y-39.335 E210.80612
G0 F12000 X-27.488 Y-39.44
G0 X-26.225 Y-39.862
G0 X-24.963 Y-38.123
G0 X-25.755 Y-37.051
G0 X-25.952 Y-36.843
G1 F900 X-26.181 Y-36.558 E210.81292
G1 X-26.46 Y-36.402 E210.81886
G1 X-26.523 Y-36.318 E210.82081
G0 F12000 X-26.566 Y-36.361
G1 F900 X-26.47 Y-36.421 E210.82296
G0 F12000 X-25.755 Y-37.051
G0 X-24.605 Y-37.728
G0 X-23.009 Y-36.289
G0 X-23.561 Y-35.076
G0 X-24.21 Y-34.235
G1 F900 X-24.126 Y-34.314 E210.82521
G0 F12000 X-24.158 Y-34.2
G1 F900 X-24.113 Y-34.298 E210.82727
G1 X-23.876 Y-34.507 E210.8333
G1 X-23.717 Y-34.824 E210.85763
G0 F12000 X-23.561 Y-35.076
G0 X-22.577 Y-35.977
G0 X-20.717 Y-34.902
G0 X-21.011 Y-33.569
G0 X-21.392 Y-32.8
G1 F900 X-21.463 Y-32.666 E210.86211
G0 F12000 X-21.408 Y-32.615
G1 F900 X-21.31 Y-32.833 E210.86757
G1 X-21.182 Y-33.044 E210.87705
G0 F12000 X-21.011 Y-33.569
G0 X-20.653 Y-33.979
G0 X-19.597 Y-35.1
; TYPE:BOTTOM-FILL
G1 F900 X-10.924 Y-35.1 E211.58018
G0 F12000 X-10.44 Y-35.75
G1 F900 X-20.084 Y-35.75 E212.36204
G0 F12000 X-21.208 Y-36.4
G1 F900 X-9.315 Y-36.4 E213.32622
G0 F12000 X-8.239 Y-37.05
G1 F900 X-22.283 Y-37.05 E214.46479
G0 F12000 X-23.004 Y-37.7
G1 F900 X-7.518 Y-37.7 E215.72026
G0 F12000 X-6.797 Y-38.35
G1 F900 X-23.725 Y-38.35 E217.09264
G0 F12000 X-24.301 Y-39
G1 F900 X-6.221 Y-39 E218.55842
G0 F12000 X-5.749 Y-39.65
G1 F900 X-24.773 Y-39.65 E220.10072
G0 F12000 X-25.245 Y-40.3
G1 F900 X-5.277 Y-40.3 E221.71956
G0 F12000 X-4.9 Y-40.95
G1 F900 X-25.622 Y-40.95 E223.39953
G0 F12000 X-25.91 Y-41.6
G1 F900 X-4.612 Y-41.6 E225.12619
G0 F12000 X-4.324 Y-42.25
G1 F900 X-13.752 Y-42.25 E225.89053
G0 F12000 X-12.554 Y-42.9
G1 F900 X-4.045 Y-42.9 E226.58037
G0 F12000 X-3.906 Y-43.55
G1 F900 X-11.847 Y-43.55 E227.22416
G0 F12000 X-11.349 Y-44.2
G1 F900 X-3.768 Y-44.2 E227.83876
G0 F12000 X-3.629 Y-44.85
G1 F900 X-11.07 Y-44.85 E228.44202
G0 F12000 X-10.851 Y-45.5
G1 F900 X-3.541 Y-45.5 E229.03465
G0 F12000 X-3.541 Y-46.15
G1 F900 X-10.764 Y-46.15 E229.62023
G0 F12000 X-10.758 Y-46.8
G1 F900 X-3.541 Y-46.8 E230.20532
G0 F12000 X-3.541 Y-47.45
G1 F900 X-10.844 Y-47.45 E230.79739
G0 F12000 X-11.05 Y-48.1
G1 F900 X-3.619 Y-48.1 E231.39983
G0 F12000 X-3.757 Y-48.75
G1 F900 X-11.319 Y-48.75 E232.0129
G0 F12000 X-11.811 Y-49.4
G1 F900 X-3.896 Y-49.4 E232.65458
G0 F12000 X-4.034 Y-50.05
G1 F900 X-12.491 Y-50.05 E233.3402
G0 F12000 X-13.636 Y-50.7
G1 F900 X-4.302 Y-50.7 E234.09692
G0 F12000 X-4.591 Y-51.35
G1 F900 X-25.931 Y-51.35 E235.82699
G0 F12000 X-26.22 Y-50.7
G1 F900 X-16.886 Y-50.7 E236.58371
G0 F12000 X-18.031 Y-50.05
G1 F900 X-26.488 Y-50.05 E237.26933
G0 F12000 X-26.626 Y-49.4
G1 F900 X-18.711 Y-49.4 E237.91101
G0 F12000 X-19.203 Y-48.75
G1 F900 X-26.765 Y-48.75 E238.52408
G0 F12000 X-26.903 Y-48.1
G1 F900 X-19.472 Y-48.1 E239.12652
G0 F12000 X-19.678 Y-47.45
G1 F900 X-26.981 Y-47.45 E239.71859
G0 F12000 X-26.981 Y-46.8
G1 F900 X-19.764 Y-46.8 E240.30368
G0 F12000 X-19.758 Y-46.15
G1 F900 X-26.981 Y-46.15 E240.88926
G0 F12000 X-26.981 Y-45.5
G1 F900 X-19.671 Y-45.5 E241.48189
G0 F12000 X-19.452 Y-44.85
G1 F900 X-26.893 Y-44.85 E242.08515
G0 F12000 X-26.754 Y-44.2
G1 F900 X-19.173 Y-44.2 E242.69975
G0 F12000 X-18.675 Y-43.55
G1 F900 X-26.616 Y-43.55 E243.34354
G0 F12000 X-26.477 Y-42.9
G1 F900 X-17.968 Y-42.9 E244.03338
G0 F12000 X-16.77 Y-42.25
G1 F900 X-26.198 Y-42.25 E244.79772
G1 F6000 E242.29772
G0 F900 X-16.77 Y-42.25
G0 X-17.273 Y-42.522
G1 Z0.8
G0 F12000 X-25.642 Y-52
G1 Z0.3
G1 F6000 E244.79772
G1 F900 X-4.88 Y-52 E246.48093
G0 F12000 X-5.242 Y-52.65
G1 F900 X-25.28 Y-52.65 E248.10544
G0 F12000 X-24.807 Y-53.3
G1 F900 X-5.715 Y-53.3 E249.65326
G0 F12000 X-6.187 Y-53.95
G1 F900 X-24.335 Y-53.95 E251.12455
G0 F12000 X-23.78 Y-54.6
G1 F900 X-6.742 Y-54.6 E252.50584
G0 F12000 X-7.465 Y-55.25
G1 F900 X-23.057 Y-55.25 E253.76991
G0 F12000 X-22.334 Y-55.9
G1 F900 X-8.188 Y-55.9 E254.91675
G0 F12000 X-9.23 Y-56.55
G1 F900 X-21.292 Y-56.55 E255.89464
G0 F12000 X-20.167 Y-57.2
G1 F900 X-10.355 Y-57.2 E256.69011
G0 F12000 X-12.267 Y-57.85
G1 F900 X-18.255 Y-57.85 E257.17557
G1 F6000 E254.67557
G0 F900 X-12.267 Y-57.85
G0 X-10.355 Y-57.2
G0 X-12.348 Y-57.2
G1 Z0.8
G0 F12000 X-18.745 Y-46.499
G0 X-18.889 Y-34.45
G1 Z0.3
G1 F6000 E257.17557
G1 F900 X-12.387 Y-34.45 E257.7027
G0 F12000 X-12.387 Y-33.8
G1 F900 X-18.337 Y-33.8 E258.18507
G0 F12000 X-18.337 Y-33.15
G1 F900 X-12.387 Y-33.15 E258.66745
G0 F12000 X-12.387 Y-32.5
G1 F900 X-18.337 Y-32.5 E259.14982
G0 F12000 X-18.337 Y-31.85
G1 F900 X-12.387 Y-31.85 E259.6322
G0 F12000 X-12.387 Y-31.2
G1 F900 X-18.337 Y-31.2 E260.11457
G0 F12000 X-18.337 Y-30.55
G1 F900 X-12.387 Y-30.55 E260.59695
G0 F12000 X-12.387 Y-29.9
G1 F900 X-18.337 Y-29.9 E261.07933
G0 F12000 X-18.337 Y-29.25
G1 F900 X-12.387 Y-29.25 E261.5617
G0 F12000 X-12.387 Y-28.6
G1 F900 X-18.337 Y-28.6 E262.04408
G0 F12000 X-18.337 Y-27.95
G1 F900 X-12.387 Y-27.95 E262.52645
G0 F12000 X-12.387 Y-27.3
G1 F900 X-18.337 Y-27.3 E263.00883
G0 F12000 X-18.337 Y-26.65
G1 F900 X-12.387 Y-26.65 E263.49121
G0 F12000 X-12.387 Y-26
G1 F900 X-18.337 Y-26 E263.97358
G0 F12000 X-18.337 Y-25.35
G1 F900 X-12.387 Y-25.35 E264.45596
G0 F12000 X-12.387 Y-24.7
G1 F900 X-18.337 Y-24.7 E264.93833
G0 F12000 X-18.337 Y-24.05
G1 F900 X-12.387 Y-24.05 E265.42071
G0 F12000 X-12.387 Y-23.4
G1 F900 X-18.337 Y-23.4 E265.90309
G0 F12000 X-18.337 Y-22.75
G1 F900 X-12.387 Y-22.75 E266.38546
G0 F12000 X-12.387 Y-22.1
G1 F900 X-18.337 Y-22.1 E266.86784
G0 F12000 X-18.338 Y-21.45
G1 F900 X-12.387 Y-21.45 E267.35029
G0 F12000 X-12.388 Y-20.8
G1 F900 X-18.338 Y-20.8 E267.83267
G0 F12000 X-18.338 Y-20.15
G1 F900 X-12.388 Y-20.15 E268.31505
G0 F12000 X-12.388 Y-19.5
G1 F900 X-18.338 Y-19.5 E268.79742
G0 F12000 X-18.338 Y-18.85
G1 F900 X-12.388 Y-18.85 E269.2798
G0 F12000 X-12.388 Y-18.2
G1 F900 X-18.338 Y-18.2 E269.76217
G0 F12000 X-18.338 Y-17.55
G1 F900 X-12.388 Y-17.55 E270.24455
G0 F12000 X-12.388 Y-16.9
G1 F900 X-18.338 Y-16.9 E270.72693
G0 F12000 X-18.338 Y-16.249
G1 F900 X-12.388 Y-16.25 E271.2093
G0 F12000 X-12.388 Y-15.6
G1 F900 X-18.338 Y-15.599 E271.69168
G0 F12000 X-18.338 Y-14.949
G1 F900 X-12.388 Y-14.95 E272.17405
G0 F12000 X-12.388 Y-14.3
G1 F900 X-18.338 Y-14.299 E272.65643
G0 F12000 X-18.338 Y-13.649
G1 F900 X-12.388 Y-13.65 E273.1388
G0 F12000 X-12.388 Y-13
G1 F900 X-18.338 Y-12.999 E273.62118
G0 F12000 X-18.338 Y-12.349
G1 F900 X-12.388 Y-12.35 E274.10356
G0 F12000 X-12.388 Y-11.7
G1 F900 X-18.338 Y-11.699 E274.58593
G0 F12000 X-18.338 Y-11.049
G1 F900 X-12.388 Y-11.05 E275.06831
G0 F12000 X-12.388 Y-10.4
G1 F900 X-18.338 Y-10.399 E275.55068
G0 F12000 X-18.338 Y-9.749
G1 F900 X-12.388 Y-9.75 E276.03306
G0 F12000 X-12.388 Y-9.1
G1 F900 X-18.338 Y-9.099 E276.51544
G0 F12000 X-18.052 Y-8.449
G1 F900 X-12.388 Y-8.45 E276.97463
G0 F12000 X-12.386 Y-7.799
G1 F900 X-17.677 Y-7.799 E277.40358
G0 F12000 X-17.302 Y-7.149
G1 F900 X-11.963 Y-7.149 E277.83642
G0 F12000 X-11.54 Y-6.499
G1 F900 X-16.926 Y-6.499 E278.27307
G0 F12000 X-16.551 Y-5.849
G1 F900 X-11.117 Y-5.849 E278.71361
G0 F12000 X-10.694 Y-5.199
G1 F900 X-16.176 Y-5.199 E279.15805
G0 F12000 X-15.8 Y-4.549
G1 F900 X-10.27 Y-4.549 E279.60637
G0 F12000 X-9.847 Y-3.899
G1 F900 X-15.425 Y-3.899 E280.05859
G0 F12000 X-15.05 Y-3.249
G1 F900 X-9.424 Y-3.249 E280.5147
G0 F12000 X-9.001 Y-2.599
G1 F900 X-14.674 Y-2.599 E280.97462
G0 F12000 X-14.299 Y-1.949
G1 F900 X-8.578 Y-1.949 E281.43843
G0 F12000 X-8.155 Y-1.299
G1 F900 X-13.923 Y-1.299 E281.90605
G0 F12000 X-13.548 Y-0.649
G1 F900 X-7.732 Y-0.649 E282.37756
G0 F12000 X-7.309 Y0
G1 F900 X-13.173 Y0 E282.85296
G0 F12000 X-12.797 Y0.65
G1 F900 X-6.885 Y0.65 E283.33226
G0 F12000 X-6.462 Y1.3
G1 F900 X-12.422 Y1.3 E283.81545
G0 F12000 X-12.047 Y1.95
G1 F900 X-6.039 Y1.95 E284.30252
G0 F12000 X-5.616 Y2.6
G1 F900 X-11.671 Y2.6 E284.79341
G0 F12000 X-11.296 Y3.25
G1 F900 X-5.193 Y3.25 E285.28819
G0 F12000 X-4.77 Y3.9
G1 F900 X-10.921 Y3.9 E285.78686
G0 F12000 X-10.545 Y4.55
G1 F900 X-4.347 Y4.55 E286.28934
G0 F12000 X-3.923 Y5.2
G1 F900 X-10.17 Y5.2 E286.7958
G0 F12000 X-9.795 Y5.85
G1 F900 X-3.499 Y5.85 E287.30623
G0 F12000 X-3.076 Y6.5
G1 F900 X-9.419 Y6.5 E287.82046
G0 F12000 X-9.044 Y7.15
G1 F900 X-2.653 Y7.15 E288.33859
G0 F12000 X-2.23 Y7.8
G1 F900 X-8.669 Y7.8 E288.86061
G0 F12000 X-8.293 Y8.45
G1 F900 X-1.807 Y8.45 E289.38644
G0 F12000 X-1.384 Y9.1
G1 F900 X-7.917 Y9.1 E289.91608
G0 F12000 X-7.542 Y9.75
G1 F900 X-0.961 Y9.75 E290.44961
G0 F12000 X-0.538 Y10.4
G1 F900 X-7.166 Y10.4 E290.98696
G0 F12000 X-6.791 Y11.05
G1 F900 X-0.114 Y11.05 E291.52827
G0 F12000 X0.308 Y11.7
G1 F900 X-6.416 Y11.7 E292.0734
G0 F12000 X-6.04 Y12.35
G1 F900 X-0.362 Y12.35 E292.53372
G0 F12000 X-1.487 Y13
G1 F900 X-5.665 Y13 E292.87244
G0 F12000 X-5.29 Y13.65
G1 F900 X-2.612 Y13.65 E293.08955
G0 F12000 X-3.737 Y14.3
G1 F900 X-4.914 Y14.3 E293.18497
G1 F6000 E290.68497
G0 F900 X-3.737 Y14.3
G0 X-2.612 Y13.65
G0 X-5.29 Y13.65
G0 X-5.665 Y13
G0 X-1.569 Y13
G1 Z0.8
G0 F12000 X-5.006 Y16.244
G0 X-5.363 Y17.576
G0 X3.821 Y29.128
G0 X3.817 Y29.523
; TYPE:WALL-OUTER
G1 Z0.3
G1 F6000 E293.18497
G1 F900 X3.617 Y29.658 E293.211
G1 X3.762 Y29.764 E293.22946
G1 X3.841 Y29.923 E293.25409
G0 F12000 X4.021 Y29.666
G1 F900 X4.204 Y29.794 E293.27219
G1 X4.786 Y30.267 E293.33299
G1 X5.486 Y30.929 E293.4111
G1 X6.498 Y30.364 E293.50507
G1 X6.307 Y29.454 E293.58045
G1 X6.204 Y28.703 E293.6419
G0 F12000 X6.427 Y28.479
G1 F900 X6.324 Y28.197 E293.6616
G1 X6.419 Y28.347 E293.68313
G0 F12000 X6.65 Y28.255
G1 F900 X6.799 Y28.403 E293.70015
G1 X7.298 Y28.972 E293.76151
G1 X7.874 Y29.742 E293.83947
G1 X8.966 Y29.356 E293.93336
G1 X8.931 Y28.426 E294.00881
G1 X8.957 Y27.672 E294.06998
G0 F12000 X9.215 Y27.488
G1 F900 X9.16 Y27.194 E294.08949
G1 X9.228 Y27.36 E294.11124
G0 F12000 X9.473 Y27.304
G1 F900 X9.601 Y27.483 E294.12908
G1 X9.989 Y28.119 E294.18948
G1 X10.428 Y28.976 E294.26754
G1 X11.569 Y28.779 E294.36141
G1 X11.695 Y27.848 E294.43758
G1 X11.844 Y27.122 E294.49766
G0 F12000 X12.131 Y26.983
G1 F900 X12.127 Y26.68 E294.51758
G1 X12.168 Y26.854 E294.53927
G0 F12000 X12.418 Y26.845
G1 F900 X12.509 Y27.033 E294.55621
G1 X12.787 Y27.732 E294.61719
G1 X13.075 Y28.651 E294.69527
G1 X14.234 Y28.651 E294.78923
G1 X14.508 Y27.774 E294.86372
G1 X14.785 Y27.063 E294.92558
G0 F12000 X15.091 Y26.974
G1 F900 X15.157 Y26.737 E294.94568
G1 X15.179 Y26.949 E294.9757
G0 F12000 X15.454 Y27.082
G1 F900 X15.611 Y27.824 E295.03718
G1 X15.739 Y28.779 E295.1153
G1 X16.882 Y28.976 E295.20933
G1 X17.31 Y28.137 E295.28569
G1 X17.686 Y27.513 E295.34475
G0 F12000 X18.006 Y27.477
G1 F900 X18.107 Y27.181 E295.36562
G1 X18.088 Y27.362 E295.38768
G0 F12000 X18.326 Y27.442
G1 F900 X18.348 Y27.635 E295.40343
G1 X18.379 Y28.391 E295.46477
G1 X18.343 Y29.356 E295.54306
G1 X19.436 Y29.742 E295.63704
G1 X19.996 Y28.995 E295.71273
G1 X20.48 Y28.433 E295.77285
G0 F12000 X20.8 Y28.452
G1 F900 X20.947 Y28.18 E295.79345
G1 X20.898 Y28.354 E295.81536
G0 F12000 X21.12 Y28.472
G1 F900 X21.108 Y28.67 E295.83144
G1 X21.011 Y29.415 E295.89235
G1 X20.812 Y30.364 E295.97096
G1 X21.824 Y30.929 E296.06493
G1 X22.491 Y30.297 E296.13942
G1 X23.082 Y29.81 E296.20151
G0 F12000 X23.391 Y29.882
G1 F900 X23.579 Y29.645 E296.22169
G1 X23.504 Y29.803 E296.2429
G0 F12000 X23.701 Y29.954
G1 F900 X23.655 Y30.147 E296.25898
G1 X23.428 Y30.883 E296.32142
G1 X23.075 Y31.775 E296.3992
G1 X23.977 Y32.503 E296.49317
G1 X24.747 Y31.989 E296.56822
G1 X25.399 Y31.616 E296.62912
G0 F12000 X25.694 Y31.74
G1 F900 X25.922 Y31.535 E296.6495
G1 X25.819 Y31.681 E296.67117
G0 F12000 X25.989 Y31.865
G1 F900 X25.911 Y32.048 E296.68729
G1 X25.57 Y32.72 E296.74839
G1 X25.067 Y33.548 E296.82693
G1 X25.833 Y34.418 E296.9209
G1 X26.689 Y34.038 E296.99683
G1 X27.387 Y33.784 E297.05705
G0 F12000 X27.656 Y33.955
G1 F900 X27.914 Y33.792 E297.07722
G1 X27.788 Y33.918 E297.0988
G0 F12000 X27.925 Y34.126
G1 F900 X27.815 Y34.299 E297.11542
G1 X27.361 Y34.91 E297.17714
G1 X26.731 Y35.633 E297.25488
G1 X27.338 Y36.62 E297.34882
G1 X28.237 Y36.392 E297.42401
G1 X28.988 Y36.256 E297.48589
G0 F12000 X29.221 Y36.468
G1 F900 X29.495 Y36.354 E297.50539
G1 X29.35 Y36.455 E297.52679
G0 F12000 X29.455 Y36.681
G1 F900 X29.309 Y36.841 E297.54435
G1 X28.776 Y37.349 E297.60405
G1 X28.019 Y37.969 E297.68338
G1 X28.451 Y39.044 E297.7773
G1 X29.378 Y38.971 E297.85269
G1 X30.134 Y38.963 E297.91398
G0 F12000 X30.328 Y39.212
G1 F900 X30.62 Y39.146 E297.93377
G1 X30.46 Y39.221 E297.95517
G0 F12000 X30.523 Y39.462
G1 F900 X30.357 Y39.591 E297.97222
G1 X29.728 Y40.016 E298.03376
G1 X28.894 Y40.488 E298.11145
G1 X29.137 Y41.621 E298.20539
G1 X30.066 Y41.706 E298.28102
G1 X30.809 Y41.826 E298.34204
G0 F12000 X30.959 Y42.105
G1 F900 X31.261 Y42.089 E298.36214
G1 X31.092 Y42.137 E298.38342
G0 F12000 X31.11 Y42.385
G1 F900 X30.933 Y42.48 E298.39971
G1 X30.235 Y42.793 E298.46172
G1 X29.329 Y43.119 E298.53979
G1 X29.378 Y44.278 E298.63383
G1 X30.272 Y44.516 E298.70883
G1 X30.997 Y44.764 E298.77095
G0 F12000 X31.096 Y45.063
G1 F900 X31.391 Y45.097 E298.7907
G1 X31.219 Y45.115 E298.81168
G0 F12000 X31.196 Y45.362
G1 F900 X31.004 Y45.426 E298.82809
G1 X30.26 Y45.619 E298.8904
G1 X29.315 Y45.787 E298.96822
G1 X29.167 Y46.935 E299.06206
G1 X30.018 Y47.327 E299.13802
G1 X30.666 Y47.68 E299.19784
G0 F12000 X30.715 Y47.997
G1 F900 X31.011 Y48.084 E299.21847
G1 X30.832 Y48.073 E299.24021
G0 F12000 X30.764 Y48.314
G1 F900 X30.568 Y48.345 E299.2563
G1 X29.813 Y48.407 E299.31771
G1 X28.849 Y48.412 E299.39587
G1 X28.51 Y49.52 E299.4898
G1 X29.275 Y50.044 E299.56498
G1 X29.873 Y50.517 E299.62679
G0 F12000 X29.868 Y50.833
G1 F900 X30.133 Y50.964 E299.64637
G1 X29.965 Y50.923 E299.66736
G0 F12000 X29.863 Y51.15
G1 F900 X29.651 Y51.146 E299.68455
G1 X28.902 Y51.08 E299.7455
G1 X27.946 Y50.922 E299.82406
G1 X27.425 Y51.957 E299.918
G1 X28.088 Y52.6 E299.99288
G1 X28.593 Y53.163 E300.05419
G0 F12000 X28.534 Y53.476
G1 F900 X28.78 Y53.654 E300.07434
G1 X28.616 Y53.584 E300.09593
G0 F12000 X28.475 Y53.79
G1 F900 X28.273 Y53.751 E300.11261
G1 X27.546 Y53.56 E300.17355
G1 X26.633 Y53.244 E300.25188
G1 X25.944 Y54.175 E300.34578
G1 X26.491 Y54.925 E300.42104
G1 X26.891 Y55.56 E300.48188
G0 F12000 X26.779 Y55.859
G1 F900 X26.993 Y56.078 E300.50223
G1 X26.843 Y55.981 E300.52389
G0 F12000 X26.668 Y56.158
G1 F900 X26.481 Y56.088 E300.54008
G1 X25.797 Y55.778 E300.60096
G1 X24.946 Y55.309 E300.67974
G1 X24.108 Y56.111 E300.77377
G1 X24.519 Y56.933 E300.84828
G1 X24.812 Y57.645 E300.9107
G0 F12000 X24.652 Y57.918
G1 F900 X24.822 Y58.165 E300.93067
G1 X24.694 Y58.046 E300.95186
G0 F12000 X24.493 Y58.192
G1 F900 X24.317 Y58.089 E300.96839
G1 X23.687 Y57.661 E301.03014
G1 X22.934 Y57.06 E301.10824
G1 X21.974 Y57.708 E301.20214
G1 X22.238 Y58.59 E301.27678
G1 X22.405 Y59.329 E301.33821
G0 F12000 X22.2 Y59.574
G1 F900 X22.329 Y59.854 E301.35889
G1 X22.22 Y59.714 E301.3804
G0 F12000 X21.995 Y59.82
G1 F900 X21.848 Y59.697 E301.39594
G1 X21.296 Y59.165 E301.4581
G1 X20.655 Y58.445 E301.53625
G1 X19.6 Y58.923 E301.63015
G1 X19.711 Y59.845 E301.70544
G1 X19.751 Y60.602 E301.76689
G0 F12000 X19.51 Y60.807
G1 F900 X19.587 Y61.097 E301.78684
G1 X19.506 Y60.942 E301.80802
G0 F12000 X19.269 Y61.012
G1 F900 X19.136 Y60.856 E301.82464
G1 X18.685 Y60.243 E301.88634
G1 X18.174 Y59.427 E301.96439
G1 X17.053 Y59.718 E302.05829
G1 X17.009 Y60.645 E302.13352
G1 X16.919 Y61.397 E302.19492
G0 F12000 X16.646 Y61.558
G1 F900 X16.674 Y61.859 E302.21502
G1 X16.62 Y61.691 E302.23639
G0 F12000 X16.374 Y61.719
G1 F900 X16.272 Y61.547 E302.2526
G1 X15.927 Y60.86 E302.31493
G1 X15.564 Y59.973 E302.39263
G1 X14.409 Y60.072 E302.48661
G1 X14.211 Y60.969 E302.56108
G1 X13.996 Y61.696 E302.62254
G0 F12000 X13.697 Y61.809
G1 F900 X13.675 Y62.115 E302.64294
G1 X13.649 Y61.936 E302.66487
G0 F12000 X13.399 Y61.923
G1 F900 X13.326 Y61.732 E302.68144
G1 X13.104 Y61.002 E302.7433
G1 X12.899 Y60.072 E302.82051
G1 X11.745 Y59.973 E302.91441
G1 X11.397 Y60.824 E302.98895
G1 X11.056 Y61.516 E303.05149
G0 F12000 X10.747 Y61.577
G1 F900 X10.676 Y61.863 E303.07071
G1 X10.682 Y61.686 E303.09216
G0 F12000 X10.438 Y61.639
G1 F900 X10.394 Y61.418 E303.11043
G1 X10.303 Y60.693 E303.16967
G1 X10.255 Y59.717 E303.24889
G1 X9.133 Y59.426 E303.34286
G1 X8.641 Y60.217 E303.41838
G1 X8.2 Y60.824 E303.47921
G0 F12000 X7.883 Y60.832
G1 F900 X7.761 Y61.109 E303.49925
G1 X7.796 Y60.935 E303.52075
G0 F12000 X7.566 Y60.841
G1 F900 X7.56 Y60.635 E303.53746
G1 X7.594 Y59.882 E303.59857
G1 X7.71 Y58.923 E303.67688
G1 X6.655 Y58.445 E303.77078
G1 X6.038 Y59.137 E303.84594
G1 X5.49 Y59.673 E303.90809
G0 F12000 X5.178 Y59.627
G1 F900 X5.017 Y59.872 E303.92721
G1 X5.081 Y59.709 E303.94844
G0 F12000 X4.867 Y59.582
G1 F900 X4.9 Y59.364 E303.96632
G1 X5.062 Y58.622 E304.02789
G1 X5.336 Y57.708 E304.10525
G1 X4.376 Y57.06 E304.19915
G1 X3.645 Y57.643 E304.27495
G1 X3.035 Y58.064 E304.33504
G0 F12000 X2.731 Y57.965
G1 F900 X2.522 Y58.188 E304.35509
G1 X2.616 Y58.031 E304.37725
G0 F12000 X2.427 Y57.866
G1 F900 X2.493 Y57.663 E304.39456
G1 X2.765 Y56.987 E304.45363
G1 X3.2 Y56.111 E304.53292
G1 X2.365 Y55.309 E304.62679
G1 X1.548 Y55.758 E304.70237
G1 X0.86 Y56.077 E304.76385
G0 F12000 X0.58 Y55.931
G1 F900 X0.343 Y56.109 E304.7834
G1 X0.456 Y55.977 E304.80443
G0 F12000 X0.301 Y55.785
G1 F900 X0.398 Y55.6 E304.82136
G1 X0.803 Y54.944 E304.88386
G1 X1.367 Y54.175 E304.96118
G1 X0.677 Y53.244 E305.05512
G1 X-0.198 Y53.547 E305.13019
G1 X-0.933 Y53.745 E305.19191
G0 F12000 X-1.184 Y53.553
G1 F900 X-1.445 Y53.689 E305.2111
G1 X-1.308 Y53.576 E305.23261
G0 F12000 X-1.435 Y53.361
G1 F900 X-1.299 Y53.184 E305.25071
G1 X-0.809 Y52.631 E305.31061
G1 X-0.114 Y51.957 E305.3891
G1 X-0.635 Y50.922 E305.48304
G1 X-1.552 Y51.074 E305.55839
G1 X-2.308 Y51.145 E305.61995
G0 F12000 X-2.523 Y50.913
G1 F900 X-2.804 Y51.003 E305.63924
G1 X-2.65 Y50.915 E305.66074
G0 F12000 X-2.738 Y50.681
G1 F900 X-2.574 Y50.53 E305.67881
G1 X-1.997 Y50.067 E305.73879
G1 X-1.199 Y49.52 E305.81723
G1 X-1.538 Y48.412 E305.91116
G1 X-2.471 Y48.407 E305.9868
G1 X-3.219 Y48.351 E306.04762
G0 F12000 X-3.393 Y48.084
G1 F900 X-3.692 Y48.125 E306.06768
G1 X-3.526 Y48.063 E306.08918
G0 F12000 X-3.567 Y47.817
G1 F900 X-3.392 Y47.703 E306.10612
G1 X-2.738 Y47.341 E306.16672
G1 X-1.856 Y46.935 E306.24543
G1 X-2.004 Y45.787 E306.33927
G1 X-2.924 Y45.623 E306.41504
G1 X-3.649 Y45.441 E306.47564
G0 F12000 X-3.775 Y45.149
G1 F900 X-4.079 Y45.138 E306.49597
G1 X-3.907 Y45.105 E306.51723
G0 F12000 X-3.902 Y44.857
G1 F900 X-3.722 Y44.779 E306.53313
G1 X-2.996 Y44.525 E306.59549
G1 X-2.068 Y44.278 E306.67334
G1 X-2.019 Y43.119 E306.76739
G1 X-2.901 Y42.802 E306.84337
G1 X-3.575 Y42.504 E306.90312
G0 F12000 X-3.65 Y42.193
G1 F900 X-3.953 Y42.131 E306.92356
G1 X-3.77 Y42.129 E306.94572
G0 F12000 X-3.726 Y41.882
G1 F900 X-3.524 Y41.833 E306.96258
G1 X-2.799 Y41.71 E307.02219
G1 X-1.826 Y41.621 E307.1014
G1 X-1.583 Y40.488 E307.19535
G1 X-2.389 Y40.031 E307.27046
G1 X-3.022 Y39.611 E307.33205
G0 F12000 X-3.043 Y39.295
G1 F900 X-3.323 Y39.186 E307.35191
G1 X-3.149 Y39.213 E307.37326
G0 F12000 X-3.065 Y38.98
G1 F900 X-2.859 Y38.966 E307.39
G1 X-2.103 Y38.968 E307.45129
G1 X-1.14 Y39.044 E307.5296
G1 X-0.708 Y37.969 E307.62353
G1 X-1.429 Y37.379 E307.69906
G1 X-1.981 Y36.86 E307.76049
G0 F12000 X-1.949 Y36.545
G1 F900 X-2.204 Y36.391 E307.78014
G1 X-2.038 Y36.447 E307.80136
G0 F12000 X-1.917 Y36.231
G1 F900 X-1.708 Y36.253 E307.81839
G1 X-0.966 Y36.382 E307.87945
G1 X-0.028 Y36.62 E307.95791
G1 X0.578 Y35.633 E308.0518
G1 X-0.024 Y34.94 E308.12622
G1 X-0.487 Y34.325 E308.18863
G0 F12000 X-0.403 Y34.02
G1 F900 X-0.627 Y33.826 E308.20811
G1 X-0.474 Y33.91 E308.22925
G0 F12000 X-0.319 Y33.716
G1 F900 X-0.114 Y33.773 E308.2465
G1 X0.592 Y34.025 E308.30727
G1 X1.476 Y34.418 E308.3857
G1 X2.242 Y33.548 E308.47968
G1 X1.758 Y32.752 E308.5552
G1 X1.413 Y32.082 E308.6163
G0 F12000 X1.548 Y31.795
G1 F900 X1.358 Y31.566 E308.63571
G1 X1.498 Y31.676 E308.6573
G0 F12000 X1.683 Y31.508
G1 F900 X1.884 Y31.603 E308.67532
G1 X2.531 Y31.968 E308.73554
G1 X3.334 Y32.503 E308.81377
G1 X4.234 Y31.775 E308.90762
G1 X3.896 Y30.917 E308.98238
G1 X3.662 Y30.181 E309.04499
G1 F6000 E306.54499
G0 F900 X3.896 Y30.917
G0 X4.234 Y31.775
G0 X3.334 Y32.503
G0 X2.531 Y31.968
G0 X1.884 Y31.603
G0 X1.683 Y31.508
G0 X1.498 Y31.676
G0 X1.358 Y31.566
G0 X1.548 Y31.795
G0 X1.413 Y32.082
G0 X1.758 Y32.752
G0 X2.242 Y33.548
G0 X1.476 Y34.418
G0 X0.592 Y34.025
G0 X0.244 Y33.901
G1 Z0.8
G0 F12000 X4.634 Y31.018
G0 X5.013 Y31.98
G0 X3.371 Y33.309
G0 X2.507 Y32.733
G0 X1.452 Y31.399
G1 Z0.3
G1 F6000 E309.04499
G1 F900 X1.219 Y31.622 E309.07114
G0 F12000 X2.507 Y32.733
G0 X3.046 Y33.619
G0 X1.648 Y35.206
G0 X0.703 Y34.786
G0 X-0.564 Y33.648
G1 F900 X-0.755 Y33.907 E309.09723
G0 F12000 X0.703 Y34.786
G0 X1.381 Y35.567
G0 X0.275 Y37.368
G0 X-0.728 Y37.113
G0 X-2.171 Y36.205
G1 F900 X-2.315 Y36.492 E309.12326
G0 F12000 X-0.728 Y37.113
G0 X0.073 Y37.768
G0 X-0.715 Y39.729
G0 X-1.748 Y39.648
G0 X-3.322 Y38.997
G1 F900 X-3.416 Y39.305 E309.14937
G0 F12000 X-1.748 Y39.648
G0 X-0.847 Y40.157
G0 X-1.291 Y42.225
G0 X-2.323 Y42.319
G0 X-3.986 Y41.944
G1 F900 X-4.026 Y42.263 E309.17543
G0 F12000 X-2.323 Y42.319
G0 X-1.349 Y42.669
G0 X-1.439 Y44.783
G0 X-2.44 Y45.049
G0 X-4.14 Y44.959
G1 F900 X-4.127 Y45.282 E309.20164
G0 F12000 X-2.44 Y45.049
G0 X-1.421 Y45.23
G0 X-1.15 Y47.326
G0 X-2.092 Y47.759
G0 X-3.784 Y47.958
G1 F900 X-3.715 Y48.274 E309.22786
G0 F12000 X-2.092 Y47.759
G0 X-1.056 Y47.765
G0 X-0.438 Y49.787
G0 X-1.293 Y50.372
G0 X-2.926 Y50.855
G1 F900 X-2.805 Y51.154 E309.25401
G0 F12000 X-1.293 Y50.372
G0 X-0.27 Y50.203
G0 X0.681 Y52.091
G0 X-0.062 Y52.812
G0 X-1.59 Y53.564
G1 F900 X-1.421 Y53.838 E309.28011
G0 F12000 X-0.062 Y52.812
G0 X0.915 Y52.473
G0 X2.174 Y54.173
G0 X1.562 Y55.009
G0 X0.183 Y56.009
G1 F900 X0.395 Y56.25 E309.30613
G0 F12000 X1.562 Y55.009
G0 X2.47 Y54.509
G0 X3.995 Y55.972
G0 X3.533 Y56.901
G0 X2.345 Y58.118
G1 F900 X2.595 Y58.32 E309.33219
G0 F12000 X3.533 Y56.901
G0 X4.344 Y56.254
G0 X6.095 Y57.437
G0 X5.798 Y58.43
G0 X4.831 Y59.832
G1 F900 X5.113 Y59.989 E309.35836
G0 F12000 X5.798 Y58.43
G0 X6.488 Y57.656
G0 X8.413 Y58.528
G0 X8.289 Y59.553
G0 X7.572 Y61.101
G1 F900 X7.875 Y61.208 E309.38441
G0 F12000 X8.289 Y59.553
G0 X8.834 Y58.677
G0 X10.881 Y59.208
G0 X10.931 Y60.243
G0 X10.487 Y61.888
G1 F900 X10.804 Y61.942 E309.41048
G0 F12000 X10.931 Y60.243
G0 X11.324 Y59.284
G0 X13.43 Y59.465
G0 X13.654 Y60.475
G0 X13.493 Y62.171
G1 F900 X13.815 Y62.171 E309.43658
G0 F12000 X13.654 Y60.475
G0 X13.878 Y59.465
G0 X15.985 Y59.285
G0 X16.377 Y60.243
G0 X16.505 Y61.942
G1 F900 X16.822 Y61.888 E309.46265
G0 F12000 X16.377 Y60.243
G0 X16.426 Y59.209
G0 X18.473 Y58.678
G0 X19.022 Y59.556
G0 X19.435 Y61.208
G1 F900 X19.738 Y61.101 E309.4887
G0 F12000 X19.022 Y59.556
G0 X18.897 Y58.528
G0 X20.822 Y57.656
G0 X21.511 Y58.429
G0 X22.197 Y59.989
G1 F900 X22.479 Y59.832 E309.51487
G0 F12000 X21.511 Y58.429
G0 X21.215 Y57.437
G0 X22.966 Y56.254
G0 X23.776 Y56.901
G0 X24.715 Y58.321
G1 F900 X24.966 Y58.118 E309.54104
G0 F12000 X23.776 Y56.901
G0 X23.313 Y55.973
G0 X24.841 Y54.509
G0 X25.749 Y55.009
G0 X26.914 Y56.25
G1 F900 X27.127 Y56.008 E309.56718
G1 F6000 E307.06718
G0 F900 X26.914 Y56.25
G0 X25.749 Y55.009
G0 X24.841 Y54.509
G0 X23.313 Y55.973
G0 X23.776 Y56.901
G0 X24.966 Y58.118
G0 X24.715 Y58.321
G0 X23.776 Y56.901
G0 X23.729 Y56.863
G1 Z0.8
G0 F12000 X25.749 Y55.009
G0 X25.137 Y54.172
G0 X26.394 Y52.473
G0 X27.373 Y52.813
G0 X28.732 Y53.838
G1 Z0.3
G1 F6000 E309.56718
G1 F900 X28.901 Y53.564 E309.59328
G0 F12000 X27.373 Y52.813
G0 X26.63 Y52.091
G0 X27.581 Y50.203
G0 X28.604 Y50.372
G0 X30.115 Y51.154
G1 F900 X30.236 Y50.854 E309.6195
G0 F12000 X28.604 Y50.372
G0 X27.749 Y49.787
G0 X28.367 Y47.765
G0 X29.401 Y47.759
G0 X31.026 Y48.274
G1 F900 X31.094 Y47.959 E309.64563
G0 F12000 X29.401 Y47.759
G0 X28.461 Y47.326
G0 X28.732 Y45.23
G0 X29.751 Y45.049
G0 X31.437 Y45.282
G1 F900 X31.451 Y44.959 E309.67184
G0 F12000 X29.751 Y45.049
G0 X28.749 Y44.783
G0 X28.659 Y42.669
G0 X29.632 Y42.319
G0 X31.337 Y42.263
G1 F900 X31.296 Y41.944 E309.69791
G0 F12000 X29.632 Y42.319
G0 X28.602 Y42.225
G0 X28.158 Y40.157
G0 X29.059 Y39.648
G0 X30.726 Y39.304
G1 F900 X30.632 Y38.997 E309.72394
G0 F12000 X29.059 Y39.648
G0 X28.026 Y39.729
G0 X27.238 Y37.768
G0 X28.04 Y37.112
G0 X29.627 Y36.492
G1 F900 X29.482 Y36.205 E309.75001
G0 F12000 X28.04 Y37.112
G0 X27.035 Y37.367
G0 X25.927 Y35.566
G0 X26.608 Y34.785
G0 X28.066 Y33.906
G1 F900 X27.875 Y33.648 E309.77604
G0 F12000 X26.608 Y34.785
G0 X25.66 Y35.206
G0 X24.264 Y33.619
G0 X24.802 Y32.734
G0 X26.091 Y31.622
G1 F900 X25.858 Y31.399 E309.80218
G0 F12000 X24.802 Y32.734
G0 X23.94 Y33.308
G0 X22.294 Y31.98
G0 X22.675 Y31.018
G0 X23.759 Y29.703
G1 F900 X23.492 Y29.523 E309.82829
G0 F12000 X22.675 Y31.018
G0 X21.924 Y31.729
G0 X20.077 Y30.699
G0 X20.29 Y29.686
G0 X21.136 Y28.206
G1 F900 X20.842 Y28.073 E309.85445
G0 F12000 X20.29 Y29.686
G0 X19.67 Y30.514
G0 X17.676 Y29.809
G0 X17.714 Y28.774
G0 X18.297 Y27.175
G1 F900 X17.985 Y27.093 E309.8806
G0 F12000 X17.714 Y28.774
G0 X17.243 Y29.698
G0 X15.158 Y29.338
G0 X15.021 Y28.313
G0 X15.326 Y26.637
G1 F900 X15.004 Y26.61 E309.9068
G0 F12000 X15.021 Y28.313
G0 X14.711 Y29.301
G0 X12.598 Y29.301
G0 X12.288 Y28.312
G0 X12.305 Y26.61
G1 F900 X11.983 Y26.637 E309.933
G0 F12000 X12.288 Y28.312
G0 X12.149 Y29.338
G0 X10.067 Y29.698
G0 X9.594 Y28.774
G0 X9.323 Y27.093
G1 F900 X9.011 Y27.175 E309.95915
G0 F12000 X9.594 Y28.774
G0 X9.633 Y29.809
G0 X7.64 Y30.515
G0 X7.02 Y29.686
G0 X6.468 Y28.073
G1 F900 X6.174 Y28.206 E309.98531
G0 F12000 X7.02 Y29.686
; TYPE:WALL-INNER
G1 F900 X7.397 Y30.521 E310.05958
G1 X7.436 Y30.607 E310.072
G0 F12000 X7.64 Y30.515
G1 F900 X9.633 Y29.809 E310.24341
G0 F12000 X9.85 Y29.753
G1 F900 X9.825 Y29.662 E310.25106
G1 X9.594 Y28.774 E310.32545
G0 F12000 X10.067 Y29.698
G1 F900 X12.149 Y29.338 E310.49675
G0 F12000 X12.373 Y29.319
G1 F900 X12.364 Y29.224 E310.50448
G1 X12.288 Y28.312 E310.57868
G0 F12000 X12.598 Y29.301
G1 F900 X14.711 Y29.301 E310.74998
G0 F12000 X14.934 Y29.319
G1 F900 X14.942 Y29.225 E310.75763
G1 X15.021 Y28.313 E310.83184
G0 F12000 X15.158 Y29.338
G1 F900 X17.243 Y29.698 E311.00338
G0 F12000 X17.459 Y29.753
G1 F900 X17.483 Y29.663 E311.01093
G1 X17.714 Y28.774 E311.08539
G0 F12000 X17.676 Y29.809
G1 F900 X19.67 Y30.514 E311.25686
G0 F12000 X19.873 Y30.606
G1 F900 X19.912 Y30.52 E311.26451
G1 X20.29 Y29.686 E311.33875
G0 F12000 X20.077 Y30.699
G1 F900 X21.924 Y31.729 E311.5102
G0 F12000 X22.109 Y31.854
G1 F900 X22.161 Y31.776 E311.5178
G1 X22.675 Y31.018 E311.59205
G0 F12000 X22.294 Y31.98
G1 F900 X23.94 Y33.308 E311.76351
G0 F12000 X24.102 Y33.463
G1 F900 X24.167 Y33.395 E311.77113
G1 X24.802 Y32.734 E311.84544
G0 F12000 X24.264 Y33.619
G1 F900 X25.66 Y35.206 E312.0168
G0 F12000 X25.793 Y35.386
G1 F900 X25.869 Y35.33 E312.02445
G1 X26.608 Y34.785 E312.09889
G0 F12000 X25.927 Y35.566
G1 F900 X27.035 Y37.367 E312.27032
G0 F12000 X27.136 Y37.567
G1 F900 X27.222 Y37.524 E312.27812
G1 X28.04 Y37.112 E312.35237
G0 F12000 X27.238 Y37.768
G1 F900 X28.026 Y39.729 E312.52371
G0 F12000 X28.092 Y39.943
G1 F900 X28.181 Y39.916 E312.53125
G1 X29.059 Y39.648 E312.60567
G0 F12000 X28.158 Y40.157
G1 F900 X28.602 Y42.225 E312.77715
G0 F12000 X28.63 Y42.447
G1 F900 X28.724 Y42.434 E312.78484
G1 X29.632 Y42.319 E312.85904
G0 F12000 X28.659 Y42.669
G1 F900 X28.749 Y44.783 E313.03058
G0 F12000 X28.74 Y45.006
G1 F900 X28.834 Y45.01 E313.03821
G1 X29.751 Y45.049 E313.11262
G0 F12000 X28.732 Y45.23
G1 F900 X28.461 Y47.326 E313.28396
G0 F12000 X28.414 Y47.545
G1 F900 X28.507 Y47.565 E313.29167
G1 X29.401 Y47.759 E313.36584
G0 F12000 X28.367 Y47.765
G1 F900 X27.749 Y49.787 E313.53725
G0 F12000 X27.665 Y49.995
G1 F900 X27.752 Y50.03 E313.54485
G1 X28.604 Y50.372 E313.61928
G0 F12000 X27.581 Y50.203
G1 F900 X26.63 Y52.091 E313.79066
G0 F12000 X26.512 Y52.282
G1 F900 X26.592 Y52.331 E313.79827
G1 X27.373 Y52.813 E313.87267
G0 F12000 X26.394 Y52.473
G1 F900 X25.137 Y54.172 E314.04401
G0 F12000 X24.989 Y54.34
G1 F900 X25.06 Y54.403 E314.05171
G1 X25.749 Y55.009 E314.1261
G0 F12000 X24.841 Y54.509
G1 F900 X23.313 Y55.973 E314.29766
G0 F12000 X23.139 Y56.113
G1 F900 X23.198 Y56.186 E314.30527
G1 X23.776 Y56.901 E314.37981
G0 F12000 X22.966 Y56.254
G1 F900 X21.215 Y57.437 E314.55112
G0 F12000 X21.018 Y57.546
G1 F900 X21.065 Y57.629 E314.55886
G1 X21.511 Y58.429 E314.63311
G0 F12000 X20.822 Y57.656
G1 F900 X18.897 Y58.528 E314.80444
G0 F12000 X18.685 Y58.603
G1 F900 X18.716 Y58.692 E314.81208
G1 X19.022 Y59.556 E314.88639
G0 F12000 X18.473 Y58.678
G1 F900 X16.426 Y59.209 E315.05784
G0 F12000 X16.205 Y59.247
G1 F900 X16.222 Y59.339 E315.06542
G1 X16.377 Y60.243 E315.13978
G0 F12000 X15.985 Y59.285
G1 F900 X13.878 Y59.465 E315.31122
G0 F12000 X13.654 Y59.465
G1 F900 X13.654 Y59.559 E315.31884
G1 X13.654 Y60.475 E315.3931
G0 F12000 X13.43 Y59.465
G1 F900 X11.324 Y59.284 E315.56447
G0 F12000 X11.102 Y59.246
G1 F900 X11.087 Y59.339 E315.57211
G1 X10.931 Y60.243 E315.64648
G0 F12000 X10.881 Y59.208
G1 F900 X8.834 Y58.677 E315.81792
G0 F12000 X8.623 Y58.602
G1 F900 X8.592 Y58.691 E315.82556
G1 X8.289 Y59.553 E315.89964
G0 F12000 X8.413 Y58.528
G1 F900 X6.488 Y57.656 E316.07097
G0 F12000 X6.291 Y57.546
G1 F900 X6.245 Y57.629 E316.07866
G1 X5.798 Y58.43 E316.15303
G0 F12000 X6.095 Y57.437
G1 F900 X4.344 Y56.254 E316.32434
G0 F12000 X4.169 Y56.113
G1 F900 X4.11 Y56.186 E316.33195
G1 X3.533 Y56.901 E316.40644
G0 F12000 X3.995 Y55.972
G1 F900 X2.47 Y54.509 E316.57777
G0 F12000 X2.322 Y54.341
G1 F900 X2.25 Y54.403 E316.58547
G1 X1.562 Y55.009 E316.6598
G0 F12000 X2.174 Y54.173
G1 F900 X0.915 Y52.473 E316.8313
G0 F12000 X0.798 Y52.282
G1 F900 X0.718 Y52.332 E316.83895
G1 X-0.062 Y52.812 E316.9132
G0 F12000 X0.681 Y52.091
G1 F900 X-0.27 Y50.203 E317.08459
G0 F12000 X-0.354 Y49.995
G1 F900 X-0.441 Y50.029 E317.09216
G1 X-1.293 Y50.372 E317.16662
G0 F12000 X-0.438 Y49.787
G1 F900 X-1.056 Y47.765 E317.33803
G0 F12000 X-1.103 Y47.545
G1 F900 X-1.195 Y47.566 E317.34568
G1 X-2.092 Y47.759 E317.42007
G0 F12000 X-1.15 Y47.326
G1 F900 X-1.421 Y45.23 E317.59141
G0 F12000 X-1.43 Y45.006
G1 F900 X-1.523 Y45.011 E317.59896
G1 X-2.44 Y45.049 E317.67336
G0 F12000 X-1.439 Y44.783
G1 F900 X-1.349 Y42.669 E317.8449
G0 F12000 X-1.32 Y42.447
G1 F900 X-1.413 Y42.435 E317.85251
G1 X-2.323 Y42.319 E317.92688
G0 F12000 X-1.291 Y42.225
G1 F900 X-0.847 Y40.157 E318.09836
G0 F12000 X-0.781 Y39.943
G1 F900 X-0.871 Y39.916 E318.10597
G1 X-1.748 Y39.648 E318.18032
G0 F12000 X-0.715 Y39.729
G1 F900 X0.073 Y37.768 E318.35166
G0 F12000 X0.174 Y37.568
G1 F900 X0.09 Y37.526 E318.35927
G1 X-0.728 Y37.113 E318.43356
G0 F12000 X0.275 Y37.368
G1 F900 X1.381 Y35.567 E318.6049
G0 F12000 X1.514 Y35.386
G1 F900 X1.438 Y35.33 E318.61256
G1 X0.703 Y34.786 E318.68669
G0 F12000 X1.648 Y35.206
G1 F900 X3.046 Y33.619 E318.85815
G0 F12000 X3.208 Y33.464
G1 F900 X3.143 Y33.396 E318.86578
G1 X2.507 Y32.733 E318.94026
G0 F12000 X3.371 Y33.309
G1 F900 X5.013 Y31.98 E319.11152
G0 F12000 X5.199 Y31.854
G1 F900 X5.146 Y31.776 E319.11916
G1 X4.634 Y31.018 E319.19332
G0 F12000 X5.386 Y31.729
G1 F900 X7.232 Y30.699 E319.3647
G0 F12000 X7.698 Y31.184
G1 F900 X9.995 Y30.37 E319.56227
G1 X12.418 Y29.951 E319.76162
G1 X14.89 Y29.951 E319.96203
G1 X17.308 Y30.369 E320.16097
G1 X19.612 Y31.183 E320.35907
G1 X21.754 Y32.379 E320.55796
G1 X23.662 Y33.919 E320.75675
G1 X25.283 Y35.761 E320.95567
G1 X26.574 Y37.858 E321.15531
G1 X27.49 Y40.138 E321.35452
G1 X28.003 Y42.531 E321.55293
G1 X28.107 Y44.989 E321.75238
G1 X27.795 Y47.416 E321.95076
G1 X27.081 Y49.748 E322.14848
G1 X25.974 Y51.949 E322.34822
G1 X24.507 Y53.93 E322.54806
G1 X22.734 Y55.626 E322.74698
G1 X20.71 Y56.993 E322.94499
G1 X18.475 Y58.006 E323.14392
G1 X16.098 Y58.622 E323.343
G1 X13.654 Y58.832 E323.54187
G1 X11.212 Y58.622 E323.74057
G1 X8.836 Y58.006 E323.93957
G1 X6.598 Y56.993 E324.13873
G1 X4.568 Y55.621 E324.33737
G1 X2.798 Y53.923 E324.53622
G1 X1.338 Y51.952 E324.73507
G1 X0.231 Y49.75 E324.93488
G1 X-0.484 Y47.411 E325.13317
G1 X-0.797 Y44.984 E325.33156
G1 X-0.693 Y42.538 E325.53004
G1 X-0.179 Y40.138 E325.72902
G1 X0.737 Y37.859 E325.92815
G1 X2.02 Y35.768 E326.12704
G1 X3.643 Y33.925 E326.32613
G1 X5.553 Y32.38 E326.5253
G1 X7.698 Y31.184 E326.7244
G1 F6000 E324.2244
G0 F900 X5.553 Y32.38
G0 X3.643 Y33.925
G0 X2.02 Y35.768
G0 X0.737 Y37.859
G0 X0.67 Y38.026
G1 Z0.8
G0 F12000 X10.29 Y45.267
G0 X10.637 Y46.107
G0 X11.192 Y46.828
G0 X11.912 Y47.381
G0 X12.752 Y47.73
G0 X13.57 Y47.837
G0 X13.654 Y47.193
; TYPE:WALL-OUTER
G1 Z0.3
G1 F6000 E326.7244
G1 F900 X14.386 Y47.097 E326.78425
G1 X15.068 Y46.814 E326.84411
G1 X15.654 Y46.365 E326.90397
G1 X16.103 Y45.779 E326.96382
G1 X16.386 Y45.097 E327.02368
G1 X16.482 Y44.365 E327.08353
G1 X16.386 Y43.633 E327.14338
G1 X16.103 Y42.951 E327.20324
G1 X15.654 Y42.365 E327.26309
G1 X15.068 Y41.916 E327.32295
G1 X14.386 Y41.633 E327.38281
G1 X13.654 Y41.537 E327.44266
G1 X12.922 Y41.633 E327.50251
G1 X12.24 Y41.916 E327.56237
G1 X11.655 Y42.365 E327.62216
G1 X11.205 Y42.951 E327.68206
G1 X10.923 Y43.633 E327.74189
G1 X10.826 Y44.365 E327.80175
G1 X10.923 Y45.097 E327.86162
G1 X11.205 Y45.779 E327.92145
G1 X11.655 Y46.365 E327.98135
G1 X12.24 Y46.814 E328.04113
G1 X12.922 Y47.097 E328.101
G1 X13.654 Y47.193 E328.16085
G0 F12000 X13.57 Y47.837
G0 X13.654 Y47.848
; TYPE:WALL-INNER
G1 F900 X14.556 Y47.73 E328.2346
G1 X15.396 Y47.382 E328.30831
G1 X16.117 Y46.828 E328.38203
G1 X16.671 Y46.107 E328.45574
G1 X17.019 Y45.267 E328.52945
G1 X17.137 Y44.365 E328.6032
G1 X17.019 Y43.463 E328.67695
G1 X16.671 Y42.623 E328.75067
G1 X16.117 Y41.902 E328.82438
G1 X15.396 Y41.348 E328.8981
G1 X14.556 Y41 E328.97181
G1 X13.654 Y40.882 E329.04556
G1 X12.752 Y41 E329.11931
G1 X11.912 Y41.349 E329.19305
G1 X11.192 Y41.902 E329.26665
G1 X10.637 Y42.623 E329.34042
G1 X10.29 Y43.463 E329.4141
G1 X10.17 Y44.365 E329.48787
G1 X10.29 Y45.267 E329.56164
G1 X10.637 Y46.107 E329.63533
G1 X11.192 Y46.828 E329.70909
G1 X11.912 Y47.381 E329.78269
G1 X12.752 Y47.73 E329.85644
G1 X13.654 Y47.848 E329.93019
G0 F12000 X13.654 Y48.504
G1 F900 X14.725 Y48.363 E330.01776
G1 X15.723 Y47.949 E330.10536
G1 X16.581 Y47.292 E330.19297
G1 X17.238 Y46.434 E330.28058
G1 X17.652 Y45.436 E330.36817
G1 X17.793 Y44.365 E330.45575
G1 X17.652 Y43.294 E330.54333
G1 X17.238 Y42.296 E330.63092
G1 X16.581 Y41.438 E330.71853
G1 X15.723 Y40.781 E330.80614
G1 X14.725 Y40.367 E330.89374
G1 X13.654 Y40.226 E330.98131
G1 X12.583 Y40.367 E331.06889
G1 X11.584 Y40.781 E331.15656
G1 X10.728 Y41.438 E331.24404
G1 X10.069 Y42.296 E331.33175
G1 X9.657 Y43.294 E331.41928
G1 X9.515 Y44.365 E331.50687
G1 X9.657 Y45.436 E331.59446
G1 X10.069 Y46.434 E331.68199
G1 X10.728 Y47.292 E331.7697
G1 X11.584 Y47.949 E331.85718
G1 X12.583 Y48.363 E331.94485
G1 X13.654 Y48.504 E332.03243
G1 F6000 E329.53243
G0 F900 X12.583 Y48.363
G0 X11.584 Y47.949
G0 X10.728 Y47.292
G0 X10.069 Y46.434
G0 X9.657 Y45.436
G0 X9.515 Y44.365
G0 X9.657 Y43.294
G0 X10.069 Y42.296
G0 X10.728 Y41.438
G0 X10.95 Y41.268
G1 Z0.8
G0 F12000 X13.654 Y60.475
G0 X13.673 Y60.974
; TYPE:FILL
G1 Z0.3
G1 F6000 E332.03243
G1 F900 X13.655 Y61.326 E332.06219
G1 X13.635 Y60.998 E332.08018
G0 F12000 X13.654 Y60.475
G0 X13.43 Y59.465
G0 X11.324 Y59.284
G0 X10.931 Y60.243
G0 X10.871 Y61.098
G1 F900 X10.846 Y60.739 E332.10958
G1 X10.709 Y61.055 E332.12883
G0 F12000 X10.931 Y60.243
G0 X10.881 Y59.208
G0 X8.834 Y58.677
G0 X8.289 Y59.553
G0 X8.08 Y60.395
G1 F900 X8.119 Y60.032 E332.15906
G1 X7.928 Y60.32 E332.17811
G0 F12000 X8.289 Y59.553
G0 X8.413 Y58.528
G0 X6.488 Y57.656
G0 X5.798 Y58.43
G0 X5.454 Y59.217
G1 F900 X5.554 Y58.866 E332.20875
G1 X5.32 Y59.114 E332.22755
G0 F12000 X5.798 Y58.43
G0 X6.095 Y57.437
G0 X4.344 Y56.254
G0 X3.533 Y56.901
G0 X3.062 Y57.619
G1 F900 X3.219 Y57.288 E332.25793
G1 X2.944 Y57.497 E332.27706
G0 F12000 X3.533 Y56.901
G0 X3.995 Y55.972
G0 X2.47 Y54.509
G0 X1.562 Y55.009
G0 X0.972 Y55.639
G1 F900 X1.185 Y55.338 E332.30806
G1 X0.878 Y55.496 E332.32709
G0 F12000 X1.562 Y55.009
G0 X2.174 Y54.173
G0 X0.915 Y52.473
G0 X-0.062 Y52.812
G0 X-0.752 Y53.334
G1 F900 X-0.491 Y53.075 E332.358
G1 X-0.819 Y53.178 E332.37679
G0 F12000 X-0.062 Y52.812
G0 X0.681 Y52.091
G0 X-0.27 Y50.203
G0 X-1.293 Y50.372
G0 X-2.055 Y50.77
G1 F900 X-1.756 Y50.558 E332.40705
G1 X-2.1 Y50.606 E332.42633
G0 F12000 X-1.293 Y50.372
G0 X-0.438 Y49.787
G0 X-1.056 Y47.765
G0 X-2.092 Y47.759
G0 X-2.918 Y48.023
G1 F900 X-2.587 Y47.865 E332.45684
G1 X-2.932 Y47.854 E332.47578
G0 F12000 X-2.092 Y47.759
G0 X-1.15 Y47.326
G0 X-1.421 Y45.23
G0 X-2.44 Y45.049
G0 X-3.292 Y45.167
G1 F900 X-2.948 Y45.07 E332.50538
G1 X-3.278 Y45.003 E332.52395
G0 F12000 X-2.44 Y45.049
G0 X-1.439 Y44.783
G0 X-1.349 Y42.669
G0 X-2.323 Y42.319
G0 X-3.187 Y42.295
G1 F900 X-2.819 Y42.255 E332.5546
G1 X-3.146 Y42.127 E332.57409
G1 F6000 E330.07409
G0 F900 X-2.819 Y42.255
G0 X-3.187 Y42.295
G0 X-2.323 Y42.319
G0 X-1.349 Y42.669
G0 X-1.439 Y44.783
G0 X-2.44 Y45.049
G0 X-3.278 Y45.003
G0 X-2.948 Y45.07
G0 X-3.292 Y45.167
G0 X-2.44 Y45.049
G0 X-1.421 Y45.23
G0 X-1.318 Y46.028
G1 Z0.8
G0 F12000 X-2.323 Y42.319
G0 X-1.291 Y42.225
G0 X-0.847 Y40.157
G0 X-1.748 Y39.648
G0 X-2.596 Y39.476
G1 Z0.3
G1 F6000 E332.57409
G1 F900 X-2.231 Y39.499 E332.60438
G1 X-2.528 Y39.32 E332.62346
G0 F12000 X-1.748 Y39.648
G0 X-0.715 Y39.729
G0 X0.073 Y37.768
G0 X-0.728 Y37.113
G0 X-1.534 Y36.798
G1 F900 X-1.18 Y36.883 E332.65392
G1 X-1.438 Y36.661 E332.67248
G0 F12000 X-0.728 Y37.113
G0 X0.275 Y37.368
G0 X1.381 Y35.567
G0 X0.703 Y34.786
G0 X-0.038 Y34.341
G1 F900 X0.294 Y34.483 E332.70229
G1 X0.076 Y34.218 E332.72117
G0 F12000 X0.703 Y34.786
G0 X1.648 Y35.206
G0 X3.046 Y33.619
G0 X2.507 Y32.733
G0 X1.852 Y32.168
G1 F900 X2.156 Y32.367 E332.7518
G1 X1.99 Y32.072 E332.77029
G0 F12000 X2.507 Y32.733
G0 X3.371 Y33.309
G0 X5.013 Y31.98
G0 X4.634 Y31.018
G0 X4.08 Y30.352
G1 F900 X4.355 Y30.604 E332.80132
G1 X4.235 Y30.272 E332.82078
G0 F12000 X4.634 Y31.018
G0 X5.386 Y31.729
G0 X7.232 Y30.699
G0 X7.02 Y29.686
G0 X6.59 Y28.938
G1 F900 X6.814 Y29.229 E332.85134
G1 X6.752 Y28.887 E332.87054
G0 F12000 X7.02 Y29.686
G0 X7.64 Y30.515
G0 X9.633 Y29.809
G0 X9.594 Y28.774
G0 X9.294 Y27.953
G1 F900 X9.466 Y28.281 E332.90186
G1 X9.466 Y27.935 E332.92072
G0 F12000 X9.594 Y28.774
G0 X10.067 Y29.698
G0 X12.149 Y29.338
G0 X12.288 Y28.312
G0 X12.131 Y27.464
G1 F900 X12.246 Y27.816 E332.95171
G1 X12.303 Y27.472 E332.97098
G0 F12000 X12.288 Y28.312
G0 X12.598 Y29.301
G0 X14.711 Y29.301
G0 X15.021 Y28.313
G0 X15.008 Y27.446
G1 F900 X15.047 Y27.857 E333.00249
G1 X15.073 Y27.753 E333.00781
G0 F12000 X15.021 Y28.313
G0 X15.158 Y29.338
G0 X17.243 Y29.698
G0 X17.714 Y28.774
G0 X17.852 Y27.912
G1 F900 X17.842 Y28.284 E333.03956
G1 X18.01 Y27.982 E333.05835
G0 F12000 X17.714 Y28.774
G0 X17.676 Y29.809
G0 X19.67 Y30.514
G0 X20.29 Y29.686
G0 X20.566 Y28.869
G1 F900 X20.499 Y29.223 E333.08769
G1 X20.712 Y28.95 E333.10691
G1 F6000 E330.60691
G0 F900 X20.499 Y29.223
G0 X20.566 Y28.869
G0 X20.29 Y29.686
G0 X19.67 Y30.514
G0 X17.676 Y29.809
G0 X17.714 Y28.774
G0 X18.01 Y27.982
G0 X17.842 Y28.284
G0 X17.852 Y27.912
G0 X17.714 Y28.774
G0 X17.243 Y29.698
G0 X16.477 Y29.566
G1 Z0.8
G0 F12000 X20.29 Y29.686
G0 X20.077 Y30.699
G0 X21.924 Y31.729
G0 X22.675 Y31.018
G0 X23.085 Y30.26
G1 Z0.3
G1 F6000 E333.10691
G1 F900 X22.958 Y30.601 E333.13696
G1 X23.215 Y30.37 E333.15618
G0 F12000 X22.675 Y31.018
G0 X22.294 Y31.98
G0 X23.94 Y33.308
G0 X24.802 Y32.734
G0 X25.337 Y32.056
G1 F900 X25.151 Y32.369 E333.18683
G1 X25.44 Y32.189 E333.20543
G0 F12000 X24.802 Y32.734
G0 X24.264 Y33.619
G0 X25.66 Y35.206
G0 X26.608 Y34.785
G0 X27.249 Y34.204
G1 F900 X27.008 Y34.489 E333.23648
G1 X27.334 Y34.355 E333.256
G0 F12000 X26.608 Y34.785
G0 X25.927 Y35.566
G0 X27.035 Y37.367
G0 X28.04 Y37.112
G0 X28.771 Y36.651
G1 F900 X28.488 Y36.887 E333.28707
G1 X28.824 Y36.813 E333.30587
G0 F12000 X28.04 Y37.112
G0 X27.238 Y37.768
G0 X28.026 Y39.729
G0 X29.059 Y39.648
G0 X29.857 Y39.317
G1 F900 X29.542 Y39.5 E333.33636
G1 X29.883 Y39.482 E333.35501
G0 F12000 X29.059 Y39.648
G0 X28.158 Y40.157
G0 X28.602 Y42.225
G0 X29.632 Y42.319
G0 X30.481 Y42.126
G1 F900 X30.132 Y42.255 E333.38652
G1 X30.475 Y42.299 E333.40546
G0 F12000 X29.632 Y42.319
G0 X28.659 Y42.669
G0 X28.749 Y44.783
G0 X29.751 Y45.049
G0 X30.612 Y45.002
G1 F900 X30.254 Y45.071 E333.43588
G1 X30.582 Y45.168 E333.45469
G0 F12000 X29.751 Y45.049
G0 X28.732 Y45.23
G0 X28.461 Y47.326
G0 X29.401 Y47.759
G0 X30.263 Y47.857
G1 F900 X29.89 Y47.864 E333.48587
G1 X30.205 Y48.02 E333.50525
G0 F12000 X29.401 Y47.759
G0 X28.367 Y47.765
G0 X27.749 Y49.787
G0 X28.604 Y50.372
G0 X29.432 Y50.615
G1 F900 X29.071 Y50.56 E333.5359
G1 X29.346 Y50.761 E333.55468
G0 F12000 X28.604 Y50.372
G0 X27.581 Y50.203
G0 X26.63 Y52.091
G0 X27.373 Y52.813
G0 X28.149 Y53.19
G1 F900 X27.802 Y53.077 E333.58463
G1 X28.047 Y53.326 E333.60397
G0 F12000 X27.373 Y52.813
G0 X26.394 Y52.473
G0 X25.137 Y54.172
G0 X25.749 Y55.009
G0 X26.447 Y55.512
G1 F900 X26.125 Y55.34 E333.63411
G1 X26.322 Y55.626 E333.6533
G1 F6000 E331.1533
G0 F900 X26.125 Y55.34
G0 X26.447 Y55.512
G0 X25.749 Y55.009
G0 X25.137 Y54.172
G0 X26.394 Y52.473
G0 X27.373 Y52.813
G0 X28.047 Y53.326
G0 X27.802 Y53.077
G0 X28.149 Y53.19
G0 X27.373 Y52.813
G0 X26.63 Y52.091
G0 X26.983 Y51.39
G1 Z0.8
G0 F12000 X25.749 Y55.009
G0 X24.841 Y54.509
G0 X23.313 Y55.973
G0 X23.776 Y56.901
G0 X24.38 Y57.515
G1 Z0.3
G1 F6000 E333.6533
G1 F900 X24.093 Y57.293 E333.68326
G1 X24.238 Y57.606 E333.70232
G0 F12000 X23.776 Y56.901
G0 X22.966 Y56.254
G0 X21.215 Y57.437
G0 X21.511 Y58.429
G0 X22.003 Y59.138
G1 F900 X21.756 Y58.869 E333.73229
G1 X21.848 Y59.205 E333.75154
G0 F12000 X21.511 Y58.429
G0 X20.822 Y57.656
G0 X18.897 Y58.528
G0 X19.022 Y59.556
G0 X19.386 Y60.341
G1 F900 X19.19 Y60.034 E333.78221
G1 X19.221 Y60.372 E333.80066
G0 F12000 X19.022 Y59.556
G0 X18.473 Y58.678
G0 X16.426 Y59.209
G0 X16.377 Y60.243
G0 X16.603 Y61.076
G1 F900 X16.463 Y60.745 E333.83074
G1 X16.437 Y61.08 E333.8491
G0 F12000 X16.377 Y60.243
G0 X16.426 Y59.209
G0 X17.482 Y57.85
; TYPE:BOTTOM-FILL
G1 F900 X9.826 Y57.85 E334.46978
G0 F12000 X8.023 Y57.2
G1 F900 X19.284 Y57.2 E335.38273
G0 F12000 X20.649 Y56.55
G1 F900 X6.657 Y56.55 E336.51708
G0 F12000 X5.695 Y55.9
G1 F900 X21.611 Y55.9 E337.80742
G0 F12000 X22.547 Y55.25
G1 F900 X4.758 Y55.25 E339.2496
G0 F12000 X4.08 Y54.6
G1 F900 X23.226 Y54.6 E340.8018
G0 F12000 X23.906 Y53.95
G1 F900 X3.403 Y53.95 E342.46401
G0 F12000 X2.833 Y53.3
G1 F900 X24.475 Y53.3 E344.21856
G0 F12000 X24.956 Y52.65
G1 F900 X2.352 Y52.65 E346.0511
G0 F12000 X1.87 Y52
G1 F900 X25.438 Y52 E347.96179
G0 F12000 X25.827 Y51.35
G1 F900 X1.482 Y51.35 E349.93548
G0 F12000 X1.155 Y50.7
G1 F900 X26.153 Y50.7 E351.96211
G0 F12000 X26.48 Y50.05
G1 F900 X0.829 Y50.05 E354.04168
G0 F12000 X0.542 Y49.4
G1 F900 X26.768 Y49.4 E356.16786
G0 F12000 X26.967 Y48.75
G1 F900 X14.834 Y48.75 E357.1515
G0 F12000 X16.183 Y48.1
G1 F900 X27.166 Y48.1 E358.04191
G0 F12000 X27.365 Y47.45
G1 F900 X16.962 Y47.45 E358.8853
G0 F12000 X17.461 Y46.8
G1 F900 X27.469 Y46.8 E359.69666
G0 F12000 X27.553 Y46.15
G1 F900 X17.788 Y46.15 E360.48833
G0 F12000 X18.045 Y45.5
G1 F900 X27.637 Y45.5 E361.26596
G0 F12000 X27.7 Y44.85
G1 F900 X18.132 Y44.85 E362.04166
G0 F12000 X18.174 Y44.2
G1 F900 X27.673 Y44.2 E362.81176
G0 F12000 X27.645 Y43.55
G1 F900 X18.088 Y43.55 E363.58656
G0 F12000 X17.92 Y42.9
G1 F900 X27.618 Y42.9 E364.37279
G0 F12000 X27.533 Y42.25
G1 F900 X17.651 Y42.25 E365.17394
G0 F12000 X17.208 Y41.6
G1 F900 X27.393 Y41.6 E365.99965
G0 F12000 X27.254 Y40.95
G1 F900 X16.6 Y40.95 E366.86339
G0 F12000 X15.607 Y40.3
G1 F900 X27.114 Y40.3 E367.79628
G0 F12000 X26.862 Y39.65
G1 F900 X0.447 Y39.65 E369.93779
G0 F12000 X0.195 Y40.3
G1 F900 X11.698 Y40.3 E370.87035
G0 F12000 X10.705 Y40.95
G1 F900 X0.056 Y40.95 E371.73368
G0 F12000 X-0.082 Y41.6
G1 F900 X10.097 Y41.6 E372.55891
G0 F12000 X9.653 Y42.25
G1 F900 X-0.222 Y42.25 E373.35949
G0 F12000 X-0.308 Y42.9
G1 F900 X9.386 Y42.9 E374.1454
G0 F12000 X9.219 Y43.55
G1 F900 X-0.335 Y43.55 E374.91996
G0 F12000 X-0.363 Y44.2
G1 F900 X9.132 Y44.2 E375.68973
G0 F12000 X9.175 Y44.85
G1 F900 X-0.39 Y44.85 E376.46518
G0 F12000 X-0.326 Y45.5
G1 F900 X9.261 Y45.5 E377.24242
G0 F12000 X9.517 Y46.15
G1 F900 X-0.242 Y46.15 E378.03359
G0 F12000 X-0.158 Y46.8
G1 F900 X9.843 Y46.8 E378.84439
G0 F12000 X10.344 Y47.45
G1 F900 X-0.052 Y47.45 E379.68721
G0 F12000 X0.145 Y48.1
G1 F900 X11.121 Y48.1 E380.57705
G0 F12000 X12.472 Y48.75
G1 F900 X0.343 Y48.75 E381.56037
G1 F6000 E379.06037
G0 F900 X10.343 Y48.75
G1 Z0.8
G0 F12000 X0.708 Y39
G1 Z0.3
G1 F6000 E381.56037
G1 F900 X26.601 Y39 E383.65956
G0 F12000 X26.339 Y38.35
G1 F900 X0.97 Y38.35 E385.71626
G0 F12000 X1.303 Y37.7
G1 F900 X26.005 Y37.7 E387.71889
G0 F12000 X25.605 Y37.05
G1 F900 X1.702 Y37.05 E389.65675
G0 F12000 X2.101 Y36.4
G1 F900 X25.205 Y36.4 E391.52982
G0 F12000 X24.74 Y35.75
G1 F900 X2.569 Y35.75 E393.32726
G0 F12000 X3.141 Y35.1
G1 F900 X24.168 Y35.1 E395.03195
G0 F12000 X23.596 Y34.45
G1 F900 X3.713 Y34.45 E396.6439
G0 F12000 X4.432 Y33.8
G1 F900 X22.877 Y33.8 E398.13926
G0 F12000 X22.072 Y33.15
G1 F900 X5.235 Y33.15 E399.50427
G0 F12000 X6.159 Y32.5
G1 F900 X21.149 Y32.5 E400.71953
G0 F12000 X19.985 Y31.85
G1 F900 X7.324 Y31.85 E401.74598
G0 F12000 X8.849 Y31.2
G1 F900 X18.459 Y31.2 E402.52507
G0 F12000 X16.003 Y30.55
G1 F900 X11.298 Y30.55 E402.90652
G1 F6000 E400.40652
G0 F900 X16.003 Y30.55
G0 X18.459 Y31.2
G0 X15.704 Y31.2
G1 Z0.8
G0 F12000 X1.648 Y35.206
G0 X0.703 Y34.786
G0 X-0.692 Y33.275
G0 X-21.202 Y33.275
G0 X-21.202 Y20.14
G0 X-13.939 Y20.14
G0 X-14.172 Y19.82
; TYPE:WALL-OUTER
G1 Z0.3
G1 F6000 E402.90652
G1 F900 X-14.085 Y19.563 E402.93579
G1 X-14.442 Y19.58 E402.98086
G0 F12000 X-14.253 Y19.329
G1 F900 X-14.482 Y19.156 E403.00412
G1 X-15.087 Y18.799 E403.06108
G1 X-15.926 Y18.415 E403.13588
G1 X-15.813 Y17.347 E403.22295
G1 X-14.847 Y17.126 E403.30329
G1 X-14.183 Y16.894 E403.36031
G0 F12000 X-14.111 Y16.588
G1 F900 X-13.792 Y16.427 E403.38741
G1 X-13.768 Y16.697 E403.40938
G0 F12000 X-14.04 Y16.282
G1 F900 X-14.326 Y16.215 E403.4332
G1 X-15.023 Y16.135 E403.49007
G1 X-15.941 Y16.126 E403.5645
G1 X-16.273 Y15.103 E403.6517
G1 X-15.483 Y14.512 E403.73168
G1 X-14.968 Y14.027 E403.78903
G0 F12000 X-15.027 Y13.718
G1 F900 X-14.809 Y13.444 E403.81563
G1 X-14.672 Y13.682 E403.83789
G0 F12000 X-15.087 Y13.41
G1 F900 X-15.373 Y13.465 E403.8615
G1 X-16.041 Y13.674 E403.91825
G1 X-16.886 Y14.042 E403.99297
G1 X-17.596 Y13.25 E404.0792
G1 X-17.124 Y12.38 E404.15945
G1 X-16.851 Y11.728 E404.21675
G0 F12000 X-17.031 Y11.47
G1 F900 X-16.792 Y11.233 E404.24395
G1 X-17.009 Y11.072 E404.26586
G0 F12000 X-17.211 Y11.213
G1 F900 X-17.45 Y11.379 E404.28945
G1 X-17.972 Y11.838 E404.3458
G1 X-18.598 Y12.52 E404.42086
G1 X-19.569 Y12.089 E404.50698
G1 X-19.491 Y11.1 E404.58741
G1 X-19.507 Y10.389 E404.64507
G0 F12000 X-19.775 Y10.227
G1 F900 X-19.833 Y9.885 E404.67137
G1 X-19.565 Y9.942 E404.69359
G0 F12000 X-20.044 Y10.066
G1 F900 X-20.197 Y10.32 E404.71763
G1 X-20.487 Y10.953 E404.77407
G1 X-20.78 Y11.828 E404.84888
G1 X-21.842 Y11.828 E404.93498
G1 X-22.175 Y10.891 E405.0156
G1 X-22.476 Y10.251 E405.07294
G0 F12000 X-22.788 Y10.213
G1 F900 X-22.801 Y9.885 E405.0993
G1 X-23.071 Y9.942 E405.12168
G0 F12000 X-23.1 Y10.175
G1 F900 X-23.136 Y10.468 E405.14561
G1 X-23.144 Y11.164 E405.20204
G1 X-23.056 Y12.083 E405.27688
G1 X-24.025 Y12.514 E405.36286
G1 X-24.714 Y11.79 E405.44389
G1 X-25.241 Y11.337 E405.50023
G0 F12000 X-25.543 Y11.429
G1 F900 X-25.696 Y11.126 E405.52766
G1 X-25.918 Y11.283 E405.54971
G0 F12000 X-25.845 Y11.522
G1 F900 X-25.762 Y11.797 E405.57299
G1 X-25.485 Y12.438 E405.62961
G1 X-25.031 Y13.24 E405.70432
G1 X-25.75 Y14.041 E405.79158
G1 X-26.663 Y13.649 E405.87214
G1 X-27.337 Y13.446 E405.9292
G0 F12000 X-27.574 Y13.652
