; Generated with MatterSlice 1.0
; filamentDiameter = 1.75
; extrusionWidth = 0.5
; firstLayerExtrusionWidth = 0.65
; layerThickness = 0.2
; firstLayerThickness = 0.3
; automatic settings before start_gcode
G21 ; set units to millimeters
M107 ; fan off
M190 S60 ; wait for bed temperature to be reached
M104 T0 S210 ; start heating extruder 1
M109 T0 S210 ; wait for extruder 1
T0 ; set the active extruder to 0
; settings from start_gcode
G28
; automatic settings after start_gcode
T0 ; set the active extruder to 0
G90 ; use absolute coordinates
G92 E0 ; reset the expected extruder position
M82 ; use absolute distance for extrusion
; Layer count: 15
; Layer Change GCode
; LAYER:0
M400
M107
G0 F12000 X33.126 Y-50.967 Z0.8
; TYPE:SKIRT
G1 Z0.3
G1 F6000 E0
G1 F900 X36.039 Y-50.661 E0.23746
G1 X37.266 Y-50.399 E0.33918
G1 X40.048 Y-49.496 E0.5763
G1 X41.196 Y-48.985 E0.67818
G1 X43.729 Y-47.522 E0.91532
G1 X44.744 Y-46.785 E1.01702
G1 X46.919 Y-44.826 E1.25433
G1 X47.759 Y-43.895 E1.35598
G1 X49.48 Y-41.525 E1.59344
G1 X50.107 Y-40.44 E1.69503
G1 X51.298 Y-37.765 E1.93242
G1 X51.686 Y-36.573 E2.03405
G1 X52.295 Y-33.707 E2.27159
G1 X52.425 Y-32.46 E2.37323
G1 X52.425 Y-29.535 E2.61037
G1 X52.295 Y-28.288 E2.71201
G1 X51.703 Y-25.505 E2.94268
G1 X33.542 Y39.566 E8.4197
G1 X33.148 Y40.32 E8.48867
G1 X32.516 Y41.36 E8.58733
G1 X29.94 Y43.937 E8.88273
G1 X29.206 Y44.406 E8.95335
G1 X28.135 Y44.994 E9.0524
G1 X24.678 Y45.92 E9.34255
G1 X-40.756 Y50.954 E14.66306
G1 X-41.256 Y50.975 E14.70363
G1 X-42.474 Y50.949 E14.8024
G1 X-45.996 Y50.005 E15.09801
G1 X-46.769 Y49.603 E15.16865
G1 X-47.813 Y48.969 E15.26767
G1 X-50.389 Y46.392 E15.56308
G1 X-50.856 Y45.66 E15.63347
G1 X-51.444 Y44.589 E15.73252
G1 X-52.389 Y41.063 E16.02847
G1 X-52.424 Y40.237 E16.09549
G1 X-52.424 Y-48.256 E23.26976
G1 X-38.843 Y-50.972 E24.3926
G1 X1.549 Y-50.972 E27.66724
G1 X33.126 Y-50.967 E30.22724
G0 F12000 X33.092 Y-50.317
G1 F900 X35.937 Y-50.018 E30.45916
G1 X37.098 Y-49.771 E30.55539
G1 X39.815 Y-48.889 E30.78697
G1 X40.9 Y-48.406 E30.88326
G1 X43.375 Y-46.976 E31.11499
G1 X44.335 Y-46.279 E31.21117
G1 X46.459 Y-44.366 E31.44291
G1 X47.253 Y-43.485 E31.53907
G1 X48.934 Y-41.171 E31.77094
G1 X49.527 Y-40.144 E31.86708
G1 X50.69 Y-37.532 E32.09889
G1 X51.057 Y-36.404 E32.19505
G1 X51.652 Y-33.606 E32.42696
G1 X51.775 Y-32.426 E32.52315
G1 X51.775 Y-29.569 E32.75477
G1 X51.652 Y-28.389 E32.85095
G1 X51.072 Y-25.66 E33.07714
G1 X32.934 Y39.326 E38.54702
G1 X32.582 Y40 E38.60866
G1 X32.001 Y40.956 E38.69936
G1 X29.531 Y43.427 E38.9826
G1 X28.875 Y43.846 E39.04571
G1 X27.891 Y44.386 E39.13671
G1 X24.568 Y45.277 E39.41562
G1 X-40.795 Y50.305 E44.73036
G1 X-41.263 Y50.325 E44.76834
G1 X-42.382 Y50.301 E44.85908
G1 X-45.759 Y49.396 E45.14252
G1 X-46.45 Y49.036 E45.20568
G1 X-47.408 Y48.454 E45.29656
G1 X-49.879 Y45.982 E45.57992
G1 X-50.297 Y45.328 E45.64285
G1 X-50.837 Y44.345 E45.73378
G1 X-51.742 Y40.964 E46.01753
G1 X-51.774 Y40.223 E46.07766
G1 X-51.774 Y-47.723 E53.20758
G1 X-38.778 Y-50.322 E54.28205
G1 X1.549 Y-50.322 E57.55142
G1 X33.092 Y-50.317 E60.10866
G1 F6000 E57.60866
G0 F900 X23.092 Y-50.318
G1 Z0.8
G0 F12000 X15.049 Y-50.497
G0 X15.049 Y-18.497
G0 X11.549 Y-18.497
G0 X11.549 Y-14.997
G0 X10.574 Y-14.022
G0 X0.574 Y-14.022
G0 X-12.474 Y-14.022
G0 X-24.424 Y-14.022
G0 X-37.474 Y-14.022
G0 X-38.124 Y-14.022
G0 X-38.124 Y-14.672
; TYPE:WALL-OUTER
G1 Z0.3
G1 F6000 E60.10866
G1 F900 X-38.124 Y-16.672 E60.27081
G1 X-23.774 Y-16.672 E61.43418
G1 X-23.774 Y-14.672 E61.59633
G1 X-13.124 Y-14.672 E62.45974
G1 X-13.124 Y-16.672 E62.62188
G1 X1.224 Y-16.672 E63.7851
G1 X1.224 Y-14.672 E63.94724
G1 X11.224 Y-14.672 E64.75796
G1 X11.224 Y7.676 E66.56974
G1 X-48.124 Y7.676 E71.38118
G1 X-48.124 Y-14.672 E73.19297
G1 X-38.124 Y-14.672 E74.00368
G0 F12000 X-38.124 Y-14.022
G0 X-37.474 Y-14.022
; TYPE:WALL-INNER
G1 F900 X-37.474 Y-16.022 E74.16583
G1 X-24.424 Y-16.022 E75.22381
G1 X-24.424 Y-14.022 E75.38595
G1 X-12.474 Y-14.022 E76.35476
G1 X-12.474 Y-16.022 E76.5169
G1 X0.574 Y-16.022 E77.57472
G1 X0.574 Y-14.022 E77.73687
G1 X10.574 Y-14.022 E78.54758
G1 X10.574 Y7.026 E80.25398
G1 X-47.474 Y7.026 E84.96002
G1 X-47.474 Y-14.022 E86.66641
G1 X-37.474 Y-14.022 E87.47713
G0 F12000 X-36.824 Y-13.372
G1 F900 X-36.824 Y-15.372 E87.63927
G1 X-25.074 Y-15.372 E88.59186
G1 X-25.074 Y-13.372 E88.75401
G1 X-11.824 Y-13.372 E89.82821
G1 X-11.824 Y-15.372 E89.99035
G1 X-0.076 Y-15.372 E90.94278
G1 X-0.076 Y-13.372 E91.10492
G1 X9.924 Y-13.372 E91.91564
G1 X9.924 Y6.376 E93.51664
G1 X-46.824 Y6.376 E98.11729
G1 X-46.824 Y-13.372 E99.71829
G1 X-36.824 Y-13.372 E100.52901
G1 F6000 E98.02901
G0 F900 X-46.824 Y-13.372
G1 Z0.8
G0 F12000 X-35.08 Y2.035
G0 X-34.962 Y2.937
G0 X-34.614 Y3.777
G0 X-34.06 Y4.498
G0 X-33.339 Y5.052
G0 X-32.499 Y5.4
G0 X-31.681 Y5.507
G0 X-31.597 Y4.863
; TYPE:WALL-OUTER
G1 Z0.3
G1 F6000 E100.52901
G1 F900 X-30.865 Y4.767 E100.58886
G1 X-30.183 Y4.484 E100.64872
G1 X-29.598 Y4.035 E100.70851
G1 X-29.148 Y3.449 E100.76841
G1 X-28.866 Y2.767 E100.82824
G1 X-28.769 Y2.035 E100.8881
G1 X-28.866 Y1.303 E100.94796
G1 X-29.148 Y0.621 E101.00779
G1 X-29.598 Y0.035 E101.06769
G1 X-30.183 Y-0.413 E101.12743
G1 X-30.865 Y-0.696 E101.18729
G1 X-31.597 Y-0.792 E101.24715
G1 X-32.329 Y-0.696 E101.307
G1 X-33.011 Y-0.413 E101.36686
G1 X-33.597 Y0.035 E101.42666
G1 X-34.046 Y0.621 E101.48651
G1 X-34.329 Y1.303 E101.54637
G1 X-34.425 Y2.035 E101.60623
G1 X-34.329 Y2.767 E101.66608
G1 X-34.046 Y3.449 E101.72594
G1 X-33.597 Y4.035 E101.78579
G1 X-33.011 Y4.484 E101.84564
G1 X-32.329 Y4.767 E101.9055
G1 X-31.597 Y4.863 E101.96536
G0 F12000 X-31.681 Y5.507
G0 X-31.597 Y5.518
; TYPE:WALL-INNER
G1 F900 X-30.695 Y5.4 E102.03911
G1 X-29.855 Y5.051 E102.11285
G1 X-29.135 Y4.498 E102.18645
G1 X-28.58 Y3.777 E102.26022
G1 X-28.233 Y2.937 E102.3339
G1 X-28.113 Y2.035 E102.40767
G1 X-28.233 Y1.133 E102.48144
G1 X-28.58 Y0.293 E102.55512
G1 X-29.135 Y-0.429 E102.62895
G1 X-29.856 Y-0.981 E102.70257
G1 X-30.695 Y-1.329 E102.7762
G1 X-31.597 Y-1.447 E102.84995
G1 X-32.499 Y-1.329 E102.9237
G1 X-33.338 Y-0.981 E102.99734
G1 X-34.06 Y-0.429 E103.07102
G1 X-34.614 Y0.293 E103.1448
G1 X-34.962 Y1.133 E103.21852
G1 X-35.08 Y2.035 E103.29227
G1 X-34.962 Y2.937 E103.36601
G1 X-34.614 Y3.777 E103.43973
G1 X-34.06 Y4.498 E103.51344
G1 X-33.339 Y5.052 E103.58716
G1 X-32.499 Y5.4 E103.66087
G1 X-31.597 Y5.518 E103.73462
G0 F12000 X-31.597 Y6.174
G1 F900 X-30.526 Y6.033 E103.8222
G1 X-29.527 Y5.619 E103.90987
G1 X-28.671 Y4.962 E103.99735
G1 X-28.012 Y4.104 E104.08506
G1 X-27.6 Y3.106 E104.17259
G1 X-27.458 Y2.035 E104.26018
G1 X-27.6 Y0.964 E104.34777
G1 X-28.012 Y-0.034 E104.4353
G1 X-28.672 Y-0.893 E104.52312
G1 X-29.528 Y-1.549 E104.61055
G1 X-30.526 Y-1.962 E104.69812
G1 X-31.597 Y-2.103 E104.78569
G1 X-32.668 Y-1.962 E104.87327
G1 X-33.665 Y-1.549 E104.96076
G1 X-34.523 Y-0.893 E105.04832
G1 X-35.181 Y-0.034 E105.13605
G1 X-35.595 Y0.964 E105.22364
G1 X-35.736 Y2.035 E105.31122
G1 X-35.595 Y3.106 E105.39879
G1 X-35.181 Y4.104 E105.48639
G1 X-34.524 Y4.962 E105.574
G1 X-33.666 Y5.619 E105.66161
G1 X-32.668 Y6.033 E105.7492
G1 X-31.597 Y6.174 E105.83678
G1 F6000 E103.33678
G0 F900 X-32.668 Y6.033
G0 X-33.666 Y5.619
G0 X-34.524 Y4.962
G0 X-35.181 Y4.104
G0 X-35.595 Y3.106
G0 X-35.736 Y2.035
G0 X-35.595 Y0.964
G0 X-35.181 Y-0.034
G0 X-34.523 Y-0.893
G0 X-34.303 Y-1.061
G1 Z0.8
G0 F12000 X-10.681 Y5.507
G0 X-10.597 Y4.863
; TYPE:WALL-OUTER
G1 Z0.3
G1 F6000 E105.83678
G1 F900 X-9.865 Y4.767 E105.89663
G1 X-9.183 Y4.484 E105.9565
G1 X-8.598 Y4.035 E106.01628
G1 X-8.148 Y3.449 E106.07618
G1 X-7.866 Y2.767 E106.13601
G1 X-7.769 Y2.035 E106.19588
G1 X-7.866 Y1.303 E106.25574
G1 X-8.148 Y0.621 E106.31557
G1 X-8.598 Y0.035 E106.37547
G1 X-9.183 Y-0.413 E106.43521
G1 X-9.865 Y-0.696 E106.49507
G1 X-10.597 Y-0.792 E106.55492
G1 X-11.329 Y-0.696 E106.61477
G1 X-12.011 Y-0.413 E106.67464
G1 X-12.597 Y0.035 E106.73444
G1 X-13.046 Y0.621 E106.79429
G1 X-13.329 Y1.303 E106.85415
G1 X-13.425 Y2.035 E106.914
G1 X-13.329 Y2.767 E106.97385
G1 X-13.046 Y3.449 E107.03372
G1 X-12.597 Y4.035 E107.09357
G1 X-12.011 Y4.484 E107.15342
G1 X-11.329 Y4.767 E107.21328
G1 X-10.597 Y4.863 E107.27313
G0 F12000 X-10.681 Y5.507
G0 X-10.597 Y5.518
; TYPE:WALL-INNER
G1 F900 X-9.695 Y5.4 E107.34688
G1 X-8.855 Y5.051 E107.42062
G1 X-8.135 Y4.498 E107.49423
G1 X-7.58 Y3.777 E107.56799
G1 X-7.233 Y2.937 E107.64167
G1 X-7.113 Y2.035 E107.71544
G1 X-7.233 Y1.133 E107.78921
G1 X-7.58 Y0.293 E107.8629
G1 X-8.135 Y-0.429 E107.93673
G1 X-8.856 Y-0.981 E108.01034
G1 X-9.695 Y-1.329 E108.08398
G1 X-10.597 Y-1.447 E108.15773
G1 X-11.499 Y-1.329 E108.23148
G1 X-12.338 Y-0.981 E108.30512
G1 X-13.06 Y-0.429 E108.3788
G1 X-13.614 Y0.293 E108.45258
G1 X-13.962 Y1.133 E108.52629
G1 X-14.08 Y2.035 E108.60004
G1 X-13.962 Y2.937 E108.67379
G1 X-13.614 Y3.777 E108.7475
G1 X-13.06 Y4.498 E108.82122
G1 X-12.339 Y5.052 E108.89493
G1 X-11.499 Y5.4 E108.96865
G1 X-10.597 Y5.518 E109.0424
G0 F12000 X-10.597 Y6.174
G1 F900 X-9.526 Y6.033 E109.12997
G1 X-8.527 Y5.619 E109.21764
G1 X-7.671 Y4.962 E109.30512
G1 X-7.012 Y4.104 E109.39283
G1 X-6.6 Y3.106 E109.48037
G1 X-6.458 Y2.035 E109.56795
G1 X-6.6 Y0.964 E109.65554
G1 X-7.012 Y-0.034 E109.74307
G1 X-7.672 Y-0.893 E109.8309
G1 X-8.528 Y-1.549 E109.91833
G1 X-9.526 Y-1.962 E110.00589
G1 X-10.597 Y-2.103 E110.09347
G1 X-11.668 Y-1.962 E110.18105
G1 X-12.665 Y-1.549 E110.26854
G1 X-13.523 Y-0.893 E110.3561
G1 X-14.181 Y-0.034 E110.44382
G1 X-14.595 Y0.964 E110.53142
G1 X-14.736 Y2.035 E110.61899
G1 X-14.595 Y3.106 E110.70657
G1 X-14.181 Y4.104 E110.79416
G1 X-13.524 Y4.962 E110.88177
G1 X-12.666 Y5.619 E110.96938
G1 X-11.668 Y6.033 E111.05698
G1 X-10.597 Y6.174 E111.14456
G1 F6000 E108.64456
G0 F900 X-11.668 Y6.033
G0 X-12.666 Y5.619
G0 X-13.524 Y4.962
G0 X-14.181 Y4.104
G0 X-14.595 Y3.106
G0 X-14.736 Y2.035
G0 X-14.595 Y0.964
G0 X-14.181 Y-0.034
G0 X-13.523 Y-0.893
G0 X-13.303 Y-1.061
G1 Z0.8
G0 F12000 X1.317 Y5.507
G0 X1.401 Y4.863
; TYPE:WALL-OUTER
G1 Z0.3
G1 F6000 E111.14456
G1 F900 X2.133 Y4.767 E111.20441
G1 X2.815 Y4.484 E111.26427
G1 X3.4 Y4.035 E111.32406
G1 X3.85 Y3.449 E111.38396
G1 X4.132 Y2.767 E111.44379
G1 X4.229 Y2.035 E111.50365
G1 X4.132 Y1.303 E111.56351
G1 X3.85 Y0.621 E111.62334
G1 X3.4 Y0.035 E111.68324
G1 X2.815 Y-0.413 E111.74298
G1 X2.133 Y-0.696 E111.80284
G1 X1.401 Y-0.792 E111.8627
G1 X0.669 Y-0.696 E111.92255
G1 X-0.013 Y-0.413 E111.98241
G1 X-0.598 Y0.035 E112.04215
G1 X-1.047 Y0.621 E112.102
G1 X-1.329 Y1.303 E112.16183
G1 X-1.425 Y2.035 E112.22168
G1 X-1.329 Y2.767 E112.28153
G1 X-1.047 Y3.449 E112.34136
G1 X-0.598 Y4.035 E112.40121
G1 X-0.013 Y4.484 E112.461
G1 X0.669 Y4.767 E112.52086
G1 X1.401 Y4.863 E112.58071
G0 F12000 X1.317 Y5.507
G0 X1.401 Y5.518
; TYPE:WALL-INNER
G1 F900 X2.303 Y5.4 E112.65446
G1 X3.143 Y5.051 E112.72821
G1 X3.863 Y4.498 E112.80181
G1 X4.418 Y3.777 E112.87557
G1 X4.765 Y2.937 E112.94926
G1 X4.885 Y2.035 E113.02303
G1 X4.765 Y1.133 E113.0968
G1 X4.418 Y0.293 E113.17048
G1 X3.863 Y-0.429 E113.24431
G1 X3.142 Y-0.981 E113.31793
G1 X2.303 Y-1.329 E113.39156
G1 X1.401 Y-1.447 E113.46531
G1 X0.499 Y-1.329 E113.53906
G1 X-0.34 Y-0.981 E113.6127
G1 X-1.061 Y-0.429 E113.68632
G1 X-1.615 Y0.294 E113.76016
G1 X-1.962 Y1.134 E113.83384
G1 X-2.08 Y2.035 E113.90751
G1 X-1.962 Y2.936 E113.98118
G1 X-1.615 Y3.776 E114.05486
G1 X-1.062 Y4.498 E114.12859
G1 X-0.341 Y5.051 E114.20226
G1 X0.499 Y5.4 E114.276
G1 X1.401 Y5.518 E114.34975
G0 F12000 X1.401 Y6.174
G1 F900 X2.472 Y6.033 E114.43733
G1 X3.471 Y5.619 E114.525
G1 X4.327 Y4.962 E114.61248
G1 X4.986 Y4.104 E114.70019
G1 X5.398 Y3.106 E114.78772
G1 X5.54 Y2.035 E114.87531
G1 X5.398 Y0.964 E114.9629
G1 X4.986 Y-0.034 E115.05043
G1 X4.326 Y-0.893 E115.13825
G1 X3.47 Y-1.549 E115.22569
G1 X2.472 Y-1.962 E115.31325
G1 X1.401 Y-2.103 E115.40083
G1 X0.33 Y-1.962 E115.4884
G1 X-0.668 Y-1.549 E115.57597
G1 X-1.525 Y-0.892 E115.66351
G1 X-2.183 Y-0.033 E115.75124
G1 X-2.595 Y0.965 E115.83877
G1 X-2.736 Y2.035 E115.92627
G1 X-2.595 Y3.105 E116.01376
G1 X-2.183 Y4.103 E116.1013
G1 X-1.526 Y4.961 E116.18891
G1 X-0.669 Y5.619 E116.2765
G1 X0.33 Y6.033 E116.36417
G1 X1.401 Y6.174 E116.45175
G0 F12000 X-1.374 Y5.85
; TYPE:BOTTOM-FILL
G1 F900 X-7.82 Y5.85 E116.97434
G0 F12000 X-7.349 Y5.2
G1 F900 X-1.845 Y5.2 E117.42055
G0 F12000 X-2.343 Y4.55
G1 F900 X-6.849 Y4.55 E117.78586
G0 F12000 X-6.495 Y3.9
G1 F900 X-2.699 Y3.9 E118.09361
G0 F12000 X-2.968 Y3.25
G1 F900 X-6.227 Y3.25 E118.35782
G0 F12000 X-6.129 Y2.6
G1 F900 X-3.065 Y2.6 E118.60623
G0 F12000 X-3.129 Y1.95
G1 F900 X-6.065 Y1.95 E118.84425
G0 F12000 X-6.152 Y1.3
G1 F900 X-3.043 Y1.3 E119.0963
G0 F12000 X-2.898 Y0.65
G1 F900 X-6.296 Y0.65 E119.37179
G0 F12000 X-6.564 Y0
G1 F900 X-2.63 Y0 E119.69072
G0 F12000 X-2.214 Y-0.649
G1 F900 X-6.98 Y-0.649 E120.07711
G0 F12000 X-7.545 Y-1.299
G1 F900 X-1.651 Y-1.3 E120.55494
G0 F12000 X-0.745 Y-1.95
G1 F900 X-8.45 Y-1.949 E121.1796
G0 F12000 X-12.742 Y-1.949
G1 F900 X-29.45 Y-1.949 E122.53414
G0 F12000 X-28.545 Y-1.299
G1 F900 X-13.648 Y-1.299 E123.74187
G0 F12000 X-14.214 Y-0.649
G1 F900 X-27.98 Y-0.649 E124.8579
G0 F12000 X-27.564 Y0
G1 F900 X-14.629 Y0 E125.90656
G0 F12000 X-14.898 Y0.65
G1 F900 X-27.296 Y0.65 E126.91169
G0 F12000 X-27.152 Y1.3
G1 F900 X-15.043 Y1.3 E127.89338
G0 F12000 X-15.129 Y1.95
G1 F900 X-27.065 Y1.95 E128.86105
G0 F12000 X-27.129 Y2.6
G1 F900 X-15.065 Y2.6 E129.8391
G0 F12000 X-14.967 Y3.25
G1 F900 X-27.227 Y3.25 E130.83304
G0 F12000 X-27.495 Y3.9
G1 F900 X-14.698 Y3.9 E131.87051
G0 F12000 X-14.342 Y4.55
G1 F900 X-27.85 Y4.55 E132.96562
G0 F12000 X-28.35 Y5.2
G1 F900 X-13.844 Y5.2 E134.14165
G0 F12000 X-13.375 Y5.85
G1 F900 X-28.82 Y5.85 E135.3938
G1 F6000 E132.8938
G0 F900 X-18.82 Y5.85
G1 Z0.8
G0 F12000 X-34.375 Y5.85
G1 Z0.3
G1 F6000 E135.3938
G1 F900 X-46.424 Y5.85 E136.37063
G0 F12000 X-46.424 Y5.2
G1 F900 X-34.844 Y5.2 E137.30944
G0 F12000 X-35.342 Y4.55
G1 F900 X-46.424 Y4.55 E138.20788
G0 F12000 X-46.424 Y3.9
G1 F900 X-35.698 Y3.9 E139.07745
G0 F12000 X-35.967 Y3.25
G1 F900 X-46.424 Y3.25 E139.92521
G0 F12000 X-46.424 Y2.6
G1 F900 X-36.065 Y2.6 E140.76503
G0 F12000 X-36.129 Y1.95
G1 F900 X-46.424 Y1.95 E141.59967
G0 F12000 X-46.424 Y1.3
G1 F900 X-36.043 Y1.3 E142.44127
G0 F12000 X-35.898 Y0.65
G1 F900 X-46.424 Y0.65 E143.29463
G0 F12000 X-46.424 Y0
G1 F900 X-35.629 Y0 E144.1698
G0 F12000 X-35.214 Y-0.649
G1 F900 X-46.424 Y-0.649 E145.07861
G0 F12000 X-46.424 Y-1.299
G1 F900 X-34.648 Y-1.299 E146.03331
G0 F12000 X-33.742 Y-1.949
G1 F900 X-46.424 Y-1.949 E147.06146
G0 F12000 X-46.424 Y-2.599
G1 F900 X9.524 Y-2.6 E151.59725
G0 F12000 X9.524 Y-1.95
G1 F900 X3.546 Y-1.95 E152.0819
G0 F12000 X4.452 Y-1.3
G1 F900 X9.524 Y-1.3 E152.49309
G0 F12000 X9.524 Y-0.65
G1 F900 X5.017 Y-0.65 E152.85848
G0 F12000 X5.433 Y0
G1 F900 X9.524 Y0 E153.19015
G0 F12000 X9.524 Y0.649
G1 F900 X5.701 Y0.649 E153.50008
G0 F12000 X5.846 Y1.299
G1 F900 X9.524 Y1.299 E153.79826
G0 F12000 X9.524 Y1.949
G1 F900 X5.933 Y1.949 E154.08939
G0 F12000 X5.869 Y2.599
G1 F900 X9.524 Y2.599 E154.38571
G0 F12000 X9.524 Y3.249
G1 F900 X5.771 Y3.249 E154.68997
G0 F12000 X5.504 Y3.899
G1 F900 X9.524 Y3.899 E155.01588
G0 F12000 X9.524 Y4.549
G1 F900 X5.149 Y4.55 E155.37057
G0 F12000 X4.649 Y5.2
G1 F900 X9.524 Y5.199 E155.76579
G0 F12000 X9.524 Y5.849
G1 F900 X4.177 Y5.85 E156.19928
G1 F6000 E153.69928
G0 F900 X9.524 Y5.849
G0 X9.524 Y5.199
G0 X5.521 Y5.199
G1 Z0.8
G0 F12000 X9.524 Y-3.25
G1 Z0.3
G1 F6000 E156.19928
G1 F900 X-46.424 Y-3.249 E160.73507
G0 F12000 X-46.424 Y-3.899
G1 F900 X9.524 Y-3.9 E165.27087
G0 F12000 X9.524 Y-4.55
G1 F900 X-46.424 Y-4.549 E169.80666
G0 F12000 X-46.424 Y-5.199
G1 F900 X9.524 Y-5.2 E174.34245
G0 F12000 X9.524 Y-5.85
G1 F900 X-46.424 Y-5.849 E178.87824
G0 F12000 X-46.424 Y-6.499
G1 F900 X9.524 Y-6.5 E183.41404
G0 F12000 X9.524 Y-7.15
G1 F900 X-46.424 Y-7.149 E187.94983
G0 F12000 X-46.424 Y-7.799
G1 F900 X9.524 Y-7.8 E192.48562
G0 F12000 X9.524 Y-8.45
G1 F900 X-46.424 Y-8.449 E197.02141
G0 F12000 X-46.424 Y-9.099
G1 F900 X9.524 Y-9.1 E201.55721
G0 F12000 X9.524 Y-9.75
G1 F900 X-46.424 Y-9.749 E206.093
G0 F12000 X-46.424 Y-10.399
G1 F900 X9.524 Y-10.4 E210.62879
G0 F12000 X9.524 Y-11.05
G1 F900 X-46.424 Y-11.049 E215.16459
G0 F12000 X-46.424 Y-11.699
G1 F900 X9.524 Y-11.7 E219.70038
G0 F12000 X9.524 Y-12.35
G1 F900 X-46.424 Y-12.349 E224.23617
G1 F6000 E221.73617
G0 F900 X-36.424 Y-12.349
G1 Z0.8
G0 F12000 X-36.424 Y-12.999
G1 Z0.3
G1 F6000 E224.23617
G1 F900 X-25.474 Y-12.999 E225.1239
G0 F12000 X-25.474 Y-13.649
G1 F900 X-36.424 Y-13.649 E226.01164
G0 F12000 X-36.424 Y-14.299
G1 F900 X-25.474 Y-14.299 E226.89937
G0 F12000 X-25.474 Y-14.949
G1 F900 X-36.424 Y-14.949 E227.78711
G1 F6000 E225.28711
G0 F900 X-26.424 Y-14.949
G1 Z0.8
G0 F12000 X-24.424 Y-14.022
G0 X-12.474 Y-14.022
G0 X-11.423 Y-14.95
G1 Z0.3
G1 F6000 E227.78711
G1 F900 X-0.475 Y-14.95 E228.67468
G0 F12000 X-0.475 Y-14.3
G1 F900 X-11.423 Y-14.3 E229.56225
G0 F12000 X-11.424 Y-13.65
G1 F900 X-0.475 Y-13.65 E230.4499
G0 F12000 X-0.475 Y-13
G1 F900 X-11.424 Y-13 E231.33755
G1 F6000 E228.83755
G0 F900 X-1.424 Y-13
G1 Z0.8
G0 F12000 X-13.962 Y1.133
G0 X-14.08 Y2.035
G0 X-13.962 Y2.937
G0 X-13.614 Y3.777
G0 X-13.06 Y4.498
G0 X-12.339 Y5.052
G0 X-11.617 Y5.35
G0 X-11.244 Y4.45
G0 X-13.449 Y15.001
G0 X-14.424 Y15.001
G0 X-14.424 Y17.326
G0 X-13.774 Y17.326
; TYPE:WALL-OUTER
G1 Z0.3
G1 F6000 E231.33755
G1 F900 X1.874 Y17.326 E232.60616
G1 X1.874 Y14.676 E232.821
G1 X-13.774 Y14.676 E234.08961
G1 X-13.774 Y17.326 E234.30445
G0 F12000 X-14.424 Y17.326
G0 X-14.424 Y17.976
; TYPE:WALL-INNER
G1 F900 X2.524 Y17.976 E235.67845
G1 X2.524 Y14.026 E235.99868
G1 X-14.424 Y14.026 E237.37269
G1 X-14.424 Y17.976 E237.69292
G0 F12000 X-15.074 Y18.626
G1 F900 X3.174 Y18.626 E239.17231
G1 X3.174 Y14.626 E239.4966
G1 X9.924 Y14.626 E240.04383
G1 X9.924 Y29.376 E241.23964
G1 X3.174 Y29.376 E241.78687
G1 X3.174 Y25.376 E242.11116
G1 X-15.074 Y25.376 E243.59055
G1 X-15.074 Y29.376 E243.91484
G1 X-21.824 Y29.376 E244.46207
G1 X-21.824 Y25.376 E244.78636
G1 X-40.074 Y25.376 E246.26591
G1 X-40.074 Y29.376 E246.5902
G1 X-46.824 Y29.376 E247.13743
G1 X-46.824 Y14.626 E248.33324
G1 X-40.074 Y14.626 E248.88047
G1 X-40.074 Y18.626 E249.20476
G1 X-21.824 Y18.626 E250.68431
G1 X-21.824 Y14.626 E251.0086
G1 X-15.074 Y14.626 E251.55583
G1 X-15.074 Y18.626 E251.88012
G1 F6000 E249.38012
G0 F900 X-15.074 Y14.626
G0 X-21.074 Y14.626
G1 Z0.8
G0 F12000 X-14.424 Y29.326
G0 X-13.774 Y29.326
; TYPE:WALL-OUTER
G1 Z0.3
G1 F6000 E251.88012
G1 F900 X1.874 Y29.326 E253.14873
G1 X1.874 Y26.676 E253.36357
G1 X-13.774 Y26.676 E254.63218
G1 X-13.774 Y29.326 E254.84702
G0 F12000 X-14.424 Y29.326
G0 X-14.424 Y29.976
; TYPE:WALL-INNER
G1 F900 X2.524 Y29.976 E256.22102
G1 X2.524 Y26.026 E256.54125
G1 X-14.424 Y26.026 E257.91525
G1 X-14.424 Y29.976 E258.23548
G1 F6000 E255.73548
G0 F900 X-14.424 Y26.026
G0 X-8.374 Y26.026
G1 Z0.8
G0 F12000 X-22.474 Y29.976
G0 X-39.424 Y29.976
G0 X-39.424 Y29.326
G0 X-38.774 Y29.326
; TYPE:WALL-OUTER
G1 Z0.3
G1 F6000 E258.23548
G1 F900 X-23.124 Y29.326 E259.50425
G1 X-23.124 Y26.676 E259.71909
G1 X-38.774 Y26.676 E260.98786
G1 X-38.774 Y29.326 E261.2027
G0 F12000 X-39.424 Y29.326
G0 X-39.424 Y29.976
; TYPE:WALL-INNER
G1 F900 X-22.474 Y29.976 E262.57687
G1 X-22.474 Y26.026 E262.8971
G1 X-39.424 Y26.026 E264.27126
G1 X-39.424 Y29.976 E264.59149
G1 F6000 E262.09149
G0 F900 X-39.424 Y26.026
G0 X-33.374 Y26.026
G1 Z0.8
G0 F12000 X-47.474 Y30.026
G0 X-48.124 Y30.676
; TYPE:WALL-OUTER
G1 Z0.3
G1 F6000 E264.59149
G1 F900 X-48.124 Y13.326 E265.99809
G1 X11.224 Y13.326 E270.80952
G1 X11.224 Y30.676 E272.21611
G1 X-48.124 Y30.676 E277.02755
G0 F12000 X-47.474 Y30.026
; TYPE:WALL-INNER
G1 F900 X-47.474 Y13.976 E278.32875
G1 X10.574 Y13.976 E283.03479
G1 X10.574 Y30.026 E284.33599
G1 X-47.474 Y30.026 E289.04203
G1 F6000 E286.54203
G0 F900 X-37.474 Y30.026
G1 Z0.8
G0 F12000 X-39.424 Y17.326
G0 X-38.774 Y17.326
; TYPE:WALL-OUTER
G1 Z0.3
G1 F6000 E289.04203
G1 F900 X-23.124 Y17.326 E290.3108
G1 X-23.124 Y14.676 E290.52564
G1 X-38.774 Y14.676 E291.79441
G1 X-38.774 Y17.326 E292.00925
G0 F12000 X-39.424 Y17.326
G0 X-39.424 Y17.976
; TYPE:WALL-INNER
G1 F900 X-22.474 Y17.976 E293.38342
G1 X-22.474 Y14.026 E293.70365
G1 X-39.424 Y14.026 E295.07781
G1 X-39.424 Y17.976 E295.39805
G0 F12000 X-40.474 Y18.2
; TYPE:BOTTOM-FILL
G1 F900 X-46.424 Y18.2 E295.88042
G0 F12000 X-46.424 Y17.55
G1 F900 X-40.474 Y17.55 E296.3628
G0 F12000 X-40.474 Y16.9
G1 F900 X-46.424 Y16.9 E296.84517
G0 F12000 X-46.424 Y16.25
G1 F900 X-40.474 Y16.25 E297.32755
G0 F12000 X-40.474 Y15.6
G1 F900 X-46.424 Y15.6 E297.80993
G0 F12000 X-46.424 Y18.85
G1 F900 X-40.474 Y18.85 E298.2923
G1 F6000 E295.7923
G0 F900 X-46.424 Y18.85
G0 X-46.424 Y15.6
G0 X-45.624 Y15.6
G1 Z0.8
G0 F12000 X-46.424 Y19.5
G1 Z0.3
G1 F6000 E298.2923
G1 F900 X9.523 Y19.5 E302.82801
G0 F12000 X9.523 Y18.85
G1 F900 X3.573 Y18.85 E303.31039
G0 F12000 X3.573 Y18.2
G1 F900 X9.523 Y18.2 E303.79277
G0 F12000 X9.523 Y17.55
G1 F900 X3.573 Y17.55 E304.27514
G0 F12000 X3.573 Y16.9
G1 F900 X9.523 Y16.9 E304.75752
G0 F12000 X9.523 Y16.25
G1 F900 X3.573 Y16.25 E305.23989
G0 F12000 X3.573 Y15.6
G1 F900 X9.523 Y15.6 E305.72227
G0 F12000 X9.523 Y20.15
G1 F900 X-46.424 Y20.15 E310.25798
G0 F12000 X-46.424 Y20.8
G1 F900 X9.523 Y20.8 E314.79369
G0 F12000 X9.523 Y21.45
G1 F900 X-46.424 Y21.45 E319.3294
G0 F12000 X-46.424 Y22.1
G1 F900 X9.523 Y22.1 E323.86512
G0 F12000 X9.523 Y22.75
G1 F900 X-46.424 Y22.75 E328.40083
G0 F12000 X-46.424 Y23.4
G1 F900 X9.523 Y23.4 E332.93654
G0 F12000 X9.523 Y24.05
G1 F900 X-46.424 Y24.05 E337.47225
G0 F12000 X-46.424 Y24.7
G1 F900 X9.523 Y24.7 E342.00796
G0 F12000 X9.523 Y25.35
G1 F900 X3.573 Y25.35 E342.49034
G0 F12000 X3.573 Y26
G1 F900 X9.523 Y26 E342.97271
G0 F12000 X9.523 Y26.65
G1 F900 X3.573 Y26.65 E343.45509
G0 F12000 X3.573 Y27.3
G1 F900 X9.523 Y27.3 E343.93747
G0 F12000 X9.523 Y27.95
G1 F900 X3.573 Y27.95 E344.41984
G0 F12000 X3.573 Y28.6
G1 F900 X9.523 Y28.6 E344.90222
G1 F6000 E342.40222
G0 F900 X3.573 Y28.6
G0 X3.573 Y27.95
G0 X6.973 Y27.95
G1 Z0.8
G0 F12000 X2.524 Y29.976
G0 X-14.424 Y29.976
G0 X-15.473 Y28.6
G1 Z0.3
G1 F6000 E344.90222
G1 F900 X-21.424 Y28.6 E345.38467
G0 F12000 X-21.424 Y27.95
G1 F900 X-15.473 Y27.95 E345.86713
G0 F12000 X-15.473 Y27.3
G1 F900 X-21.424 Y27.3 E346.34959
G0 F12000 X-21.424 Y26.65
G1 F900 X-15.473 Y26.65 E346.83205
G0 F12000 X-15.473 Y26
G1 F900 X-21.424 Y26 E347.3145
G0 F12000 X-21.424 Y25.35
G1 F900 X-15.473 Y25.35 E347.79696
G1 F6000 E345.29696
G0 F900 X-21.424 Y25.35
G0 X-21.424 Y26
G0 X-18.025 Y26
G1 Z0.8
G0 F12000 X-15.473 Y18.85
G1 Z0.3
G1 F6000 E347.79696
G1 F900 X-21.424 Y18.85 E348.27942
G0 F12000 X-21.424 Y18.2
G1 F900 X-15.473 Y18.2 E348.76187
G0 F12000 X-15.473 Y17.55
G1 F900 X-21.424 Y17.55 E349.24433
G0 F12000 X-21.424 Y16.9
G1 F900 X-15.473 Y16.9 E349.72679
G0 F12000 X-15.473 Y16.25
G1 F900 X-21.424 Y16.25 E350.20924
G0 F12000 X-21.424 Y15.6
G1 F900 X-15.473 Y15.6 E350.6917
G1 F6000 E348.1917
G0 F900 X-21.424 Y15.6
G0 X-21.424 Y16.25
G0 X-18.025 Y16.25
G1 Z0.8
G0 F12000 X-40.474 Y25.35
G1 Z0.3
G1 F6000 E350.6917
G1 F900 X-46.424 Y25.35 E351.17408
G0 F12000 X-46.424 Y26
G1 F900 X-40.474 Y26 E351.65645
G0 F12000 X-40.474 Y26.65
G1 F900 X-46.424 Y26.65 E352.13883
G0 F12000 X-46.424 Y27.3
G1 F900 X-40.474 Y27.3 E352.6212
G0 F12000 X-40.474 Y27.95
G1 F900 X-46.424 Y27.95 E353.10358
G0 F12000 X-46.424 Y28.6
G1 F900 X-40.474 Y28.6 E353.58596
G1 F6000 E351.08596
G0 F900 X-46.424 Y28.6
G0 X-46.424 Y27.95
G0 X-43.024 Y27.95
G1 Z0.8
G0 F12000 X-39.424 Y26.026
G0 X2.524 Y17.976
G0 X10.574 Y13.976
G0 X11.549 Y13.001
G0 X16.562 Y15.457
G0 X19.595 Y14.997
G0 X19.649 Y15.001
G0 X20.17 Y16.941
G0 X20.119 Y16.976
G0 X20.174 Y16.949
G0 X21.592 Y18.371
G0 X21.563 Y18.431
G0 X21.601 Y18.375
G0 X23.094 Y18.777
G0 X22.926 Y19.404
; TYPE:WALL-OUTER
G1 Z0.3
G1 F6000 E353.58596
G1 F900 X21.88 Y19.123 E353.67376
G1 X21.319 Y19.955 E353.75512
G1 X20.844 Y20.494 E353.81336
G1 X20.402 Y20.886 E353.86126
G1 X20.021 Y20.66 E353.89717
G1 X20.128 Y20.123 E353.94156
G1 X20.357 Y19.444 E353.99966
G1 X20.807 Y18.504 E354.08415
G1 X20.042 Y17.737 E354.17197
G1 X19.137 Y18.179 E354.25362
G1 X18.456 Y18.408 E354.31187
G1 X17.881 Y18.525 E354.35944
G1 X17.664 Y18.139 E354.39534
G1 X18.024 Y17.727 E354.4397
G1 X18.564 Y17.251 E354.49806
G1 X19.423 Y16.664 E354.5824
G1 X19.142 Y15.618 E354.67021
G1 X18.143 Y15.549 E354.75139
G1 X17.433 Y15.405 E354.81013
G1 X16.877 Y15.22 E354.85763
G1 X16.882 Y14.777 E354.89355
G1 X17.4 Y14.601 E354.9379
G1 X18.104 Y14.458 E354.99614
G1 X19.142 Y14.38 E355.08053
G1 X19.423 Y13.333 E355.16842
G1 X18.592 Y12.772 E355.2497
G1 X18.053 Y12.297 E355.30795
G1 X17.661 Y11.855 E355.35584
G1 X17.887 Y11.474 E355.39176
G1 X18.424 Y11.58 E355.43613
G1 X19.1 Y11.807 E355.49394
G1 X20.043 Y12.261 E355.57879
G1 X20.808 Y11.494 E355.66662
G1 X20.369 Y10.592 E355.74795
G1 X20.139 Y9.908 E355.80645
G1 X20.021 Y9.333 E355.85404
G1 X20.409 Y9.116 E355.89008
G1 X20.815 Y9.473 E355.93391
G1 X21.295 Y10.016 E355.99266
G1 X21.882 Y10.876 E356.07708
G1 X22.928 Y10.595 E356.16489
G1 X22.998 Y9.595 E356.24616
G1 X23.141 Y8.886 E356.30479
G1 X23.326 Y8.329 E356.35238
G1 X23.401 Y8.326 E356.35846
G1 X23.77 Y8.334 E356.38838
G1 X23.946 Y8.851 E356.43266
G1 X24.088 Y9.556 E356.49096
G1 X24.168 Y10.595 E356.57545
G1 X25.214 Y10.876 E356.66325
G1 X25.775 Y10.044 E356.74461
G1 X26.25 Y9.505 E356.80285
G1 X26.692 Y9.113 E356.85075
G1 X27.073 Y9.339 E356.88666
G1 X26.966 Y9.878 E356.93121
G1 X26.741 Y10.55 E356.98866
G1 X26.286 Y11.495 E357.07369
G1 X27.052 Y12.262 E357.16157
G1 X27.957 Y11.82 E357.24323
G1 X28.638 Y11.591 E357.30148
G1 X29.214 Y11.474 E357.34913
G1 X29.431 Y11.86 E357.38503
G1 X29.07 Y12.272 E357.42944
G1 X28.53 Y12.748 E357.48779
G1 X27.671 Y13.335 E357.57214
G1 X27.952 Y14.381 E357.65995
G1 X28.951 Y14.45 E357.74113
G1 X29.661 Y14.594 E357.79987
G1 X30.217 Y14.779 E357.84737
G1 X30.212 Y15.222 E357.88329
G1 X29.694 Y15.398 E357.92764
G1 X28.99 Y15.541 E357.98588
G1 X27.952 Y15.619 E358.07027
G1 X27.671 Y16.666 E358.15816
G1 X28.502 Y17.227 E358.23944
G1 X29.041 Y17.702 E358.29769
G1 X29.433 Y18.144 E358.34558
G1 X29.207 Y18.525 E358.3815
G1 X28.67 Y18.419 E358.42587
G1 X27.994 Y18.192 E358.48368
G1 X27.051 Y17.738 E358.56853
G1 X26.285 Y18.505 E358.65641
G1 X26.728 Y19.412 E358.73825
G1 X26.954 Y20.088 E358.79603
G1 X27.073 Y20.666 E358.84388
G1 X26.686 Y20.884 E358.87989
G1 X26.279 Y20.526 E358.92383
G1 X25.799 Y19.983 E358.98259
G1 X25.212 Y19.123 E359.067
G1 X24.166 Y19.404 E359.15481
G1 X24.096 Y20.404 E359.23608
G1 X23.953 Y21.113 E359.29472
G1 X23.768 Y21.67 E359.3423
G1 X23.324 Y21.665 E359.3783
G1 X23.148 Y21.148 E359.42257
G1 X23.006 Y20.443 E359.48088
G1 X22.926 Y19.404 E359.56536
G0 F12000 X23.094 Y18.777
G0 X23.539 Y18.895
G0 X23.545 Y18.97
; TYPE:WALL-INNER
G1 F900 X23.539 Y18.895 E359.57146
G1 X21.601 Y18.375 E359.73413
G1 X20.174 Y16.949 E359.89768
G1 X19.649 Y15.001 E360.06125
G1 X20.171 Y13.054 E360.22467
G1 X21.595 Y11.625 E360.38822
G1 X21.605 Y11.623 E360.38905
G1 X23.544 Y11.103 E360.5518
G1 X23.549 Y11.029 E360.55781
G1 X23.555 Y11.104 E360.56391
G1 X25.493 Y11.624 E360.72659
G1 X26.92 Y13.05 E360.89014
G1 X27.445 Y14.998 E361.0537
G1 X26.923 Y16.945 E361.21712
G1 X25.498 Y18.374 E361.38073
G1 X23.55 Y18.896 E361.54423
G1 X23.545 Y18.97 E361.55024
G0 F12000 X23.539 Y18.895
G0 X23.247 Y18.46
G0 X23.369 Y17.822
; TYPE:WALL-OUTER
G1 F900 X24.077 Y17.777 E361.60776
G1 X24.751 Y17.558 E361.66521
G1 X25.35 Y17.178 E361.72272
G1 X25.835 Y16.662 E361.78013
G1 X26.177 Y16.04 E361.83768
G1 X26.352 Y15.354 E361.89507
G1 X26.352 Y14.645 E361.95255
G1 X26.177 Y13.959 E362.00995
G1 X25.835 Y13.337 E362.0675
G1 X25.35 Y12.821 E362.12491
G1 X24.751 Y12.441 E362.18242
G1 X24.077 Y12.222 E362.23987
G1 X23.369 Y12.177 E362.29739
G1 X22.674 Y12.311 E362.35477
G1 X22.033 Y12.612 E362.41218
G1 X21.486 Y13.064 E362.46971
G1 X21.069 Y13.637 E362.52716
G1 X20.809 Y14.297 E362.58467
G1 X20.719 Y15 E362.64213
G1 X20.809 Y15.702 E362.69951
G1 X21.069 Y16.362 E362.75702
G1 X21.486 Y16.935 E362.81447
G1 X22.033 Y17.387 E362.872
G1 X22.674 Y17.688 E362.92941
G1 X23.369 Y17.822 E362.98679
G0 F12000 X23.247 Y18.46
G0 X23.328 Y18.476
; TYPE:WALL-INNER
G1 F900 X24.2 Y18.42 E363.05763
G1 X25.03 Y18.151 E363.12837
G1 X25.768 Y17.683 E363.19921
G1 X26.365 Y17.047 E363.26993
G1 X26.786 Y16.281 E363.34079
G1 X27.002 Y15.436 E363.4115
G1 X27.002 Y14.563 E363.48228
G1 X26.786 Y13.718 E363.55298
G1 X26.365 Y12.952 E363.62385
G1 X25.768 Y12.316 E363.69457
G1 X25.03 Y11.848 E363.76541
G1 X24.2 Y11.579 E363.83615
G1 X23.328 Y11.523 E363.90699
G1 X22.471 Y11.688 E363.97774
G1 X21.682 Y12.059 E364.04843
G1 X21.009 Y12.615 E364.1192
G1 X20.495 Y13.322 E364.19006
G1 X20.174 Y14.134 E364.26085
G1 X20.064 Y15 E364.33162
G1 X20.174 Y15.865 E364.40231
G1 X20.495 Y16.677 E364.4731
G1 X21.009 Y17.384 E364.54397
G1 X21.682 Y17.94 E364.61474
G1 X22.471 Y18.311 E364.68542
G1 X23.328 Y18.476 E364.75618
G0 F12000 X23.539 Y18.895
G0 X23.545 Y18.97
G0 X23.545 Y19.149
; TYPE:FILL
G1 F900 X23.546 Y19.194 E364.75868
G1 X23.551 Y20.381 E364.82456
G0 F12000 X23.556 Y20.407
G1 F900 X23.605 Y20.772 E364.84486
G0 F12000 X23.605 Y20.774
G1 F900 X23.554 Y21.05 E364.85123
G1 X23.578 Y21.21 E364.8549
G0 F12000 X23.506 Y21.194
G1 F900 X23.536 Y21.087 E364.85707
G1 F6000 E362.35707
G0 F900 X23.506 Y21.194
G0 X23.578 Y21.21
G0 X23.554 Y21.05
G0 X23.605 Y20.774
G0 X23.605 Y20.772
G0 X23.556 Y20.407
G0 X23.551 Y20.381
G0 X23.546 Y19.194
G0 X23.545 Y19.149
G0 X23.545 Y18.97
G0 X23.539 Y18.895
G0 X23.328 Y18.476
G0 X22.471 Y18.311
G0 X21.682 Y17.94
G0 X21.009 Y17.384
G0 X20.495 Y16.677
G0 X20.174 Y15.865
G0 X20.064 Y15
G0 X20.174 Y14.134
G0 X20.495 Y13.322
G0 X20.522 Y13.285
G1 Z0.8
G0 F12000 X23.545 Y18.97
G0 X23.539 Y18.895
G0 X21.601 Y18.375
G0 X21.563 Y18.431
G0 X20.851 Y19.686
G1 Z0.3
G1 F6000 E364.85707
G1 F900 X20.711 Y20.027 E364.86539
G1 X20.528 Y20.243 E364.87178
G1 X20.471 Y20.389 E364.87532
G0 F12000 X20.416 Y20.342
G1 F900 X20.496 Y20.261 E364.87755
G0 F12000 X20.86 Y19.661
G1 F900 X21.448 Y18.631 E364.94337
G1 X21.47 Y18.593 E364.94675
G0 F12000 X21.563 Y18.431
G0 X21.592 Y18.371
G0 X20.174 Y16.949
G0 X20.119 Y16.976
G0 X19.952 Y17.073
G1 F900 X19.913 Y17.095 E364.94924
G1 X18.888 Y17.693 E365.0151
G0 F12000 X18.868 Y17.711
G1 F900 X18.578 Y17.936 E365.03534
G0 F12000 X18.576 Y17.937
G1 F900 X18.309 Y18.032 E365.04177
G1 X18.184 Y18.131 E365.04539
G0 F12000 X18.162 Y18.062
G1 F900 X18.268 Y18.035 E365.04751
G0 F12000 X20.119 Y16.976
G0 X20.17 Y16.941
G0 X19.649 Y15.001
G0 X19.595 Y14.997
G0 X17.775 Y15.058
G1 F900 X18.14 Y15.008 E365.06791
G0 F12000 X18.167 Y15.003
G1 F900 X19.351 Y14.999 E365.13377
G1 X19.396 Y14.998 E365.13724
G0 F12000 X19.595 Y14.997
G0 X17.772 Y15.058
G1 F900 X17.496 Y15.006 E365.14362
G1 X17.336 Y15.029 E365.14728
G0 F12000 X17.353 Y14.958
G1 F900 X17.457 Y14.988 E365.14936
G0 F12000 X19.595 Y14.997
G0 X19.651 Y14.993
G0 X20.171 Y13.054
G0 X20.12 Y13.02
G0 X18.859 Y12.303
G1 F900 X18.518 Y12.162 E365.15742
G1 X18.295 Y11.976 E365.16376
G1 X18.155 Y11.924 E365.16702
G0 F12000 X18.199 Y11.867
G1 F900 X18.284 Y11.949 E365.16936
G0 F12000 X18.885 Y12.312
G1 F900 X19.914 Y12.902 E365.23519
G1 X19.953 Y12.924 E365.23864
G0 F12000 X20.12 Y13.02
G0 X20.177 Y13.047
G0 X21.595 Y11.625
G0 X21.567 Y11.567
G0 X21.472 Y11.404
G1 F900 X21.449 Y11.365 E365.24115
G1 X20.853 Y10.341 E365.30691
G0 F12000 X20.836 Y10.321
G1 F900 X20.61 Y10.029 E365.32727
G0 F12000 X20.61 Y10.028
G1 F900 X20.515 Y9.763 E365.33359
G1 X20.416 Y9.638 E365.33717
G0 F12000 X20.485 Y9.616
G1 F900 X20.514 Y9.724 E365.33933
G0 F12000 X21.567 Y11.567
G0 X21.605 Y11.623
G0 X23.544 Y11.103
G0 X23.549 Y11.029
G0 X23.488 Y9.223
G1 F900 X23.54 Y8.947 E365.34567
G1 X23.516 Y8.788 E365.3493
G0 F12000 X23.587 Y8.804
G1 F900 X23.558 Y8.91 E365.35143
G0 F12000 X23.543 Y8.956
G1 F900 X23.489 Y9.226 E365.3666
G1 X23.538 Y9.591 E365.38691
G0 F12000 X23.543 Y9.615
G1 F900 X23.55 Y9.529 E365.39133
G0 F12000 X23.555 Y9.554
G1 F900 X23.543 Y9.617 E365.39489
G1 X23.547 Y10.805 E365.48661
G1 X23.548 Y10.849 E365.49001
G0 F12000 X23.549 Y11.029
G0 X23.555 Y11.104
G0 X25.493 Y11.624
G0 X25.528 Y11.573
G0 X25.624 Y11.405
G1 F900 X25.646 Y11.366 E365.49249
G1 X26.236 Y10.335 E365.55842
G0 F12000 X26.245 Y10.309
G1 F900 X26.385 Y9.964 E365.5881
G1 X26.606 Y9.624 E365.6187
G1 X26.581 Y9.747 E365.63147
G1 X26.678 Y9.656 E365.63408
G1 F6000 E363.13408
G0 F900 X26.581 Y9.747
G0 X26.606 Y9.624
G0 X26.385 Y9.964
G0 X26.245 Y10.309
G0 X26.236 Y10.335
G0 X25.646 Y11.366
G0 X25.624 Y11.405
G0 X25.528 Y11.573
G0 X25.493 Y11.624
G0 X23.555 Y11.104
G0 X23.549 Y11.029
G0 X23.548 Y10.849
G0 X23.547 Y10.805
G0 X23.543 Y9.617
G0 X23.555 Y9.554
G0 X23.55 Y9.529
G0 X23.543 Y9.615
G0 X23.538 Y9.591
G0 X23.489 Y9.226
G0 X23.543 Y8.956
G0 X23.558 Y8.91
G0 X23.587 Y8.804
G0 X23.516 Y8.788
G0 X23.54 Y8.947
G0 X23.488 Y9.223
G0 X23.549 Y11.029
G0 X23.544 Y11.103
G0 X22.996 Y11.25
G1 Z0.8
G0 F12000 X25.528 Y11.573
G0 X25.501 Y11.628
G0 X26.92 Y13.05
G0 X26.975 Y13.023
G0 X28.519 Y12.06
G1 Z0.3
G1 F6000 E365.63408
G1 F900 X28.785 Y11.966 E365.64048
G1 X28.911 Y11.867 E365.64412
G0 F12000 X28.932 Y11.936
G1 F900 X28.672 Y12.012 E365.6529
G1 X28.226 Y12.287 E365.68185
G0 F12000 X28.206 Y12.305
G1 F900 X27.18 Y12.904 E365.74794
G1 X27.142 Y12.926 E365.75132
G0 F12000 X26.975 Y13.023
G0 X26.924 Y13.058
G0 X27.445 Y14.998
G0 X27.499 Y15.002
G0 X27.698 Y15.001
G1 F900 X27.742 Y15 E365.75377
G1 X28.926 Y14.995 E365.81963
G0 F12000 X28.953 Y14.99
G1 F900 X29.319 Y14.941 E365.84008
G0 F12000 X29.322 Y14.94
G1 F900 X29.597 Y14.992 E365.84644
G1 X29.757 Y14.969 E365.8501
G0 F12000 X29.74 Y15.04
G1 F900 X29.636 Y15.01 E365.85218
G0 F12000 X27.499 Y15.002
G0 X27.443 Y15.006
G0 X26.923 Y16.945
G0 X26.974 Y16.979
G0 X28.232 Y17.695
G1 F900 X28.576 Y17.837 E365.86031
G1 X28.798 Y18.023 E365.86663
G1 X28.939 Y18.075 E365.86991
G0 F12000 X28.895 Y18.131
G1 F900 X28.81 Y18.049 E365.87225
G0 F12000 X28.207 Y17.686
G1 F900 X27.18 Y17.097 E365.93796
G1 X27.14 Y17.075 E365.94147
G0 F12000 X26.974 Y16.979
G0 X26.917 Y16.952
G0 X25.498 Y18.374
G0 X25.524 Y18.427
G0 X25.621 Y18.595
G1 F900 X25.644 Y18.634 E365.94399
G1 X26.241 Y19.659 E366.00982
G0 F12000 X26.259 Y19.679
G1 F900 X26.483 Y19.969 E366.03003
G0 F12000 X26.484 Y19.971
G1 F900 X26.578 Y20.235 E366.03635
G1 X26.678 Y20.36 E366.03997
G0 F12000 X26.609 Y20.383
G1 F900 X26.58 Y20.275 E366.04214
G0 F12000 X25.524 Y18.427
G0 X25.498 Y18.374
G0 X26.365 Y17.047
G0 X26.786 Y16.281
G0 X27.002 Y15.436
G0 X27.002 Y14.563
G0 X26.786 Y13.718
G0 X26.365 Y12.952
G0 X25.768 Y12.316
G0 X25.03 Y11.848
G0 X23.555 Y11.104
G0 X23.549 Y11.029
G0 X24.005 Y8.014
G0 X24.005 Y1.985
G0 X23.545 Y-1.029
G0 X23.539 Y-1.104
G0 X23.094 Y-1.222
G0 X22.926 Y-0.595
; TYPE:WALL-OUTER
G1 F900 X21.88 Y-0.876 E366.12995
G1 X21.319 Y-0.045 E366.21123
G1 X20.844 Y0.494 E366.26948
G1 X20.402 Y0.886 E366.31737
G1 X20.021 Y0.66 E366.35329
G1 X20.128 Y0.123 E366.39768
G1 X20.355 Y-0.552 E366.45541
G1 X20.808 Y-1.494 E366.54016
G1 X20.042 Y-2.261 E366.62804
G1 X19.137 Y-1.819 E366.70969
G1 X18.456 Y-1.59 E366.76794
G1 X17.881 Y-1.473 E366.81551
G1 X17.664 Y-1.859 E366.85141
G1 X18.024 Y-2.271 E366.89576
G1 X18.564 Y-2.747 E366.95412
G1 X19.423 Y-3.334 E367.03847
G1 X19.142 Y-4.38 E367.12628
G1 X18.143 Y-4.449 E367.20746
G1 X17.433 Y-4.593 E367.26619
G1 X16.877 Y-4.778 E367.3137
G1 X16.882 Y-5.221 E367.34962
G1 X17.4 Y-5.397 E367.39397
G1 X18.104 Y-5.54 E367.45221
G1 X19.142 Y-5.618 E367.5366
G1 X19.423 Y-6.665 E367.62449
G1 X18.592 Y-7.226 E367.70577
G1 X18.053 Y-7.701 E367.76402
G1 X17.661 Y-8.143 E367.81191
G1 X17.887 Y-8.524 E367.84782
G1 X18.424 Y-8.418 E367.8922
G1 X19.1 Y-8.191 E367.95001
G1 X20.043 Y-7.737 E368.03486
G1 X20.808 Y-8.504 E368.12269
G1 X20.369 Y-9.406 E368.20401
G1 X20.139 Y-10.09 E368.26252
G1 X20.021 Y-10.665 E368.3101
G1 X20.409 Y-10.882 E368.34615
G1 X20.815 Y-10.525 E368.38998
G1 X21.295 Y-9.982 E368.44873
G1 X21.882 Y-9.122 E368.53315
G1 X22.928 Y-9.403 E368.62095
G1 X22.998 Y-10.403 E368.70222
G1 X23.141 Y-11.112 E368.76086
G1 X23.326 Y-11.669 E368.80844
G1 X23.401 Y-11.672 E368.81453
G1 X23.77 Y-11.664 E368.84445
G1 X23.946 Y-11.147 E368.88873
G1 X24.088 Y-10.442 E368.94703
G1 X24.168 Y-9.403 E369.03151
G1 X25.214 Y-9.122 E369.11932
G1 X25.775 Y-9.954 E369.20067
G1 X26.25 Y-10.493 E369.25892
G1 X26.692 Y-10.885 E369.30681
G1 X27.073 Y-10.659 E369.34273
G1 X26.966 Y-10.12 E369.38728
G1 X26.741 Y-9.448 E369.44473
G1 X26.286 Y-8.503 E369.52976
G1 X27.052 Y-7.736 E369.61764
G1 X27.957 Y-8.178 E369.69929
G1 X28.638 Y-8.407 E369.75754
G1 X29.214 Y-8.524 E369.80519
G1 X29.431 Y-8.138 E369.84109
G1 X29.07 Y-7.726 E369.8855
G1 X28.53 Y-7.25 E369.94386
G1 X27.671 Y-6.663 E370.02821
G1 X27.952 Y-5.617 E370.11602
G1 X28.951 Y-5.548 E370.1972
G1 X29.661 Y-5.404 E370.25593
G1 X30.217 Y-5.219 E370.30344
G1 X30.212 Y-4.776 E370.33936
G1 X29.694 Y-4.6 E370.38371
G1 X28.99 Y-4.457 E370.44195
G1 X27.952 Y-4.379 E370.52634
G1 X27.671 Y-3.332 E370.61422
G1 X28.502 Y-2.771 E370.69551
G1 X29.041 Y-2.296 E370.75375
G1 X29.433 Y-1.854 E370.80165
G1 X29.207 Y-1.473 E370.83756
G1 X28.67 Y-1.579 E370.88194
G1 X27.994 Y-1.806 E370.93975
G1 X27.051 Y-2.26 E371.0246
G1 X26.285 Y-1.492 E371.11254
G1 X26.728 Y-0.587 E371.19423
G1 X26.954 Y0.088 E371.25194
G1 X27.073 Y0.666 E371.29978
G1 X26.686 Y0.884 E371.33579
G1 X26.279 Y0.526 E371.37973
G1 X25.798 Y-0.017 E371.43854
G1 X25.212 Y-0.876 E371.52284
G1 X24.166 Y-0.595 E371.61065
G1 X24.096 Y0.404 E371.69184
G1 X23.953 Y1.113 E371.75048
G1 X23.768 Y1.67 E371.79806
G1 X23.324 Y1.665 E371.83406
G1 X23.148 Y1.148 E371.87833
G1 X23.006 Y0.443 E371.93664
G1 X22.926 Y-0.595 E372.02104
G0 F12000 X23.094 Y-1.222
G0 X23.539 Y-1.104
G0 X23.545 Y-1.029
; TYPE:WALL-INNER
G1 F900 X23.539 Y-1.104 E372.02714
G1 X21.601 Y-1.624 E372.18981
G1 X20.174 Y-3.049 E372.35331
G1 X19.649 Y-4.997 E372.51687
G1 X20.171 Y-6.944 E372.68029
G1 X21.595 Y-8.373 E372.84384
G1 X21.605 Y-8.375 E372.84467
G1 X23.544 Y-8.895 E373.00742
G1 X23.549 Y-8.969 E373.01344
G1 X23.555 Y-8.894 E373.01954
G1 X25.493 Y-8.374 E373.18221
G1 X26.92 Y-6.948 E373.34576
G1 X27.445 Y-5 E373.50932
G1 X26.923 Y-3.053 E373.67274
G1 X25.498 Y-1.623 E373.83641
G1 X23.55 Y-1.103 E373.99987
G1 X23.545 Y-1.029 E374.00588
G0 F12000 X23.539 Y-1.104
G0 X23.247 Y-1.538
G0 X23.369 Y-2.176
; TYPE:WALL-OUTER
G1 F900 X24.077 Y-2.221 E374.0634
G1 X24.751 Y-2.44 E374.12085
G1 X25.35 Y-2.82 E374.17836
G1 X25.835 Y-3.336 E374.23577
G1 X26.177 Y-3.958 E374.29332
G1 X26.352 Y-4.644 E374.35071
G1 X26.352 Y-5.353 E374.40819
G1 X26.177 Y-6.039 E374.46559
G1 X25.835 Y-6.661 E374.52314
G1 X25.35 Y-7.177 E374.58055
G1 X24.751 Y-7.557 E374.63806
G1 X24.077 Y-7.776 E374.69551
G1 X23.369 Y-7.821 E374.75303
G1 X22.674 Y-7.687 E374.81041
G1 X22.033 Y-7.386 E374.86782
G1 X21.486 Y-6.934 E374.92535
G1 X21.069 Y-6.361 E374.9828
G1 X20.809 Y-5.701 E375.04031
G1 X20.719 Y-4.999 E375.09769
G1 X20.809 Y-4.296 E375.15515
G1 X21.069 Y-3.636 E375.21266
G1 X21.486 Y-3.063 E375.27011
G1 X22.033 Y-2.611 E375.32764
G1 X22.674 Y-2.31 E375.38505
G1 X23.369 Y-2.176 E375.44243
G0 F12000 X23.247 Y-1.538
G0 X23.328 Y-1.522
; TYPE:WALL-INNER
G1 F900 X24.2 Y-1.578 E375.51327
G1 X25.03 Y-1.847 E375.584
G1 X25.768 Y-2.315 E375.65485
G1 X26.365 Y-2.951 E375.72557
G1 X26.786 Y-3.717 E375.79643
G1 X27.002 Y-4.562 E375.86714
G1 X27.002 Y-5.435 E375.93792
G1 X26.786 Y-6.28 E376.00862
G1 X26.365 Y-7.046 E376.07949
G1 X25.768 Y-7.682 E376.15021
G1 X25.03 Y-8.15 E376.22105
G1 X24.2 Y-8.419 E376.29179
G1 X23.328 Y-8.475 E376.36263
G1 X22.471 Y-8.31 E376.43338
G1 X21.682 Y-7.939 E376.50407
G1 X21.009 Y-7.383 E376.57484
G1 X20.495 Y-6.676 E376.6457
G1 X20.174 Y-5.864 E376.71649
G1 X20.064 Y-4.999 E376.78718
G1 X20.174 Y-4.133 E376.85795
G1 X20.495 Y-3.321 E376.92874
G1 X21.009 Y-2.614 E376.99961
G1 X21.682 Y-2.058 E377.07038
G1 X22.471 Y-1.687 E377.14106
G1 X23.328 Y-1.522 E377.21182
G0 F12000 X23.539 Y-1.104
G0 X23.545 Y-1.029
G0 X23.545 Y-0.849
; TYPE:FILL
G1 F900 X23.546 Y-0.805 E377.21426
G1 X23.551 Y0.381 E377.28009
G0 F12000 X23.556 Y0.407
G1 F900 X23.605 Y0.772 E377.30039
G0 F12000 X23.605 Y0.774
G1 F900 X23.554 Y1.05 E377.30676
G1 X23.578 Y1.21 E377.31043
G0 F12000 X23.506 Y1.194
G1 F900 X23.536 Y1.087 E377.3126
G1 F6000 E374.8126
G0 F900 X23.506 Y1.194
G0 X23.578 Y1.21
G0 X23.554 Y1.05
G0 X23.605 Y0.774
G0 X23.605 Y0.772
G0 X23.556 Y0.407
G0 X23.551 Y0.381
G0 X23.546 Y-0.805
G0 X23.545 Y-0.849
G0 X23.545 Y-1.029
G0 X23.539 Y-1.104
G0 X23.328 Y-1.522
G0 X22.471 Y-1.687
G0 X21.682 Y-2.058
G0 X21.009 Y-2.614
G0 X20.495 Y-3.321
G0 X20.174 Y-4.133
G0 X20.064 Y-4.999
G0 X20.174 Y-5.864
G0 X20.495 Y-6.676
G0 X20.523 Y-6.714
G1 Z0.8
G0 F12000 X23.545 Y-1.029
G0 X23.539 Y-1.104
G0 X21.601 Y-1.624
G0 X21.568 Y-1.576
G0 X20.711 Y0.028
G1 Z0.3
G1 F6000 E377.3126
G1 F900 X20.528 Y0.242 E377.31895
G1 X20.47 Y0.39 E377.32254
G0 F12000 X20.416 Y0.341
G1 F900 X20.603 Y0.145 E377.33156
G1 X20.848 Y-0.307 E377.35978
G0 F12000 X20.857 Y-0.334
G1 F900 X21.448 Y-1.366 E377.42563
G1 X21.47 Y-1.405 E377.42908
G0 F12000 X21.568 Y-1.576
G0 X21.593 Y-1.627
G0 X20.174 Y-3.049
G0 X20.119 Y-3.022
G0 X19.952 Y-2.925
G1 F900 X19.913 Y-2.902 E377.43159
G1 X18.888 Y-2.304 E377.49746
G0 F12000 X18.868 Y-2.287
G1 F900 X18.578 Y-2.062 E377.51769
G0 F12000 X18.576 Y-2.06
G1 F900 X18.309 Y-1.966 E377.52412
G1 X18.184 Y-1.866 E377.52775
G0 F12000 X18.162 Y-1.936
G1 F900 X18.268 Y-1.963 E377.52987
G0 F12000 X20.119 Y-3.022
G0 X20.17 Y-3.057
G0 X19.649 Y-4.997
G0 X19.595 Y-5.001
G0 X17.772 Y-4.939
G1 F900 X17.496 Y-4.991 E377.53624
G1 X17.336 Y-4.968 E377.53991
G0 F12000 X17.353 Y-5.039
G1 F900 X17.616 Y-4.974 E377.5487
G1 X18.14 Y-4.989 E377.57773
G0 F12000 X18.167 Y-4.994
G1 F900 X19.351 Y-4.999 E377.64359
G1 X19.396 Y-5 E377.64706
G0 F12000 X19.595 Y-5.001
G0 X19.651 Y-5.005
G0 X20.171 Y-6.944
G0 X20.12 Y-6.978
G0 X19.953 Y-7.074
G1 F900 X19.914 Y-7.096 E377.64955
G1 X18.885 Y-7.686 E377.71538
G0 F12000 X18.859 Y-7.695
G1 F900 X18.518 Y-7.836 E377.72343
G1 X18.295 Y-8.022 E377.72977
G1 X18.155 Y-8.074 E377.73303
G0 F12000 X18.199 Y-8.13
G1 F900 X18.284 Y-8.048 E377.73537
G0 F12000 X20.12 Y-6.978
G0 X20.177 Y-6.951
G0 X21.595 Y-8.373
G0 X21.567 Y-8.431
G0 X20.61 Y-9.969
G1 F900 X20.836 Y-9.676 E377.75577
G0 F12000 X20.853 Y-9.656
G1 F900 X21.449 Y-8.632 E377.82153
G1 X21.472 Y-8.593 E377.82502
G0 F12000 X21.567 Y-8.431
G0 X20.61 Y-9.97
G1 F900 X20.515 Y-10.235 E377.83134
G1 X20.416 Y-10.359 E377.8349
G0 F12000 X20.485 Y-10.382
G1 F900 X20.514 Y-10.274 E377.83706
G1 F6000 E375.33706
G0 F900 X20.485 Y-10.382
G0 X20.416 Y-10.359
G0 X20.515 Y-10.235
G0 X20.61 Y-9.97
G0 X21.567 Y-8.431
G0 X21.472 Y-8.593
G0 X21.449 Y-8.632
G0 X20.853 Y-9.656
G0 X20.836 Y-9.676
G0 X20.61 Y-9.969
G0 X21.567 Y-8.431
G0 X21.595 Y-8.373
G0 X20.177 Y-6.951
G0 X20.12 Y-6.978
G0 X18.558 Y-7.888
G1 Z0.8
G0 F12000 X21.567 Y-8.431
G0 X21.605 Y-8.375
G0 X23.544 Y-8.895
G0 X23.549 Y-8.969
G0 X23.488 Y-10.774
G1 Z0.3
G1 F6000 E377.83706
G1 F900 X23.54 Y-11.05 E377.8434
G1 X23.516 Y-11.209 E377.84703
G0 F12000 X23.587 Y-11.193
G1 F900 X23.558 Y-11.087 E377.84916
G0 F12000 X23.543 Y-11.042
G1 F900 X23.489 Y-10.772 E377.86434
G1 X23.538 Y-10.407 E377.88464
G0 F12000 X23.543 Y-10.382
G1 F900 X23.55 Y-10.468 E377.88906
G0 F12000 X23.555 Y-10.444
G1 F900 X23.543 Y-10.381 E377.89262
G1 X23.547 Y-9.193 E377.98434
G1 X23.548 Y-9.148 E377.98782
G0 F12000 X23.549 Y-8.969
G0 X23.555 Y-8.894
G0 X25.493 Y-8.374
G0 X25.528 Y-8.425
G0 X25.624 Y-8.592
G1 F900 X25.646 Y-8.631 E377.9903
G1 X26.236 Y-9.663 E378.05628
G0 F12000 X26.245 Y-9.688
G1 F900 X26.385 Y-10.033 E378.08596
G1 X26.606 Y-10.373 E378.11656
G1 X26.581 Y-10.251 E378.12925
G1 X26.678 Y-10.341 E378.13184
G0 F12000 X25.528 Y-8.425
G0 X25.501 Y-8.37
G0 X26.92 Y-6.948
G0 X26.975 Y-6.975
G0 X28.519 Y-7.937
G1 F900 X28.785 Y-8.031 E378.13824
G1 X28.911 Y-8.13 E378.14188
G0 F12000 X28.932 Y-8.061
G1 F900 X28.672 Y-7.984 E378.15064
G1 X28.226 Y-7.71 E378.17956
G0 F12000 X28.206 Y-7.693
G1 F900 X27.18 Y-7.094 E378.24565
G1 X27.142 Y-7.072 E378.24903
G0 F12000 X26.975 Y-6.975
G0 X26.924 Y-6.94
G0 X27.445 Y-5
G0 X27.499 Y-4.996
G0 X27.698 Y-4.997
G1 F900 X27.742 Y-4.998 E378.25148
G1 X28.926 Y-5.002 E378.31734
G0 F12000 X28.953 Y-5.007
G1 F900 X29.319 Y-5.057 E378.3378
G0 F12000 X29.322 Y-5.057
G1 F900 X29.597 Y-5.005 E378.34415
G1 X29.757 Y-5.028 E378.34782
G0 F12000 X29.74 Y-4.957
G1 F900 X29.636 Y-4.987 E378.3499
G1 F6000 E375.8499
G0 F900 X29.74 Y-4.957
G0 X29.757 Y-5.028
G0 X29.597 Y-5.005
G0 X29.322 Y-5.057
G0 X29.319 Y-5.057
G0 X28.953 Y-5.007
G0 X28.926 Y-5.002
G0 X27.742 Y-4.998
G0 X27.698 Y-4.997
G0 X27.499 Y-4.996
G0 X27.445 Y-5
G0 X26.924 Y-6.94
G0 X26.975 Y-6.975
G0 X27.142 Y-7.072
G0 X27.18 Y-7.094
G0 X28.206 Y-7.693
G0 X28.226 Y-7.71
G0 X28.672 Y-7.984
G0 X28.932 Y-8.061
G0 X28.911 Y-8.13
G0 X28.785 Y-8.031
G0 X28.519 Y-7.937
G0 X26.975 Y-6.975
G0 X26.92 Y-6.948
G0 X26.361 Y-7.508
G1 Z0.8
G0 F12000 X27.499 Y-4.996
G0 X27.443 Y-4.992
G0 X26.923 Y-3.053
G0 X26.974 Y-3.019
G0 X28.232 Y-2.303
G1 Z0.3
G1 F6000 E378.3499
G1 F900 X28.576 Y-2.161 E378.35802
G1 X28.798 Y-1.975 E378.36434
G1 X28.939 Y-1.923 E378.36762
G0 F12000 X28.895 Y-1.866
G1 F900 X28.81 Y-1.948 E378.36997
G0 F12000 X28.207 Y-2.312
G1 F900 X27.18 Y-2.9 E378.43565
G1 X27.14 Y-2.923 E378.4392
G0 F12000 X26.974 Y-3.019
G0 X26.917 Y-3.046
G0 X25.498 Y-1.623
G0 X25.52 Y-1.578
G0 X25.621 Y-1.403
G1 F900 X25.644 Y-1.365 E378.44166
G1 X26.241 Y-0.341 E378.50745
G0 F12000 X26.259 Y-0.32
G1 F900 X26.488 Y-0.024 E378.53728
G1 X26.673 Y0.337 E378.56789
G1 X26.579 Y0.255 E378.58093
G1 X26.609 Y0.383 E378.58349
G0 F12000 X25.52 Y-1.578
G0 X25.498 Y-1.623
G0 X26.923 Y-3.053
G0 X27.445 Y-5
G0 X26.92 Y-6.948
G0 X25.501 Y-8.37
G0 X25.528 Y-8.425
G0 X27.436 Y-10.819
G0 X29.584 Y-15.265
G0 X29.567 Y-17.195
G0 X30.097 Y-18.409
G0 X32.231 Y-18.186
G0 X32.34 Y-17.661
G0 X32.671 Y-17.717
G0 X33.307 Y-17.588
; TYPE:WALL-OUTER
G1 F900 X33.104 Y-16.59 E378.66605
G1 X32.901 Y-15.886 E378.72545
G1 X32.693 Y-15.328 E378.77373
G1 X32.306 Y-15.328 E378.8051
G1 X32.107 Y-15.853 E378.85062
G1 X31.905 Y-16.556 E378.90992
G1 X31.691 Y-17.589 E378.99545
G1 X30.502 Y-17.713 E379.09236
G1 X30.096 Y-16.781 E379.17478
G1 X29.747 Y-16.126 E379.23495
G1 X29.431 Y-15.63 E379.28263
G1 X29.051 Y-15.711 E379.31413
G1 X28.968 Y-16.261 E379.35922
G1 X28.916 Y-16.99 E379.41847
G1 X28.92 Y-18.05 E379.50441
G1 X27.784 Y-18.419 E379.60124
G1 X27.193 Y-17.592 E379.68365
G1 X26.716 Y-17.025 E379.74372
G1 X26.303 Y-16.604 E379.79153
G1 X25.948 Y-16.762 E379.82304
G1 X25.98 Y-17.305 E379.86713
G1 X26.082 Y-18.038 E379.92713
G1 X26.307 Y-19.077 E380.01332
G1 X25.271 Y-19.675 E380.1103
G1 X24.518 Y-18.985 E380.1931
G1 X23.945 Y-18.539 E380.25196
G1 X23.445 Y-18.207 E380.30062
G1 X23.132 Y-18.435 E380.33202
G1 X23.276 Y-18.96 E380.37615
G1 X23.533 Y-19.67 E380.43737
G1 X23.964 Y-20.625 E380.52231
G1 X23.076 Y-21.425 E380.61921
G1 X22.192 Y-20.906 E380.70231
G1 X21.538 Y-20.587 E380.76131
G1 X20.985 Y-20.369 E380.8095
G1 X20.725 Y-20.656 E380.84089
G1 X20.981 Y-21.151 E380.88607
G1 X21.369 Y-21.775 E380.94564
G1 X21.993 Y-22.626 E381.03119
G1 X21.291 Y-23.592 E381.128
G1 X20.332 Y-23.273 E381.20994
G1 X19.602 Y-23.093 E381.2709
G1 X19.025 Y-22.995 E381.31834
G1 X18.831 Y-23.33 E381.34973
G1 X19.187 Y-23.763 E381.39517
G1 X19.694 Y-24.29 E381.45446
G1 X20.482 Y-24.993 E381.54007
G1 X19.996 Y-26.086 E381.63705
G1 X18.983 Y-25.971 E381.7197
G1 X18.254 Y-25.946 E381.77884
G1 X17.656 Y-25.972 E381.82736
G1 X17.537 Y-26.34 E381.85872
G1 X17.976 Y-26.691 E381.90429
G1 X18.578 Y-27.099 E381.96324
G1 X19.496 Y-27.623 E382.04894
G1 X19.249 Y-28.792 E382.1458
G1 X18.239 Y-28.89 E382.22807
G1 X17.517 Y-29.018 E382.28752
G1 X16.936 Y-29.168 E382.33616
G1 X16.895 Y-29.553 E382.36755
G1 X17.392 Y-29.802 E382.41262
G1 X18.074 Y-30.079 E382.4723
G1 X19.079 Y-30.401 E382.55785
G1 X19.079 Y-31.595 E382.65465
G1 X18.102 Y-31.904 E382.73773
G1 X17.434 Y-32.176 E382.7962
G1 X16.895 Y-32.444 E382.845
G1 X16.936 Y-32.829 E382.87639
G1 X17.469 Y-32.968 E382.92105
G1 X18.199 Y-33.098 E382.98116
G1 X19.249 Y-33.204 E383.06672
G1 X19.496 Y-34.372 E383.1635
G1 X18.606 Y-34.877 E383.24646
G1 X18.01 Y-35.281 E383.30484
G1 X17.537 Y-35.656 E383.35377
G1 X17.657 Y-36.023 E383.38508
G1 X18.215 Y-36.049 E383.43036
G1 X18.947 Y-36.025 E383.48974
G1 X19.996 Y-35.91 E383.57529
G1 X20.483 Y-37.002 E383.67223
G1 X19.72 Y-37.677 E383.75482
G1 X19.213 Y-38.205 E383.81416
G1 X18.832 Y-38.665 E383.86259
G1 X19.026 Y-39 E383.89397
G1 X19.575 Y-38.909 E383.93909
G1 X20.286 Y-38.734 E383.99845
G1 X21.292 Y-38.403 E384.08431
G1 X21.994 Y-39.37 E384.18118
G1 X21.391 Y-40.184 E384.26331
G1 X20.998 Y-40.815 E384.32358
G1 X20.725 Y-41.339 E384.37148
G1 X20.985 Y-41.626 E384.40288
G1 X21.509 Y-41.422 E384.44846
G1 X22.158 Y-41.105 E384.50702
G1 X23.076 Y-40.571 E384.59312
G1 X23.965 Y-41.371 E384.69008
G1 X23.541 Y-42.302 E384.77301
G1 X23.294 Y-42.987 E384.83205
G1 X23.133 Y-43.561 E384.88038
G1 X23.446 Y-43.788 E384.91173
G1 X23.909 Y-43.484 E384.95663
G1 X24.49 Y-43.032 E385.01631
G1 X25.272 Y-42.321 E385.10199
G1 X26.308 Y-42.919 E385.19897
G1 X26.088 Y-43.912 E385.28143
G1 X25.985 Y-44.651 E385.34192
G1 X25.949 Y-45.234 E385.38927
G1 X26.304 Y-45.392 E385.42077
G1 X26.69 Y-45 E385.46538
G1 X27.172 Y-44.427 E385.52608
G1 X27.785 Y-43.577 E385.61104
G1 X28.921 Y-43.945 E385.70785
G1 X28.913 Y-44.968 E385.79079
G1 X28.964 Y-45.682 E385.84882
G1 X29.053 Y-46.284 E385.89816
G1 X29.432 Y-46.365 E385.92958
G1 X29.731 Y-45.897 E385.9746
G1 X30.081 Y-45.241 E386.03488
G1 X30.503 Y-44.282 E386.11982
G1 X31.692 Y-44.407 E386.21675
G1 X31.895 Y-45.405 E386.29931
G1 X32.098 Y-46.109 E386.35871
G1 X32.306 Y-46.667 E386.40699
G1 X32.693 Y-46.667 E386.43837
G1 X32.892 Y-46.142 E386.48388
G1 X33.092 Y-45.445 E386.54267
G1 X33.308 Y-44.406 E386.62871
G1 X34.497 Y-44.282 E386.72562
G1 X34.904 Y-45.216 E386.80822
G1 X35.254 Y-45.872 E386.8685
G1 X35.568 Y-46.365 E386.91589
G1 X35.948 Y-46.284 E386.94739
G1 X36.031 Y-45.734 E386.99248
G1 X36.083 Y-45.007 E387.05157
G1 X36.079 Y-43.945 E387.13767
G1 X37.215 Y-43.576 E387.2345
G1 X37.806 Y-44.403 E387.31691
G1 X38.283 Y-44.97 E387.37698
G1 X38.696 Y-45.391 E387.42479
G1 X39.051 Y-45.233 E387.45629
G1 X39.019 Y-44.69 E387.50039
G1 X38.917 Y-43.957 E387.56039
G1 X38.692 Y-42.918 E387.64658
G1 X39.728 Y-42.32 E387.74355
G1 X40.485 Y-43.014 E387.82681
G1 X41.054 Y-43.455 E387.88518
G1 X41.554 Y-43.787 E387.93383
G1 X41.867 Y-43.56 E387.96518
G1 X41.723 Y-43.034 E388.00939
G1 X41.47 Y-42.333 E388.06981
G1 X41.035 Y-41.37 E388.15548
G1 X41.923 Y-40.57 E388.25238
G1 X42.807 Y-41.089 E388.33548
G1 X43.461 Y-41.408 E388.39448
G1 X44.014 Y-41.626 E388.44267
G1 X44.274 Y-41.338 E388.47412
G1 X44.018 Y-40.843 E388.5193
G1 X43.63 Y-40.219 E388.57887
G1 X43.006 Y-39.369 E388.66436
G1 X43.708 Y-38.403 E388.76117
G1 X44.667 Y-38.722 E388.84311
G1 X45.396 Y-38.902 E388.90398
G1 X45.973 Y-38.999 E388.95142
G1 X46.167 Y-38.664 E388.9828
G1 X45.812 Y-38.232 E389.02813
G1 X45.305 Y-37.705 E389.08742
G1 X44.517 Y-37.002 E389.17303
G1 X45.003 Y-35.909 E389.27001
G1 X46.016 Y-36.024 E389.35266
G1 X46.745 Y-36.049 E389.4118
G1 X47.343 Y-36.023 E389.46032
G1 X47.462 Y-35.655 E389.49168
G1 X47.023 Y-35.304 E389.53725
G1 X46.421 Y-34.896 E389.5962
G1 X45.503 Y-34.372 E389.6819
G1 X45.75 Y-33.203 E389.77876
G1 X46.76 Y-33.105 E389.86103
G1 X47.482 Y-32.977 E389.92048
G1 X48.063 Y-32.827 E389.96912
G1 X48.104 Y-32.442 E390.00051
G1 X47.607 Y-32.193 E390.04558
G1 X46.925 Y-31.916 E390.10526
G1 X45.92 Y-31.594 E390.19081
G1 X45.92 Y-30.4 E390.28761
G1 X46.897 Y-30.091 E390.37069
G1 X47.565 Y-29.819 E390.42916
G1 X48.104 Y-29.551 E390.47796
G1 X48.063 Y-29.166 E390.50935
G1 X47.53 Y-29.027 E390.55401
G1 X46.8 Y-28.897 E390.61412
G1 X45.75 Y-28.791 E390.69968
G1 X45.503 Y-27.623 E390.79646
G1 X46.393 Y-27.118 E390.87942
G1 X46.989 Y-26.714 E390.9378
G1 X47.462 Y-26.339 E390.98673
G1 X47.342 Y-25.972 E391.01804
G1 X46.784 Y-25.946 E391.06332
G1 X46.052 Y-25.97 E391.1227
G1 X45.003 Y-26.085 E391.20825
G1 X44.516 Y-24.993 E391.30519
G1 X45.279 Y-24.318 E391.38778
G1 X45.786 Y-23.79 E391.44712
G1 X46.167 Y-23.33 E391.49555
G1 X45.974 Y-22.995 E391.52689
G1 X45.424 Y-23.086 E391.57209
G1 X44.713 Y-23.261 E391.63145
G1 X43.707 Y-23.592 E391.71731
G1 X43.005 Y-22.625 E391.81418
G1 X43.608 Y-21.81 E391.89637
G1 X44.001 Y-21.179 E391.95664
G1 X44.274 Y-20.656 E392.00447
G1 X44.014 Y-20.369 E392.03587
G1 X43.49 Y-20.573 E392.08145
G1 X42.841 Y-20.89 E392.14001
G1 X41.923 Y-21.424 E392.22611
G1 X41.034 Y-20.624 E392.32307
G1 X41.457 Y-19.697 E392.40568
G1 X41.71 Y-18.997 E392.46602
G1 X41.866 Y-18.434 E392.51338
G1 X41.553 Y-18.206 E392.54478
G1 X41.09 Y-18.511 E392.58972
G1 X40.509 Y-18.963 E392.6494
G1 X39.727 Y-19.674 E392.73509
G1 X38.691 Y-19.076 E392.83207
G1 X38.911 Y-18.085 E392.91436
G1 X39.014 Y-17.344 E392.97502
G1 X39.05 Y-16.761 E393.02237
G1 X38.695 Y-16.603 E393.05387
G1 X38.309 Y-16.995 E393.09847
G1 X37.827 Y-17.568 E393.15918
G1 X37.214 Y-18.418 E393.24414
G1 X36.078 Y-18.05 E393.34095
G1 X36.086 Y-17.027 E393.42389
G1 X36.035 Y-16.313 E393.48192
G1 X35.946 Y-15.711 E393.53125
G1 X35.567 Y-15.63 E393.56267
G1 X35.268 Y-16.098 E393.6077
G1 X34.918 Y-16.754 E393.66798
G1 X34.496 Y-17.713 E393.75292
G1 X33.307 Y-17.588 E393.84985
G0 F12000 X32.671 Y-17.717
G0 X32.766 Y-18.185
; TYPE:WALL-INNER
G1 F900 X34.899 Y-18.409 E394.02372
G0 F12000 X35.162 Y-18.465
G1 F900 X35.184 Y-18.361 E394.03234
G1 X35.435 Y-17.194 E394.12911
G0 F12000 X35.425 Y-18.521
G1 F900 X37.464 Y-19.183 E394.30291
G0 F12000 X37.709 Y-19.292
G1 F900 X37.752 Y-19.195 E394.31152
G1 X38.24 Y-18.108 E394.40811
G0 F12000 X37.954 Y-19.401
G1 F900 X39.813 Y-20.474 E394.58213
G0 F12000 X40.029 Y-20.631
G1 F900 X40.091 Y-20.546 E394.59066
G1 X40.796 Y-19.58 E394.68761
G0 F12000 X40.245 Y-20.788
G1 F900 X41.84 Y-22.224 E394.86161
G0 F12000 X42.019 Y-22.423
G1 F900 X42.098 Y-22.353 E394.87016
G1 X42.987 Y-21.557 E394.96691
G0 F12000 X42.199 Y-22.622
G1 F900 X43.46 Y-24.357 E395.14079
G0 F12000 X43.594 Y-24.589
G1 F900 X43.686 Y-24.537 E395.14936
G1 X44.723 Y-23.942 E395.24629
G0 F12000 X43.729 Y-24.822
G1 F900 X44.602 Y-26.783 E395.42031
G0 F12000 X44.685 Y-27.037
G1 F900 X44.785 Y-27.005 E395.42882
G1 X45.921 Y-26.638 E395.52561
G0 F12000 X44.768 Y-27.292
G1 F900 X45.213 Y-29.39 E395.69948
G0 F12000 X45.241 Y-29.657
G1 F900 X45.347 Y-29.647 E395.70811
G1 X46.533 Y-29.524 E395.80478
G0 F12000 X45.27 Y-29.924
G1 F900 X45.27 Y-32.068 E395.97859
G0 F12000 X45.241 Y-32.335
G1 F900 X45.346 Y-32.347 E395.98716
G1 X46.535 Y-32.474 E396.0841
G0 F12000 X45.213 Y-32.602
G1 F900 X44.769 Y-34.701 E396.25804
G0 F12000 X44.686 Y-34.955
G1 F900 X44.785 Y-34.988 E396.2665
G1 X45.921 Y-35.359 E396.36338
G0 F12000 X44.603 Y-35.209
G1 F900 X43.73 Y-37.171 E396.53748
G0 F12000 X43.596 Y-37.403
G1 F900 X43.687 Y-37.456 E396.54602
G1 X44.721 Y-38.055 E396.6429
G0 F12000 X43.462 Y-37.636
G1 F900 X42.201 Y-39.371 E396.81678
G0 F12000 X42.021 Y-39.57
G1 F900 X42.1 Y-39.641 E396.82539
G1 X42.985 Y-40.44 E396.92206
G0 F12000 X41.842 Y-39.769
G1 F900 X40.247 Y-41.205 E397.09605
G0 F12000 X40.031 Y-41.362
G1 F900 X40.092 Y-41.446 E397.10447
G1 X40.794 Y-42.416 E397.20154
G0 F12000 X39.816 Y-41.519
G1 F900 X37.956 Y-42.592 E397.37563
G0 F12000 X37.711 Y-42.701
G1 F900 X37.754 Y-42.799 E397.3843
G1 X38.237 Y-43.888 E397.48088
G0 F12000 X37.467 Y-42.811
G1 F900 X35.427 Y-43.473 E397.65476
G0 F12000 X35.164 Y-43.529
G1 F900 X35.186 Y-43.634 E397.66346
G1 X35.432 Y-44.8 E397.76007
G0 F12000 X34.902 Y-43.586
G1 F900 X32.768 Y-43.809 E397.93402
G0 F12000 X32.5 Y-43.809
G1 F900 X32.499 Y-43.914 E397.94253
G1 X32.498 Y-45.107 E398.03925
G0 F12000 X32.233 Y-43.81
G1 F900 X30.1 Y-43.586 E398.21312
G0 F12000 X29.837 Y-43.53
G1 F900 X29.815 Y-43.633 E398.22166
G1 X29.564 Y-44.801 E398.31852
G0 F12000 X29.574 Y-43.474
G1 F900 X27.535 Y-42.812 E398.49232
G0 F12000 X27.29 Y-42.703
G1 F900 X27.246 Y-42.799 E398.50088
G1 X26.759 Y-43.887 E398.59752
G0 F12000 X27.045 Y-42.594
G1 F900 X25.186 Y-41.521 E398.77153
G0 F12000 X24.97 Y-41.364
G1 F900 X24.908 Y-41.448 E398.78
G1 X24.203 Y-42.415 E398.87701
G0 F12000 X24.754 Y-41.207
G1 F900 X23.159 Y-39.771 E399.05101
G0 F12000 X22.979 Y-39.572
G1 F900 X22.9 Y-39.642 E399.05957
G1 X22.012 Y-40.438 E399.15625
G0 F12000 X22.8 Y-39.373
G1 F900 X21.539 Y-37.638 E399.33013
G0 F12000 X21.404 Y-37.405
G1 F900 X21.312 Y-37.458 E399.33874
G1 X20.276 Y-38.053 E399.4356
G0 F12000 X21.27 Y-37.173
G1 F900 X20.397 Y-35.212 E399.60962
G0 F12000 X20.314 Y-34.957
G1 F900 X20.214 Y-34.989 E399.61813
G1 X19.078 Y-35.357 E399.71494
G0 F12000 X20.231 Y-34.703
G1 F900 X19.786 Y-32.605 E399.88882
G0 F12000 X19.757 Y-32.338
G1 F900 X19.652 Y-32.348 E399.89737
G1 X18.466 Y-32.471 E399.99403
G0 F12000 X19.729 Y-32.071
G1 F900 X19.729 Y-29.927 E400.16785
G0 F12000 X19.757 Y-29.66
G1 F900 X19.652 Y-29.648 E400.17642
G1 X18.464 Y-29.521 E400.27328
G0 F12000 X19.786 Y-29.393
G1 F900 X20.23 Y-27.294 E400.44721
G0 F12000 X20.313 Y-27.04
G1 F900 X20.213 Y-27.007 E400.45575
G1 X19.078 Y-26.636 E400.55256
G0 F12000 X20.396 Y-26.786
G1 F900 X21.269 Y-24.824 E400.72666
G0 F12000 X21.403 Y-24.591
G1 F900 X21.312 Y-24.539 E400.73515
G1 X20.278 Y-23.94 E400.83203
G0 F12000 X21.537 Y-24.359
G1 F900 X22.798 Y-22.625 E401.00585
G0 F12000 X22.977 Y-22.425
G1 F900 X22.899 Y-22.354 E401.0144
G1 X22.014 Y-21.555 E401.11107
G0 F12000 X23.157 Y-22.226
G1 F900 X24.751 Y-20.79 E401.285
G0 F12000 X24.967 Y-20.633
G1 F900 X24.905 Y-20.548 E401.29353
G1 X24.207 Y-19.581 E401.39022
G0 F12000 X25.183 Y-20.476
G1 F900 X27.043 Y-19.403 E401.5643
G0 F12000 X27.287 Y-19.293
G1 F900 X27.245 Y-19.196 E401.57287
G1 X26.762 Y-18.107 E401.66945
G0 F12000 X27.532 Y-19.184
G1 F900 X29.572 Y-18.522 E401.84333
G0 F12000 X29.834 Y-18.465
G1 F900 X29.813 Y-18.361 E401.85193
G1 X29.567 Y-17.195 E401.94854
G0 F12000 X30.097 Y-18.409
G1 F900 X32.231 Y-18.186 E402.12249
G0 F12000 X32.498 Y-18.185
G1 F900 X32.499 Y-18.08 E402.131
G1 X32.501 Y-16.888 E402.22764
G0 F12000 X32.501 Y-18.811
G1 F900 X29.971 Y-19.076 E402.43387
G1 X27.548 Y-19.862 E402.64039
G1 X25.336 Y-21.138 E402.84742
G1 X23.442 Y-22.844 E403.05407
G1 X21.946 Y-24.901 E403.26027
G1 X20.906 Y-27.237 E403.46758
G1 X20.379 Y-29.729 E403.67408
G1 X20.379 Y-32.266 E403.87976
G1 X20.907 Y-34.758 E404.08627
G1 X21.946 Y-37.092 E404.29339
G1 X23.44 Y-39.148 E404.49944
G1 X25.338 Y-40.858 E404.70655
G1 X27.547 Y-42.133 E404.91333
G1 X29.968 Y-42.919 E405.11969
G1 X32.498 Y-43.184 E405.32592
G1 X35.028 Y-42.919 E405.53215
G1 X37.451 Y-42.133 E405.73867
G1 X39.661 Y-40.858 E405.94551
G1 X41.559 Y-39.149 E406.15257
G1 X43.053 Y-37.094 E406.35855
G1 X44.093 Y-34.758 E406.56585
G1 X44.62 Y-32.266 E406.77235
G1 X44.62 Y-29.729 E406.97803
G1 X44.092 Y-27.237 E407.18455
G1 X43.053 Y-24.903 E407.39167
G1 X41.557 Y-22.845 E407.59794
G1 X39.661 Y-21.137 E407.80482
G1 X37.452 Y-19.862 E408.0116
G1 X35.031 Y-19.076 E408.21796
G1 X32.501 Y-18.811 E408.42419
G1 F6000 E405.92419
G0 F900 X35.031 Y-19.076
G0 X37.452 Y-19.862
G0 X39.661 Y-21.137
G0 X41.416 Y-22.718
G1 Z0.8
G0 F12000 X32.415 Y-27.524
G0 X32.5 Y-28.169
; TYPE:WALL-OUTER
G1 Z0.3
G1 F6000 E408.42419
G1 F900 X33.232 Y-28.266 E408.48406
G1 X33.914 Y-28.548 E408.54389
G1 X34.499 Y-28.998 E408.60372
G1 X34.949 Y-29.583 E408.66356
G1 X35.231 Y-30.265 E408.72339
G1 X35.328 Y-30.997 E408.78325
G1 X35.231 Y-31.729 E408.84312
G1 X34.949 Y-32.411 E408.90295
G1 X34.499 Y-32.997 E408.96285
G1 X33.914 Y-33.447 E409.02268
G1 X33.232 Y-33.729 E409.08251
G1 X32.5 Y-33.825 E409.14236
G1 X31.767 Y-33.729 E409.2023
G1 X31.086 Y-33.447 E409.26205
G1 X30.5 Y-32.997 E409.32195
G1 X30.05 Y-32.411 E409.38185
G1 X29.768 Y-31.729 E409.44168
G1 X29.672 Y-30.997 E409.50154
G1 X29.768 Y-30.265 E409.56139
G1 X30.05 Y-29.583 E409.62122
G1 X30.5 Y-28.998 E409.68106
G1 X31.086 Y-28.548 E409.74095
G1 X31.767 Y-28.266 E409.80071
G1 X32.5 Y-28.169 E409.86065
G0 F12000 X32.415 Y-27.524
G0 X32.5 Y-27.513
; TYPE:WALL-INNER
G1 F900 X33.402 Y-27.633 E409.93443
G1 X34.242 Y-27.98 E410.00811
G1 X34.962 Y-28.535 E410.08181
G1 X35.517 Y-29.255 E410.15551
G1 X35.864 Y-30.095 E410.22919
G1 X35.984 Y-30.997 E410.30296
G1 X35.864 Y-31.899 E410.37673
G1 X35.517 Y-32.739 E410.45041
G1 X34.963 Y-33.46 E410.52413
G1 X34.242 Y-34.015 E410.59789
G1 X33.401 Y-34.362 E410.67165
G1 X32.5 Y-34.48 E410.74532
G1 X31.598 Y-34.362 E410.81907
G1 X30.758 Y-34.015 E410.89275
G1 X30.037 Y-33.46 E410.96652
G1 X29.482 Y-32.739 E411.04028
G1 X29.135 Y-31.898 E411.11404
G1 X29.017 Y-30.997 E411.18771
G1 X29.135 Y-30.096 E411.26138
G1 X29.482 Y-29.255 E411.33513
G1 X30.037 Y-28.534 E411.4089
G1 X30.758 Y-27.98 E411.48261
G1 X31.597 Y-27.633 E411.55622
G1 X32.5 Y-27.513 E411.63007
G0 F12000 X32.5 Y-26.858
G1 F900 X33.571 Y-27 E411.71766
G1 X34.57 Y-27.413 E411.8053
G1 X35.426 Y-28.071 E411.89283
G1 X36.084 Y-28.927 E411.98036
G1 X36.497 Y-29.926 E412.068
G1 X36.639 Y-30.997 E412.15559
G1 X36.497 Y-32.068 E412.24317
G1 X36.085 Y-33.066 E412.33071
G1 X35.426 Y-33.923 E412.41835
G1 X34.57 Y-34.582 E412.50593
G1 X33.57 Y-34.995 E412.59365
G1 X32.5 Y-35.136 E412.68114
G1 X31.429 Y-34.995 E412.76872
G1 X30.43 Y-34.582 E412.85636
G1 X29.573 Y-33.924 E412.94395
G1 X28.914 Y-33.066 E413.03166
G1 X28.502 Y-32.067 E413.11927
G1 X28.361 Y-30.997 E413.20677
G1 X28.502 Y-29.927 E413.29426
G1 X28.915 Y-28.927 E413.38198
G1 X29.574 Y-28.071 E413.46956
G1 X30.43 Y-27.413 E413.55709
G1 X31.427 Y-27 E413.64458
G1 X32.5 Y-26.858 E413.73232
G1 F6000 E411.23232
G0 F900 X31.427 Y-27
G0 X30.43 Y-27.413
G0 X29.574 Y-28.071
G0 X28.915 Y-28.927
G0 X28.502 Y-29.927
G0 X28.361 Y-30.997
G0 X28.502 Y-32.067
G0 X28.914 Y-33.066
G0 X29.573 Y-33.924
G0 X29.795 Y-34.094
G1 Z0.8
G0 F12000 X32.501 Y-16.888
G0 X32.522 Y-16.593
; TYPE:FILL
G1 Z0.3
G1 F6000 E413.73232
G1 F900 X32.58 Y-16.213 E413.76291
G1 X32.536 Y-15.838 E413.79122
G1 X32.498 Y-15.937 E413.80223
G1 X32.463 Y-15.829 E413.80433
G0 F12000 X32.501 Y-16.888
G0 X32.231 Y-18.186
G0 X30.097 Y-18.409
G0 X29.567 Y-17.195
G0 X29.502 Y-16.51
G1 F900 X29.386 Y-16.167 E413.83197
G1 X29.37 Y-16.278 E413.843
G1 X29.405 Y-16.351 E413.85186
G1 X29.526 Y-16.902 E413.89077
G0 F12000 X29.567 Y-17.195
G0 X29.572 Y-18.522
G0 X27.532 Y-19.184
G0 X26.762 Y-18.107
G0 X26.659 Y-17.826
G1 F900 X26.558 Y-17.457 E413.92112
G1 X26.368 Y-17.134 E413.94911
G1 X26.374 Y-17.24 E413.96024
G1 X26.297 Y-17.156 E413.96236
G0 F12000 X26.762 Y-18.107
G0 X27.043 Y-19.403
G0 X25.183 Y-20.476
G0 X24.207 Y-19.581
G0 X23.867 Y-18.98
G1 F900 X23.622 Y-18.715 E413.9899
G1 X23.652 Y-18.823 E414.00085
G1 X23.714 Y-18.875 E414.00962
G1 X24.05 Y-19.33 E414.04877
G0 F12000 X24.207 Y-19.581
G0 X24.751 Y-20.79
G0 X23.157 Y-22.226
G0 X22.014 Y-21.555
G0 X21.809 Y-21.342
G1 F900 X21.564 Y-21.045 E414.07941
G1 X21.261 Y-20.828 E414.10735
G1 X21.311 Y-20.924 E414.11896
G1 X21.205 Y-20.878 E414.12111
G0 F12000 X22.014 Y-21.555
G0 X22.798 Y-22.625
G0 X21.537 Y-24.359
G0 X20.278 Y-23.94
G0 X19.728 Y-23.531
G1 F900 X19.391 Y-23.387 E414.14876
G1 X19.459 Y-23.469 E414.16057
G1 X19.541 Y-23.493 E414.1679
G1 X20.031 Y-23.773 E414.20683
G0 F12000 X20.278 Y-23.94
G0 X21.269 Y-24.824
G0 X20.396 Y-26.786
G0 X19.078 Y-26.636
G0 X18.804 Y-26.524
G1 F900 X18.458 Y-26.351 E414.23766
G1 X18.091 Y-26.278 E414.26571
G1 X18.173 Y-26.343 E414.27671
G1 X18.061 Y-26.344 E414.27876
G1 F6000 E411.77876
G0 F900 X18.173 Y-26.343
G0 X18.091 Y-26.278
G0 X18.458 Y-26.351
G0 X18.804 Y-26.524
G0 X19.078 Y-26.636
G0 X20.396 Y-26.786
G0 X21.269 Y-24.824
G0 X20.278 Y-23.94
G0 X20.031 Y-23.773
G0 X19.541 Y-23.493
G0 X19.459 Y-23.469
G0 X19.391 Y-23.387
G0 X19.728 Y-23.531
G0 X20.278 Y-23.94
G0 X21.537 Y-24.359
G0 X21.829 Y-23.957
G1 Z0.8
G0 F12000 X19.078 Y-26.636
G0 X20.23 Y-27.294
G0 X19.786 Y-29.393
G0 X18.464 Y-29.521
G0 X17.794 Y-29.372
G1 Z0.3
G1 F6000 E414.27876
G1 F900 X17.433 Y-29.375 E414.30614
G1 X17.531 Y-29.425 E414.31757
G1 X17.611 Y-29.414 E414.32591
G1 X18.173 Y-29.47 E414.3648
G0 F12000 X18.464 Y-29.521
G0 X19.729 Y-29.927
G0 X19.729 Y-32.071
G0 X18.466 Y-32.471
G0 X18.161 Y-32.482
G1 F900 X17.786 Y-32.464 E414.39481
G1 X17.424 Y-32.543 E414.4224
G1 X17.53 Y-32.571 E414.43446
G1 X17.425 Y-32.62 E414.43661
G0 F12000 X18.466 Y-32.471
G0 X19.786 Y-32.605
G0 X20.231 Y-34.703
G0 X19.078 Y-35.357
G0 X18.406 Y-35.49
G1 F900 X18.071 Y-35.647 E414.46472
G1 X18.176 Y-35.651 E414.47607
G1 X18.251 Y-35.604 E414.48348
G1 X18.793 Y-35.427 E414.52295
G0 F12000 X19.078 Y-35.357
G0 X20.397 Y-35.212
G0 X21.27 Y-37.173
G0 X20.276 Y-38.053
G0 X20.007 Y-38.184
G1 F900 X19.655 Y-38.321 E414.55315
G1 X19.354 Y-38.544 E414.58114
G1 X19.459 Y-38.527 E414.5926
G1 X19.385 Y-38.612 E414.59465
G0 F12000 X20.276 Y-38.053
G0 X21.539 Y-37.638
G0 X22.8 Y-39.373
G0 X22.012 Y-40.438
G0 X21.446 Y-40.84
G1 F900 X21.207 Y-41.115 E414.62237
G1 X21.305 Y-41.077 E414.63324
G1 X21.354 Y-41.004 E414.6411
G1 X21.777 Y-40.621 E414.68053
G0 F12000 X22.012 Y-40.438
G0 X23.159 Y-39.771
G0 X24.754 Y-41.207
G0 X24.203 Y-42.415
G0 X24.01 Y-42.644
G1 F900 X23.745 Y-42.913 E414.71072
G1 X23.561 Y-43.235 E414.73843
G1 X23.652 Y-43.175 E414.75034
G1 X23.618 Y-43.286 E414.7525
G0 F12000 X24.203 Y-42.415
G0 X25.186 Y-41.521
G0 X27.045 Y-42.594
G0 X26.759 Y-43.887
G0 X26.408 Y-44.479
G1 F900 X26.3 Y-44.829 E414.78023
G1 X26.375 Y-44.753 E414.79173
G1 X26.39 Y-44.669 E414.79938
G1 X26.619 Y-44.151 E414.83837
G1 F6000 E412.33837
G0 F900 X26.39 Y-44.669
G0 X26.375 Y-44.753
G0 X26.3 Y-44.829
G0 X26.408 Y-44.479
G0 X26.759 Y-43.887
G0 X27.045 Y-42.594
G0 X25.186 Y-41.521
G0 X24.203 Y-42.415
G0 X23.618 Y-43.286
G0 X23.652 Y-43.175
G0 X23.561 Y-43.235
G0 X23.745 Y-42.913
G0 X24.01 Y-42.644
G0 X24.203 Y-42.415
G0 X24.647 Y-41.441
G1 Z0.8
G0 F12000 X26.759 Y-43.887
G0 X27.535 Y-42.812
G0 X29.574 Y-43.474
G0 X29.564 Y-44.801
G0 X29.481 Y-45.089
G1 Z0.3
G1 F6000 E414.83837
G1 F900 X29.346 Y-45.443 E414.8688
G1 X29.311 Y-45.815 E414.89662
G1 X29.369 Y-45.725 E414.90845
G1 X29.383 Y-45.838 E414.91053
G0 F12000 X29.564 Y-44.801
G0 X30.1 Y-43.586
G0 X32.233 Y-43.81
G0 X32.498 Y-45.107
G0 X32.415 Y-45.792
G1 F900 X32.463 Y-46.158 E414.93875
G1 X32.499 Y-46.06 E414.9494
G1 X32.477 Y-45.972 E414.9574
G1 X32.485 Y-45.372 E414.98809
G1 X32.503 Y-45.493 E414.99541
G0 F12000 X32.498 Y-45.107
G0 X32.768 Y-43.809
G0 X34.902 Y-43.586
G0 X35.432 Y-44.8
G0 X35.496 Y-45.484
G1 F900 X35.613 Y-45.828 E415.02305
G1 X35.629 Y-45.719 E415.03425
G1 X35.593 Y-45.645 E415.04255
G1 X35.473 Y-45.092 E415.08158
G0 F12000 X35.432 Y-44.8
G0 X35.427 Y-43.473
G0 X37.467 Y-42.811
G0 X38.237 Y-43.888
G0 X38.34 Y-44.168
G1 F900 X38.439 Y-44.537 E415.11198
G1 X38.63 Y-44.86 E415.14001
G1 X38.624 Y-44.754 E415.15114
G1 X38.701 Y-44.839 E415.15327
G0 F12000 X38.237 Y-43.888
G0 X37.956 Y-42.592
G0 X39.816 Y-41.519
G0 X40.794 Y-42.416
G0 X41.131 Y-43.015
G1 F900 X41.376 Y-43.279 E415.18076
G1 X41.346 Y-43.173 E415.19179
G1 X41.284 Y-43.12 E415.20036
G1 X40.95 Y-42.665 E415.23957
G0 F12000 X40.794 Y-42.416
G0 X40.247 Y-41.205
G0 X41.842 Y-39.769
G0 X42.985 Y-40.44
G0 X43.19 Y-40.652
G1 F900 X43.435 Y-40.949 E415.27011
G1 X43.736 Y-41.166 E415.29774
G1 X43.685 Y-41.068 E415.30922
G1 X43.794 Y-41.117 E415.31152
G0 F12000 X42.985 Y-40.44
G0 X42.201 Y-39.371
G0 X43.462 Y-37.636
G0 X44.721 Y-38.055
G0 X45.271 Y-38.464
G1 F900 X45.608 Y-38.607 E415.33914
G1 X45.54 Y-38.525 E415.35078
G1 X45.458 Y-38.501 E415.35827
G1 X44.967 Y-38.221 E415.39726
G1 F6000 E412.89726
G0 F900 X45.458 Y-38.501
G0 X45.54 Y-38.525
G0 X45.608 Y-38.607
G0 X45.271 Y-38.464
G0 X44.721 Y-38.055
G0 X43.462 Y-37.636
G0 X42.201 Y-39.371
G0 X42.985 Y-40.44
G0 X43.794 Y-41.117
G0 X43.685 Y-41.068
G0 X43.736 Y-41.166
G0 X43.435 Y-40.949
G0 X43.19 Y-40.652
G0 X42.985 Y-40.44
G0 X42.067 Y-39.901
G1 Z0.8
G0 F12000 X44.721 Y-38.055
G0 X43.73 Y-37.171
G0 X44.603 Y-35.209
G0 X45.921 Y-35.359
G0 X46.195 Y-35.471
G1 Z0.3
G1 F6000 E415.39726
G1 F900 X46.54 Y-35.643 E415.42798
G1 X46.907 Y-35.716 E415.45584
G1 X46.825 Y-35.651 E415.46685
G1 X46.937 Y-35.651 E415.4689
G0 F12000 X45.921 Y-35.359
G0 X44.769 Y-34.701
G0 X45.213 Y-32.602
G0 X46.535 Y-32.474
G0 X47.205 Y-32.623
G1 F900 X47.565 Y-32.619 E415.49629
G1 X47.467 Y-32.569 E415.50772
G1 X47.387 Y-32.58 E415.51598
G1 X46.826 Y-32.525 E415.55479
G0 F12000 X46.535 Y-32.474
G0 X45.27 Y-32.068
G0 X45.27 Y-29.924
G0 X46.533 Y-29.524
G0 X46.838 Y-29.513
G1 F900 X47.212 Y-29.53 E415.58481
G1 X47.574 Y-29.451 E415.6124
G1 X47.468 Y-29.424 E415.62444
G1 X47.574 Y-29.375 E415.62661
G0 F12000 X46.533 Y-29.524
G0 X45.213 Y-29.39
G0 X44.768 Y-27.292
G0 X45.921 Y-26.638
G0 X46.593 Y-26.505
G1 F900 X46.928 Y-26.348 E415.65471
G1 X46.822 Y-26.343 E415.66606
G1 X46.747 Y-26.39 E415.67356
G1 X46.206 Y-26.567 E415.71296
G0 F12000 X45.921 Y-26.638
G0 X44.602 Y-26.783
G0 X43.729 Y-24.822
G0 X44.723 Y-23.942
G0 X44.991 Y-23.81
G1 F900 X45.343 Y-23.674 E415.74313
G1 X45.644 Y-23.451 E415.77112
G1 X45.538 Y-23.468 E415.78274
G1 X45.614 Y-23.382 E415.78485
G0 F12000 X44.723 Y-23.942
G0 X43.46 Y-24.357
G0 X42.199 Y-22.622
G0 X42.987 Y-21.557
G0 X43.548 Y-21.157
G1 F900 X43.788 Y-20.882 E415.81248
G1 X43.689 Y-20.92 E415.82399
G1 X43.641 Y-20.991 E415.8315
G1 X43.223 Y-21.371 E415.8704
G0 F12000 X42.987 Y-21.557
G0 X41.84 Y-22.224
G0 X40.245 Y-20.788
G0 X40.796 Y-19.58
G0 X40.987 Y-19.353
G1 F900 X41.253 Y-19.083 E415.90037
G1 X41.439 Y-18.759 E415.92818
G1 X41.347 Y-18.819 E415.93936
G1 X41.385 Y-18.707 E415.94163
G1 F6000 E413.44163
G0 F900 X41.347 Y-18.819
G0 X41.439 Y-18.759
G0 X41.253 Y-19.083
G0 X40.987 Y-19.353
G0 X40.796 Y-19.58
G0 X40.245 Y-20.788
G0 X41.84 Y-22.224
G0 X42.987 Y-21.557
G0 X43.223 Y-21.371
G0 X43.641 Y-20.991
G0 X43.689 Y-20.92
G0 X43.788 Y-20.882
G0 X43.548 Y-21.157
G0 X42.987 Y-21.557
G0 X42.199 Y-22.622
G0 X42.488 Y-23.02
G1 Z0.8
G0 F12000 X40.796 Y-19.58
G0 X39.813 Y-20.474
G0 X37.954 Y-19.401
G0 X38.24 Y-18.108
G0 X38.59 Y-17.516
G1 Z0.3
G1 F6000 E415.94163
G1 F900 X38.698 Y-17.165 E415.96944
G1 X38.623 Y-17.241 E415.98102
G1 X38.608 Y-17.326 E415.98851
G1 X38.38 Y-17.844 E416.02747
G0 F12000 X38.24 Y-18.108
G0 X37.464 Y-19.183
G0 X35.425 Y-18.521
G0 X35.435 Y-17.194
G0 X35.518 Y-16.905
G1 F900 X35.652 Y-16.554 E416.0576
G1 X35.687 Y-16.179 E416.08569
G1 X35.629 Y-16.269 E416.09753
G1 X35.616 Y-16.156 E416.0996
G0 F12000 X35.435 Y-17.194
G0 X35.045 Y-19.5
; TYPE:BOTTOM-FILL
G1 F900 X29.957 Y-19.5 E416.51209
G0 F12000 X27.955 Y-20.15
G1 F900 X37.047 Y-20.15 E417.24919
G0 F12000 X38.278 Y-20.8
G1 F900 X26.723 Y-20.8 E418.18597
G0 F12000 X25.596 Y-21.45
G1 F900 X39.404 Y-21.45 E419.30541
G0 F12000 X40.133 Y-22.1
G1 F900 X24.866 Y-22.1 E420.54313
G0 F12000 X24.144 Y-22.75
G1 F900 X40.855 Y-22.75 E421.89792
G0 F12000 X41.467 Y-23.4
G1 F900 X23.532 Y-23.4 E423.35194
G0 F12000 X23.059 Y-24.05
G1 F900 X41.939 Y-24.05 E424.88257
G0 F12000 X42.412 Y-24.7
G1 F900 X22.586 Y-24.7 E426.48989
G0 F12000 X22.184 Y-25.35
G1 F900 X42.815 Y-25.35 E428.16248
G0 F12000 X43.104 Y-26
G1 F900 X21.894 Y-26 E429.88201
G0 F12000 X21.605 Y-26.65
G1 F900 X31.225 Y-26.65 E430.66192
G0 F12000 X29.919 Y-27.3
G1 F900 X21.316 Y-27.3 E431.35938
G0 F12000 X21.164 Y-27.95
G1 F900 X29.163 Y-27.95 E432.00787
G0 F12000 X28.663 Y-28.6
G1 F900 X21.027 Y-28.6 E432.62693
G0 F12000 X20.889 Y-29.25
G1 F900 X28.349 Y-29.25 E433.23172
G0 F12000 X28.102 Y-29.9
G1 F900 X20.778 Y-29.9 E433.82549
G0 F12000 X20.778 Y-30.55
G1 F900 X28.015 Y-30.55 E434.41221
G0 F12000 X27.983 Y-31.2
G1 F900 X20.778 Y-31.2 E434.99633
G0 F12000 X20.778 Y-31.85
G1 F900 X28.069 Y-31.85 E435.58742
G0 F12000 X28.247 Y-32.5
G1 F900 X20.837 Y-32.5 E436.18816
G0 F12000 X20.974 Y-33.15
G1 F900 X28.515 Y-33.15 E436.79952
G0 F12000 X28.971 Y-33.8
G1 F900 X21.112 Y-33.8 E437.43666
G0 F12000 X21.25 Y-34.45
G1 F900 X29.598 Y-34.45 E438.11345
G0 F12000 X30.634 Y-35.1
G1 F900 X21.496 Y-35.1 E438.85428
G0 F12000 X21.785 Y-35.75
G1 F900 X43.214 Y-35.75 E440.59156
G0 F12000 X43.503 Y-35.1
G1 F900 X34.363 Y-35.1 E441.33256
G0 F12000 X35.396 Y-34.45
G1 F900 X43.749 Y-34.45 E442.00975
G0 F12000 X43.886 Y-33.8
G1 F900 X36.026 Y-33.8 E442.64697
G0 F12000 X36.484 Y-33.15
G1 F900 X44.024 Y-33.15 E443.25825
G0 F12000 X44.161 Y-32.5
G1 F900 X36.751 Y-32.5 E443.85899
G0 F12000 X36.929 Y-31.85
G1 F900 X44.22 Y-31.85 E444.45009
G0 F12000 X44.22 Y-31.2
G1 F900 X37.016 Y-31.2 E445.03413
G0 F12000 X36.984 Y-30.55
G1 F900 X44.22 Y-30.55 E445.62076
G0 F12000 X44.22 Y-29.9
G1 F900 X36.897 Y-29.9 E446.21445
G0 F12000 X36.651 Y-29.25
G1 F900 X44.11 Y-29.25 E446.81916
G0 F12000 X43.972 Y-28.6
G1 F900 X36.339 Y-28.6 E447.43798
G0 F12000 X35.84 Y-27.95
G1 F900 X43.834 Y-27.95 E448.08606
G0 F12000 X43.683 Y-27.3
G1 F900 X35.083 Y-27.3 E448.78328
G0 F12000 X33.774 Y-26.65
G1 F900 X43.393 Y-26.65 E449.56311
G1 F6000 E447.06311
G0 F900 X33.774 Y-26.65
G0 X34.115 Y-26.819
G1 Z0.8
G0 F12000 X42.924 Y-36.4
G1 Z0.3
G1 F6000 E449.56311
G1 F900 X22.074 Y-36.4 E451.25345
G0 F12000 X22.409 Y-37.05
G1 F900 X42.591 Y-37.05 E452.88964
G0 F12000 X42.118 Y-37.7
G1 F900 X22.881 Y-37.7 E454.44921
G0 F12000 X23.353 Y-38.35
G1 F900 X41.645 Y-38.35 E455.93217
G0 F12000 X41.127 Y-39
G1 F900 X23.872 Y-39 E457.33106
G0 F12000 X24.594 Y-39.65
G1 F900 X40.405 Y-39.65 E458.61289
G0 F12000 X39.683 Y-40.3
G1 F900 X25.315 Y-40.3 E459.77772
G0 F12000 X26.297 Y-40.95
G1 F900 X38.701 Y-40.95 E460.78333
G0 F12000 X37.575 Y-41.6
G1 F900 X27.423 Y-41.6 E461.60637
G0 F12000 X29.202 Y-42.25
G1 F900 X35.794 Y-42.25 E462.1408
G1 F6000 E459.6408
G0 F900 X29.202 Y-42.25
G0 X27.423 Y-41.6
G0 X28.937 Y-41.6
G1 Z0.8
G0 F12000 X21.539 Y-37.638
G0 X20.276 Y-38.053
G0 X18.857 Y-39.357
G0 X15.049 Y-39.357
G0 X13.049 Y-44.997
G0 X11.549 Y-44.997
G0 X10.574 Y-44.022
G0 X0.574 Y-44.022
G0 X-12.474 Y-44.022
G0 X-24.424 Y-44.022
G0 X-37.474 Y-44.022
G0 X-38.124 Y-44.022
G0 X-38.124 Y-44.672
; TYPE:WALL-OUTER
G1 Z0.3
G1 F6000 E462.1408
G1 F900 X-38.124 Y-46.672 E462.30294
G1 X-23.774 Y-46.672 E463.46632
G1 X-23.774 Y-44.672 E463.62846
G1 X-13.124 Y-44.672 E464.49187
G1 X-13.124 Y-46.672 E464.65401
G1 X1.224 Y-46.672 E465.81723
G1 X1.224 Y-44.672 E465.97937
G1 X11.224 Y-44.672 E466.79009
G1 X11.224 Y-22.322 E468.60204
G1 X-48.124 Y-22.322 E473.41347
G1 X-48.124 Y-44.672 E475.22542
G1 X-38.124 Y-44.672 E476.03614
G0 F12000 X-38.124 Y-44.022
G0 X-37.474 Y-44.022
; TYPE:WALL-INNER
G1 F900 X-37.474 Y-46.022 E476.19828
G1 X-24.424 Y-46.022 E477.25627
G1 X-24.424 Y-44.022 E477.41841
G1 X-12.474 Y-44.022 E478.38722
G1 X-12.474 Y-46.022 E478.54936
G1 X0.574 Y-46.022 E479.60718
G1 X0.574 Y-44.022 E479.76932
G1 X10.574 Y-44.022 E480.58004
G1 X10.574 Y-22.972 E482.2866
G1 X-47.474 Y-22.972 E486.99264
G1 X-47.474 Y-44.022 E488.6992
G1 X-37.474 Y-44.022 E489.50991
G0 F12000 X-36.824 Y-43.372
G1 F900 X-36.824 Y-45.372 E489.67206
G1 X-25.074 Y-45.372 E490.62465
G1 X-25.074 Y-43.372 E490.78679
G1 X-11.824 Y-43.372 E491.86099
G1 X-11.824 Y-45.372 E492.02313
G1 X-0.076 Y-45.372 E492.97556
G1 X-0.076 Y-43.372 E493.1377
G1 X9.924 Y-43.372 E493.94842
G1 X9.924 Y-23.622 E495.54958
G1 X-46.824 Y-23.622 E500.15023
G1 X-46.824 Y-43.372 E501.7514
G1 X-36.824 Y-43.372 E502.56211
G1 F6000 E500.06211
G0 F900 X-46.824 Y-43.372
G1 Z0.8
G0 F12000 X-35.08 Y-27.963
G0 X-34.962 Y-27.061
G0 X-34.614 Y-26.221
G0 X-34.06 Y-25.5
G0 X-33.339 Y-24.946
G0 X-32.499 Y-24.598
G0 X-31.681 Y-24.491
G0 X-31.597 Y-25.135
; TYPE:WALL-OUTER
G1 Z0.3
G1 F6000 E502.56211
G1 F900 X-30.865 Y-25.231 E502.62197
G1 X-30.183 Y-25.514 E502.68183
G1 X-29.598 Y-25.963 E502.74161
G1 X-29.148 Y-26.549 E502.80151
G1 X-28.866 Y-27.231 E502.86134
G1 X-28.769 Y-27.963 E502.92121
G1 X-28.866 Y-28.695 E502.98107
G1 X-29.148 Y-29.377 E503.0409
G1 X-29.598 Y-29.963 E503.1008
G1 X-30.183 Y-30.412 E503.16059
G1 X-30.865 Y-30.695 E503.22045
G1 X-31.597 Y-30.791 E503.2803
G1 X-32.329 Y-30.695 E503.34015
G1 X-33.011 Y-30.412 E503.40002
G1 X-33.597 Y-29.963 E503.45987
G1 X-34.046 Y-29.377 E503.51972
G1 X-34.329 Y-28.695 E503.57958
G1 X-34.425 Y-27.963 E503.63943
G1 X-34.329 Y-27.231 E503.69928
G1 X-34.046 Y-26.549 E503.75915
G1 X-33.597 Y-25.963 E503.819
G1 X-33.011 Y-25.514 E503.87885
G1 X-32.329 Y-25.231 E503.93871
G1 X-31.597 Y-25.135 E503.99856
G0 F12000 X-31.681 Y-24.491
G0 X-31.597 Y-24.48
; TYPE:WALL-INNER
G1 F900 X-30.695 Y-24.598 E504.07231
G1 X-29.855 Y-24.947 E504.14605
G1 X-29.135 Y-25.5 E504.21966
G1 X-28.58 Y-26.221 E504.29342
G1 X-28.233 Y-27.061 E504.3671
G1 X-28.113 Y-27.963 E504.44087
G1 X-28.233 Y-28.865 E504.51464
G1 X-28.58 Y-29.705 E504.58833
G1 X-29.135 Y-30.426 E504.66209
G1 X-29.855 Y-30.979 E504.73569
G1 X-30.695 Y-31.328 E504.80944
G1 X-31.597 Y-31.446 E504.88319
G1 X-32.499 Y-31.328 E504.95694
G1 X-33.339 Y-30.98 E505.03065
G1 X-34.06 Y-30.426 E505.10436
G1 X-34.614 Y-29.705 E505.17808
G1 X-34.962 Y-28.865 E505.25179
G1 X-35.08 Y-27.963 E505.32554
G1 X-34.962 Y-27.061 E505.39929
G1 X-34.614 Y-26.221 E505.473
G1 X-34.06 Y-25.5 E505.54672
G1 X-33.339 Y-24.946 E505.62043
G1 X-32.499 Y-24.598 E505.69415
G1 X-31.597 Y-24.48 E505.7679
G0 F12000 X-31.597 Y-23.824
G1 F900 X-30.526 Y-23.965 E505.85547
G1 X-29.527 Y-24.379 E505.94314
G1 X-28.671 Y-25.036 E506.03063
G1 X-28.012 Y-25.894 E506.11833
G1 X-27.6 Y-26.892 E506.20587
G1 X-27.458 Y-27.963 E506.29346
G1 X-27.6 Y-29.034 E506.38104
G1 X-28.012 Y-30.032 E506.46858
G1 X-28.671 Y-30.89 E506.55628
G1 X-29.527 Y-31.547 E506.64377
G1 X-30.526 Y-31.961 E506.73144
G1 X-31.597 Y-32.102 E506.81901
G1 X-32.668 Y-31.961 E506.90659
G1 X-33.666 Y-31.547 E506.99418
G1 X-34.524 Y-30.89 E507.08179
G1 X-35.181 Y-30.032 E507.16941
G1 X-35.595 Y-29.034 E507.257
G1 X-35.736 Y-27.963 E507.34458
G1 X-35.595 Y-26.892 E507.43215
G1 X-35.181 Y-25.894 E507.51975
G1 X-34.524 Y-25.036 E507.60736
G1 X-33.666 Y-24.379 E507.69497
G1 X-32.668 Y-23.965 E507.78256
G1 X-31.597 Y-23.824 E507.87014
G1 F6000 E505.37014
G0 F900 X-32.668 Y-23.965
G0 X-33.666 Y-24.379
G0 X-34.524 Y-25.036
G0 X-35.181 Y-25.894
G0 X-35.595 Y-26.892
G0 X-35.736 Y-27.963
G0 X-35.595 Y-29.034
G0 X-35.181 Y-30.032
G0 X-34.524 Y-30.89
G0 X-34.302 Y-31.06
G1 Z0.8
G0 F12000 X-10.681 Y-24.491
G0 X-10.597 Y-25.135
; TYPE:WALL-OUTER
G1 Z0.3
G1 F6000 E507.87014
G1 F900 X-9.865 Y-25.231 E507.92999
G1 X-9.183 Y-25.514 E507.98986
G1 X-8.598 Y-25.963 E508.04964
G1 X-8.148 Y-26.549 E508.10954
G1 X-7.866 Y-27.231 E508.16937
G1 X-7.769 Y-27.963 E508.22924
G1 X-7.866 Y-28.695 E508.2891
G1 X-8.148 Y-29.377 E508.34893
G1 X-8.598 Y-29.963 E508.40883
G1 X-9.183 Y-30.412 E508.46861
G1 X-9.865 Y-30.695 E508.52848
G1 X-10.597 Y-30.791 E508.58833
G1 X-11.329 Y-30.695 E508.64818
G1 X-12.011 Y-30.412 E508.70804
G1 X-12.597 Y-29.963 E508.76789
G1 X-13.046 Y-29.377 E508.82774
G1 X-13.329 Y-28.695 E508.88761
G1 X-13.425 Y-27.963 E508.94746
G1 X-13.329 Y-27.231 E509.00731
G1 X-13.046 Y-26.549 E509.06717
G1 X-12.597 Y-25.963 E509.12702
G1 X-12.011 Y-25.514 E509.18687
G1 X-11.329 Y-25.231 E509.24674
G1 X-10.597 Y-25.135 E509.30659
G0 F12000 X-10.681 Y-24.491
G0 X-10.597 Y-24.48
; TYPE:WALL-INNER
G1 F900 X-9.695 Y-24.598 E509.38034
G1 X-8.855 Y-24.947 E509.45408
G1 X-8.135 Y-25.5 E509.52768
G1 X-7.58 Y-26.221 E509.60145
G1 X-7.233 Y-27.061 E509.67513
G1 X-7.113 Y-27.963 E509.7489
G1 X-7.233 Y-28.865 E509.82267
G1 X-7.58 Y-29.705 E509.89635
G1 X-8.135 Y-30.426 E509.97012
G1 X-8.855 Y-30.979 E510.04372
G1 X-9.695 Y-31.328 E510.11746
G1 X-10.597 Y-31.446 E510.19121
G1 X-11.499 Y-31.328 E510.26496
G1 X-12.339 Y-30.98 E510.33868
G1 X-13.06 Y-30.426 E510.41239
G1 X-13.614 Y-29.705 E510.48611
G1 X-13.962 Y-28.865 E510.55982
G1 X-14.08 Y-27.963 E510.63357
G1 X-13.962 Y-27.061 E510.70732
G1 X-13.614 Y-26.221 E510.78103
G1 X-13.06 Y-25.5 E510.85475
G1 X-12.339 Y-24.946 E510.92846
G1 X-11.499 Y-24.598 E511.00218
G1 X-10.597 Y-24.48 E511.07593
G0 F12000 X-10.597 Y-23.824
G1 F900 X-9.526 Y-23.965 E511.1635
G1 X-8.527 Y-24.379 E511.25117
G1 X-7.671 Y-25.036 E511.33865
G1 X-7.012 Y-25.894 E511.42636
G1 X-6.6 Y-26.892 E511.5139
G1 X-6.458 Y-27.963 E511.60148
G1 X-6.6 Y-29.034 E511.68907
G1 X-7.012 Y-30.032 E511.7766
G1 X-7.671 Y-30.89 E511.86431
G1 X-8.527 Y-31.547 E511.95179
G1 X-9.526 Y-31.961 E512.03946
G1 X-10.597 Y-32.102 E512.12704
G1 X-11.668 Y-31.961 E512.21462
G1 X-12.666 Y-31.547 E512.30221
G1 X-13.524 Y-30.89 E512.38982
G1 X-14.181 Y-30.032 E512.47743
G1 X-14.595 Y-29.034 E512.56503
G1 X-14.736 Y-27.963 E512.65261
G1 X-14.595 Y-26.892 E512.74018
G1 X-14.181 Y-25.894 E512.82778
G1 X-13.524 Y-25.036 E512.91539
G1 X-12.666 Y-24.379 E513.003
G1 X-11.668 Y-23.965 E513.09059
G1 X-10.597 Y-23.824 E513.17817
G1 F6000 E510.67817
G0 F900 X-11.668 Y-23.965
G0 X-12.666 Y-24.379
G0 X-13.524 Y-25.036
G0 X-14.181 Y-25.894
G0 X-14.595 Y-26.892
G0 X-14.736 Y-27.963
G0 X-14.595 Y-29.034
G0 X-14.181 Y-30.032
G0 X-13.524 Y-30.89
G0 X-13.302 Y-31.06
G1 Z0.8
G0 F12000 X1.317 Y-24.491
G0 X1.401 Y-25.135
; TYPE:WALL-OUTER
G1 Z0.3
G1 F6000 E513.17817
G1 F900 X2.133 Y-25.231 E513.23802
G1 X2.815 Y-25.514 E513.29788
G1 X3.4 Y-25.963 E513.35767
G1 X3.85 Y-26.549 E513.41757
G1 X4.132 Y-27.231 E513.4774
G1 X4.229 Y-27.963 E513.53726
G1 X4.132 Y-28.695 E513.59713
G1 X3.85 Y-29.377 E513.65696
G1 X3.4 Y-29.963 E513.71686
G1 X2.815 Y-30.412 E513.77664
G1 X2.133 Y-30.695 E513.83651
G1 X1.401 Y-30.791 E513.89636
G1 X0.669 Y-30.695 E513.95621
G1 X-0.013 Y-30.412 E514.01607
G1 X-0.598 Y-29.963 E514.07586
G1 X-1.047 Y-29.377 E514.13571
G1 X-1.329 Y-28.695 E514.19554
G1 X-1.425 Y-27.963 E514.25539
G1 X-1.329 Y-27.231 E514.31524
G1 X-1.047 Y-26.549 E514.37508
G1 X-0.598 Y-25.963 E514.43493
G1 X-0.013 Y-25.514 E514.49471
G1 X0.669 Y-25.231 E514.55457
G1 X1.401 Y-25.135 E514.61443
G0 F12000 X1.317 Y-24.491
G0 X1.401 Y-24.48
; TYPE:WALL-INNER
G1 F900 X2.303 Y-24.598 E514.68818
G1 X3.143 Y-24.947 E514.76192
G1 X3.863 Y-25.5 E514.83552
G1 X4.418 Y-26.221 E514.90929
G1 X4.765 Y-27.061 E514.98297
G1 X4.885 Y-27.963 E515.05674
G1 X4.765 Y-28.865 E515.13051
G1 X4.418 Y-29.705 E515.20419
G1 X3.863 Y-30.426 E515.27796
G1 X3.143 Y-30.979 E515.35156
G1 X2.303 Y-31.328 E515.4253
G1 X1.401 Y-31.446 E515.49905
G1 X0.499 Y-31.328 E515.5728
G1 X-0.341 Y-30.979 E515.64655
G1 X-1.062 Y-30.426 E515.72021
G1 X-1.615 Y-29.704 E515.79394
G1 X-1.962 Y-28.864 E515.86762
G1 X-2.08 Y-27.963 E515.94129
G1 X-1.962 Y-27.062 E516.01496
G1 X-1.615 Y-26.222 E516.08864
G1 X-1.062 Y-25.5 E516.16237
G1 X-0.341 Y-24.947 E516.23604
G1 X0.499 Y-24.598 E516.30978
G1 X1.401 Y-24.48 E516.38353
G0 F12000 X1.401 Y-23.824
G1 F900 X2.472 Y-23.965 E516.47111
G1 X3.471 Y-24.379 E516.55878
G1 X4.327 Y-25.036 E516.64626
G1 X4.986 Y-25.894 E516.73397
G1 X5.398 Y-26.892 E516.8215
G1 X5.54 Y-27.963 E516.90909
G1 X5.398 Y-29.034 E516.99668
G1 X4.986 Y-30.032 E517.08421
G1 X4.327 Y-30.89 E517.17192
G1 X3.471 Y-31.547 E517.2594
G1 X2.472 Y-31.961 E517.34707
G1 X1.401 Y-32.102 E517.43465
G1 X0.33 Y-31.961 E517.52223
G1 X-0.669 Y-31.547 E517.6099
G1 X-1.526 Y-30.889 E517.69749
G1 X-2.183 Y-30.031 E517.7851
G1 X-2.595 Y-29.033 E517.87263
G1 X-2.736 Y-27.963 E517.96013
G1 X-2.595 Y-26.893 E518.04763
G1 X-2.183 Y-25.895 E518.13516
G1 X-1.526 Y-25.037 E518.22277
G1 X-0.669 Y-24.379 E518.31037
G1 X0.33 Y-23.965 E518.39804
G1 X1.401 Y-23.824 E518.48561
G0 F12000 X-1.408 Y-24.05
; TYPE:BOTTOM-FILL
G1 F900 X-7.786 Y-24.05 E519.00269
G0 F12000 X-7.45 Y-24.7
G1 F900 X-1.743 Y-24.7 E519.46536
G0 F12000 X-2.268 Y-25.35
G1 F900 X-6.923 Y-25.35 E519.84275
G0 F12000 X-6.534 Y-26
G1 F900 X-2.658 Y-26 E520.15698
G0 F12000 X-2.926 Y-26.65
G1 F900 X-6.266 Y-26.65 E520.42776
G0 F12000 X-6.141 Y-27.3
G1 F900 X-3.051 Y-27.3 E520.67827
G0 F12000 X-3.137 Y-27.95
G1 F900 X-6.055 Y-27.95 E520.91484
G0 F12000 X-6.138 Y-28.6
G1 F900 X-3.054 Y-28.6 E521.16487
G0 F12000 X-2.937 Y-29.25
G1 F900 X-6.255 Y-29.25 E521.43386
G0 F12000 X-6.523 Y-29.9
G1 F900 X-2.669 Y-29.9 E521.74631
G0 F12000 X-2.288 Y-30.55
G1 F900 X-6.903 Y-30.55 E522.12046
G0 F12000 X-7.416 Y-31.2
G1 F900 X-1.777 Y-31.2 E522.57762
G0 F12000 X-0.932 Y-31.85
G1 F900 X-8.262 Y-31.85 E523.17187
G0 F12000 X-10.551 Y-32.5
G1 F900 X1.355 Y-32.5 E524.13711
G0 F12000 X1.445 Y-32.5
G1 F900 X9.523 Y-32.5 E524.79201
G0 F12000 X9.523 Y-31.85
G1 F900 X3.734 Y-31.85 E525.26133
G0 F12000 X4.58 Y-31.2
G1 F900 X9.523 Y-31.2 E525.66207
G0 F12000 X9.523 Y-30.55
G1 F900 X5.093 Y-30.55 E526.02122
G0 F12000 X5.473 Y-29.9
G1 F900 X9.523 Y-29.9 E526.34956
G0 F12000 X9.523 Y-29.25
G1 F900 X5.741 Y-29.25 E526.65617
G0 F12000 X5.858 Y-28.6
G1 F900 X9.523 Y-28.6 E526.9533
G0 F12000 X9.523 Y-27.95
G1 F900 X5.941 Y-27.95 E527.24369
G0 F12000 X5.855 Y-27.3
G1 F900 X9.523 Y-27.3 E527.54106
G0 F12000 X9.523 Y-26.65
G1 F900 X5.73 Y-26.65 E527.84857
G0 F12000 X5.462 Y-26
G1 F900 X9.523 Y-26 E528.1778
G0 F12000 X9.523 Y-25.35
G1 F900 X5.073 Y-25.35 E528.53857
G0 F12000 X4.546 Y-24.7
G1 F900 X9.523 Y-24.7 E528.94206
G0 F12000 X9.523 Y-24.05
G1 F900 X4.21 Y-24.05 E529.3728
G1 F6000 E526.8728
G0 F900 X9.523 Y-24.05
G0 X9.523 Y-24.7
G0 X5.486 Y-24.7
G1 Z0.8
G0 F12000 X9.523 Y-33.15
G1 Z0.3
G1 F6000 E529.3728
G1 F900 X-46.424 Y-33.15 E533.90851
G0 F12000 X-46.424 Y-33.8
G1 F900 X9.523 Y-33.8 E538.44422
G0 F12000 X9.523 Y-34.45
G1 F900 X-46.424 Y-34.45 E542.97993
G0 F12000 X-46.424 Y-35.1
G1 F900 X9.523 Y-35.1 E547.51564
G0 F12000 X9.523 Y-35.75
G1 F900 X-46.424 Y-35.75 E552.05135
G0 F12000 X-46.424 Y-36.4
G1 F900 X9.523 Y-36.4 E556.58707
G0 F12000 X9.523 Y-37.05
G1 F900 X-46.424 Y-37.05 E561.12278
G0 F12000 X-46.424 Y-37.7
G1 F900 X9.523 Y-37.7 E565.65849
G0 F12000 X9.523 Y-38.35
G1 F900 X-46.424 Y-38.35 E570.1942
G0 F12000 X-46.424 Y-39
G1 F900 X9.523 Y-39 E574.72991
G0 F12000 X9.523 Y-39.65
G1 F900 X-46.424 Y-39.65 E579.26562
G0 F12000 X-46.424 Y-40.3
G1 F900 X9.523 Y-40.3 E583.80134
G0 F12000 X9.523 Y-40.95
G1 F900 X-46.424 Y-40.95 E588.33705
G0 F12000 X-46.424 Y-41.6
G1 F900 X9.523 Y-41.6 E592.87276
G0 F12000 X9.523 Y-42.25
G1 F900 X-46.424 Y-42.25 E597.40847
G0 F12000 X-46.424 Y-42.9
G1 F900 X9.523 Y-42.9 E601.94418
G1 F6000 E599.44418
G0 F900 X-0.477 Y-42.9
G1 Z0.8
G0 F12000 X-0.475 Y-43.55
G1 Z0.3
G1 F6000 E601.94418
G1 F900 X-11.423 Y-43.55 E602.83175
G0 F12000 X-11.423 Y-44.2
G1 F900 X-0.475 Y-44.2 E603.71933
G0 F12000 X-0.475 Y-44.85
G1 F900 X-11.423 Y-44.85 E604.6069
G1 F6000 E602.1069
G0 F900 X-1.423 Y-44.85
G1 Z0.8
G0 F12000 X-10.641 Y-32.5
G1 Z0.3
G1 F6000 E604.6069
G1 F900 X-31.551 Y-32.499 E606.3021
G0 F12000 X-31.641 Y-32.499
G1 F900 X-46.424 Y-32.499 E607.50059
G0 F12000 X-46.424 Y-31.849
G1 F900 X-33.928 Y-31.849 E608.51366
G0 F12000 X-34.776 Y-31.199
G1 F900 X-46.424 Y-31.199 E609.45798
G0 F12000 X-46.424 Y-30.549
G1 F900 X-35.288 Y-30.549 E610.36079
G0 F12000 X-35.669 Y-29.899
G1 F900 X-46.424 Y-29.899 E611.23272
G0 F12000 X-46.424 Y-29.249
G1 F900 X-35.938 Y-29.249 E612.08283
G0 F12000 X-36.056 Y-28.599
G1 F900 X-46.424 Y-28.599 E612.92338
G0 F12000 X-46.424 Y-27.949
G1 F900 X-36.138 Y-27.949 E613.75728
G0 F12000 X-36.052 Y-27.299
G1 F900 X-46.424 Y-27.299 E614.59816
G0 F12000 X-46.424 Y-26.649
G1 F900 X-35.927 Y-26.649 E615.44917
G0 F12000 X-35.658 Y-25.999
G1 F900 X-46.424 Y-25.999 E616.32198
G0 F12000 X-46.424 Y-25.349
G1 F900 X-35.268 Y-25.349 E617.22642
G0 F12000 X-34.743 Y-24.699
G1 F900 X-46.424 Y-24.699 E618.17342
G0 F12000 X-46.424 Y-24.049
G1 F900 X-34.408 Y-24.049 E619.14757
G1 F6000 E616.64757
G0 F900 X-44.408 Y-24.049
G1 Z0.8
G0 F12000 X-28.787 Y-24.05
G1 Z0.3
G1 F6000 E619.14757
G1 F900 X-13.407 Y-24.05 E620.39445
G0 F12000 X-13.742 Y-24.7
G1 F900 X-28.451 Y-24.7 E621.58693
G0 F12000 X-27.924 Y-25.35
G1 F900 X-14.267 Y-25.35 E622.69413
G0 F12000 X-14.657 Y-26
G1 F900 X-27.535 Y-26 E623.73817
G0 F12000 X-27.267 Y-26.65
G1 F900 X-14.926 Y-26.65 E624.73867
G0 F12000 X-15.051 Y-27.3
G1 F900 X-27.142 Y-27.3 E625.71891
G0 F12000 X-27.056 Y-27.95
G1 F900 X-15.137 Y-27.95 E626.6852
G0 F12000 X-15.054 Y-28.6
G1 F900 X-27.139 Y-28.6 E627.66495
G0 F12000 X-27.256 Y-29.25
G1 F900 X-14.937 Y-29.25 E628.66367
G0 F12000 X-14.668 Y-29.9
G1 F900 X-27.523 Y-29.9 E629.70585
G0 F12000 X-27.903 Y-30.55
G1 F900 X-14.287 Y-30.55 E630.80972
G0 F12000 X-13.775 Y-31.2
G1 F900 X-28.416 Y-31.2 E631.99669
G0 F12000 X-29.262 Y-31.85
G1 F900 X-12.927 Y-31.85 E633.32099
G1 F6000 E630.82099
G0 F900 X-22.927 Y-31.85
G1 Z0.8
G0 F12000 X-25.473 Y-43.55
G1 Z0.3
G1 F6000 E633.32099
G1 F900 X-36.424 Y-43.55 E634.20881
G0 F12000 X-36.424 Y-44.2
G1 F900 X-25.473 Y-44.2 E635.09662
G0 F12000 X-25.473 Y-44.85
G1 F900 X-36.424 Y-44.85 E635.98444
G1 F6000 E633.48444
G0 F900 X-26.424 Y-44.85
G1 Z0.8
G0 F12000 X-2.08 Y-27.963
G0 X-1.962 Y-27.062
G0 X-1.615 Y-26.222
G0 X-1.062 Y-25.5
G0 X-0.341 Y-24.947
G0 X0.499 Y-24.598
G0 X10.574 Y-22.972
G0 X11.549 Y-21.997
G0 X11.549 Y-20.497
G0 X15.049 Y-18.497
G0 X19.658 Y29.179
G0 X21.567 Y31.567
G0 X21.595 Y31.625
G0 X20.495 Y33.322
G0 X20.174 Y34.134
G0 X20.064 Y35
G0 X20.174 Y35.865
G0 X20.495 Y36.677
G0 X21.009 Y37.384
G0 X21.682 Y37.94
G0 X22.471 Y38.311
G0 X23.017 Y38.416
G0 X23.094 Y38.777
G0 X22.926 Y39.404
; TYPE:WALL-OUTER
G1 Z0.3
G1 F6000 E635.98444
G1 F900 X21.88 Y39.123 E636.07224
G1 X21.319 Y39.955 E636.1536
G1 X20.844 Y40.494 E636.21184
G1 X20.402 Y40.886 E636.25974
G1 X20.021 Y40.66 E636.29565
G1 X20.128 Y40.123 E636.34004
G1 X20.357 Y39.444 E636.39814
G1 X20.807 Y38.504 E636.48262
G1 X20.042 Y37.737 E636.57045
G1 X19.137 Y38.179 E636.6521
G1 X18.456 Y38.408 E636.71035
G1 X17.881 Y38.525 E636.75792
G1 X17.664 Y38.139 E636.79382
G1 X18.024 Y37.727 E636.83818
G1 X18.564 Y37.251 E636.89654
G1 X19.423 Y36.664 E636.98088
G1 X19.142 Y35.618 E637.06869
G1 X18.143 Y35.549 E637.14987
G1 X17.433 Y35.405 E637.20861
G1 X16.877 Y35.22 E637.25611
G1 X16.882 Y34.777 E637.29203
G1 X17.4 Y34.601 E637.33638
G1 X18.104 Y34.458 E637.39462
G1 X19.142 Y34.38 E637.47901
G1 X19.423 Y33.333 E637.5669
G1 X18.592 Y32.772 E637.64818
G1 X18.053 Y32.297 E637.70643
G1 X17.661 Y31.855 E637.75432
G1 X17.887 Y31.474 E637.79024
G1 X18.424 Y31.58 E637.83461
G1 X19.1 Y31.807 E637.89242
G1 X20.043 Y32.261 E637.97727
G1 X20.808 Y31.494 E638.0651
G1 X20.369 Y30.592 E638.14643
G1 X20.139 Y29.908 E638.20493
G1 X20.021 Y29.333 E638.25252
G1 X20.409 Y29.116 E638.28856
G1 X20.815 Y29.473 E638.33239
G1 X21.295 Y30.016 E638.39114
G1 X21.882 Y30.876 E638.47556
G1 X22.928 Y30.595 E638.56337
G1 X22.998 Y29.595 E638.64464
G1 X23.141 Y28.886 E638.70327
G1 X23.326 Y28.329 E638.75086
G1 X23.401 Y28.326 E638.75694
G1 X23.77 Y28.334 E638.78686
G1 X23.946 Y28.851 E638.83114
G1 X24.088 Y29.556 E638.88944
G1 X24.168 Y30.595 E638.97393
G1 X25.214 Y30.876 E639.06173
G1 X25.775 Y30.044 E639.14309
G1 X26.25 Y29.505 E639.20133
G1 X26.692 Y29.113 E639.24923
G1 X27.073 Y29.339 E639.28514
G1 X26.966 Y29.878 E639.32969
G1 X26.741 Y30.55 E639.38714
G1 X26.286 Y31.495 E639.47217
G1 X27.052 Y32.262 E639.56005
G1 X27.957 Y31.82 E639.64171
G1 X28.638 Y31.591 E639.69995
G1 X29.214 Y31.474 E639.74761
G1 X29.431 Y31.86 E639.78351
G1 X29.07 Y32.272 E639.82791
G1 X28.53 Y32.748 E639.88627
G1 X27.671 Y33.335 E639.97062
G1 X27.952 Y34.381 E640.05843
G1 X28.951 Y34.45 E640.13961
G1 X29.661 Y34.594 E640.19835
G1 X30.217 Y34.779 E640.24585
G1 X30.212 Y35.222 E640.28177
G1 X29.694 Y35.398 E640.32612
G1 X28.99 Y35.541 E640.38436
G1 X27.952 Y35.619 E640.46875
G1 X27.671 Y36.666 E640.55664
G1 X28.502 Y37.227 E640.63792
G1 X29.041 Y37.702 E640.69617
G1 X29.433 Y38.144 E640.74406
G1 X29.207 Y38.525 E640.77998
G1 X28.67 Y38.419 E640.82435
G1 X27.994 Y38.192 E640.88216
G1 X27.051 Y37.738 E640.96701
G1 X26.285 Y38.505 E641.05489
G1 X26.728 Y39.412 E641.13673
G1 X26.954 Y40.088 E641.19451
G1 X27.073 Y40.666 E641.24236
G1 X26.686 Y40.884 E641.27837
G1 X26.279 Y40.526 E641.32231
G1 X25.799 Y39.983 E641.38107
G1 X25.212 Y39.123 E641.46548
G1 X24.166 Y39.404 E641.55329
G1 X24.096 Y40.404 E641.63456
G1 X23.953 Y41.113 E641.69319
G1 X23.768 Y41.67 E641.74078
G1 X23.324 Y41.665 E641.77678
G1 X23.148 Y41.148 E641.82105
G1 X23.006 Y40.443 E641.87935
G1 X22.926 Y39.404 E641.96384
G0 F12000 X23.094 Y38.777
G0 X23.539 Y38.895
G0 X23.545 Y38.97
; TYPE:WALL-INNER
G1 F900 X23.539 Y38.895 E641.96994
G1 X21.601 Y38.375 E642.13261
G1 X20.174 Y36.949 E642.29616
G1 X19.649 Y35.001 E642.45973
G1 X20.171 Y33.054 E642.62315
G1 X21.595 Y31.625 E642.7867
G1 X21.605 Y31.623 E642.78753
G1 X23.544 Y31.103 E642.95028
G1 X23.549 Y31.029 E642.95629
G1 X23.555 Y31.104 E642.96239
G1 X25.493 Y31.624 E643.12507
G1 X26.92 Y33.05 E643.28862
G1 X27.445 Y34.998 E643.45218
G1 X26.923 Y36.945 E643.6156
G1 X25.498 Y38.374 E643.77921
G1 X23.55 Y38.896 E643.94271
G1 X23.545 Y38.97 E643.94872
G0 F12000 X23.539 Y38.895
G0 X23.247 Y38.46
G0 X23.369 Y37.822
; TYPE:WALL-OUTER
G1 F900 X24.077 Y37.777 E644.00624
G1 X24.751 Y37.558 E644.06369
G1 X25.35 Y37.178 E644.1212
G1 X25.835 Y36.662 E644.17861
G1 X26.177 Y36.04 E644.23616
G1 X26.352 Y35.354 E644.29355
G1 X26.352 Y34.645 E644.35103
G1 X26.177 Y33.959 E644.40843
G1 X25.835 Y33.337 E644.46598
G1 X25.35 Y32.821 E644.52339
G1 X24.751 Y32.441 E644.5809
G1 X24.077 Y32.222 E644.63835
G1 X23.369 Y32.177 E644.69587
G1 X22.674 Y32.311 E644.75325
G1 X22.033 Y32.612 E644.81066
G1 X21.486 Y33.064 E644.86819
G1 X21.069 Y33.637 E644.92564
G1 X20.809 Y34.297 E644.98315
G1 X20.719 Y35 E645.04061
G1 X20.809 Y35.702 E645.09799
G1 X21.069 Y36.362 E645.1555
G1 X21.486 Y36.935 E645.21295
G1 X22.033 Y37.387 E645.27048
G1 X22.674 Y37.688 E645.32789
G1 X23.369 Y37.822 E645.38527
G0 F12000 X23.247 Y38.46
G0 X23.328 Y38.476
; TYPE:WALL-INNER
G1 F900 X24.2 Y38.42 E645.45611
G1 X25.03 Y38.151 E645.52684
G1 X25.768 Y37.683 E645.59769
G1 X26.365 Y37.047 E645.66841
G1 X26.786 Y36.281 E645.73927
G1 X27.002 Y35.436 E645.80998
G1 X27.002 Y34.563 E645.88076
G1 X26.786 Y33.718 E645.95146
G1 X26.365 Y32.952 E646.02233
G1 X25.768 Y32.316 E646.09305
G1 X25.03 Y31.848 E646.16389
G1 X24.2 Y31.579 E646.23463
G1 X23.328 Y31.523 E646.30547
G1 X22.471 Y31.688 E646.37622
G1 X21.682 Y32.059 E646.44691
G1 X21.009 Y32.615 E646.51768
G1 X20.495 Y33.322 E646.58854
G1 X20.174 Y34.134 E646.65933
G1 X20.064 Y35 E646.7301
G1 X20.174 Y35.865 E646.80079
G1 X20.495 Y36.677 E646.87158
G1 X21.009 Y37.384 E646.94245
G1 X21.682 Y37.94 E647.01322
G1 X22.471 Y38.311 E647.0839
G1 X23.328 Y38.476 E647.15466
G0 F12000 X23.539 Y38.895
G0 X23.545 Y38.97
G0 X23.545 Y39.149
; TYPE:FILL
G1 F900 X23.546 Y39.194 E647.15715
G1 X23.551 Y40.381 E647.22304
G0 F12000 X23.556 Y40.407
G1 F900 X23.605 Y40.772 E647.24334
G0 F12000 X23.605 Y40.774
G1 F900 X23.554 Y41.05 E647.24971
G1 X23.578 Y41.21 E647.25338
G0 F12000 X23.506 Y41.194
G1 F900 X23.536 Y41.087 E647.25555
G1 F6000 E644.75555
G0 F900 X23.506 Y41.194
G0 X23.578 Y41.21
G0 X23.554 Y41.05
G0 X23.605 Y40.774
G0 X23.605 Y40.772
G0 X23.556 Y40.407
G0 X23.551 Y40.381
G0 X23.546 Y39.194
G0 X23.545 Y39.149
G0 X23.545 Y38.97
G0 X23.539 Y38.895
G0 X23.328 Y38.476
G0 X22.471 Y38.311
G0 X21.682 Y37.94
G0 X21.009 Y37.384
G0 X20.495 Y36.677
G0 X20.174 Y35.865
G0 X20.064 Y35
G0 X20.174 Y34.134
G0 X20.495 Y33.322
G0 X20.522 Y33.285
G1 Z0.8
G0 F12000 X23.545 Y38.97
G0 X23.539 Y38.895
G0 X21.601 Y38.375
G0 X21.563 Y38.431
G0 X20.851 Y39.686
G1 Z0.3
G1 F6000 E647.25555
G1 F900 X20.711 Y40.027 E647.26387
G1 X20.528 Y40.243 E647.27026
G1 X20.471 Y40.389 E647.2738
G0 F12000 X20.416 Y40.342
G1 F900 X20.496 Y40.261 E647.27603
G0 F12000 X20.86 Y39.661
G1 F900 X21.448 Y38.631 E647.34185
G1 X21.47 Y38.593 E647.34523
G0 F12000 X21.563 Y38.431
G0 X21.592 Y38.371
G0 X20.174 Y36.949
G0 X20.119 Y36.976
G0 X19.952 Y37.073
G1 F900 X19.913 Y37.095 E647.34772
G1 X18.888 Y37.693 E647.41358
G0 F12000 X18.868 Y37.711
G1 F900 X18.578 Y37.936 E647.43382
G0 F12000 X18.576 Y37.937
G1 F900 X18.309 Y38.032 E647.44025
G1 X18.184 Y38.131 E647.44387
G0 F12000 X18.162 Y38.062
G1 F900 X18.268 Y38.035 E647.44598
G0 F12000 X20.119 Y36.976
G0 X20.17 Y36.941
G0 X19.649 Y35.001
G0 X19.595 Y34.997
G0 X17.775 Y35.058
G1 F900 X18.14 Y35.008 E647.46639
G0 F12000 X18.167 Y35.003
G1 F900 X19.351 Y34.999 E647.53225
G1 X19.396 Y34.998 E647.53572
G0 F12000 X19.595 Y34.997
G0 X17.772 Y35.058
G1 F900 X17.496 Y35.006 E647.5421
G1 X17.336 Y35.029 E647.54576
G0 F12000 X17.353 Y34.958
G1 F900 X17.457 Y34.988 E647.54784
G0 F12000 X19.595 Y34.997
G0 X19.651 Y34.993
G0 X20.171 Y33.054
G0 X20.12 Y33.02
G0 X18.859 Y32.303
G1 F900 X18.518 Y32.162 E647.5559
G1 X18.295 Y31.976 E647.56224
G1 X18.155 Y31.924 E647.5655
G0 F12000 X18.199 Y31.867
G1 F900 X18.284 Y31.949 E647.56784
G0 F12000 X18.885 Y32.312
G1 F900 X19.914 Y32.902 E647.63367
G1 X19.953 Y32.924 E647.63712
G0 F12000 X20.12 Y33.02
G0 X20.177 Y33.047
G0 X21.595 Y31.625
G0 X21.567 Y31.567
G0 X21.472 Y31.404
G1 F900 X21.449 Y31.365 E647.63963
G1 X20.853 Y30.341 E647.70539
G0 F12000 X20.836 Y30.321
G1 F900 X20.61 Y30.029 E647.72575
G0 F12000 X20.61 Y30.028
G1 F900 X20.515 Y29.763 E647.73207
G1 X20.416 Y29.638 E647.73565
G0 F12000 X20.485 Y29.616
G1 F900 X20.514 Y29.724 E647.73781
G0 F12000 X21.567 Y31.567
G0 X21.605 Y31.623
G0 X23.544 Y31.103
G0 X23.549 Y31.029
G0 X23.488 Y29.223
G1 F900 X23.54 Y28.947 E647.74415
G1 X23.516 Y28.788 E647.74778
G0 F12000 X23.587 Y28.804
G1 F900 X23.558 Y28.91 E647.7499
G0 F12000 X23.543 Y28.956
G1 F900 X23.489 Y29.226 E647.76508
G1 X23.538 Y29.591 E647.78539
G0 F12000 X23.543 Y29.615
G1 F900 X23.55 Y29.529 E647.78981
G0 F12000 X23.555 Y29.554
G1 F900 X23.543 Y29.617 E647.79337
G1 X23.547 Y30.805 E647.88509
G1 X23.548 Y30.849 E647.88849
G0 F12000 X23.549 Y31.029
G0 X23.555 Y31.104
G0 X25.493 Y31.624
G0 X25.528 Y31.573
G0 X25.624 Y31.405
G1 F900 X25.646 Y31.366 E647.89097
G1 X26.236 Y30.335 E647.9569
G0 F12000 X26.245 Y30.309
G1 F900 X26.385 Y29.964 E647.98658
G1 X26.606 Y29.624 E648.01718
G1 X26.581 Y29.747 E648.02995
G1 X26.678 Y29.656 E648.03256
G1 F6000 E645.53256
G0 F900 X26.581 Y29.747
G0 X26.606 Y29.624
G0 X26.385 Y29.964
G0 X26.245 Y30.309
G0 X26.236 Y30.335
G0 X25.646 Y31.366
G0 X25.624 Y31.405
G0 X25.528 Y31.573
G0 X25.493 Y31.624
G0 X23.555 Y31.104
G0 X23.549 Y31.029
G0 X23.548 Y30.849
G0 X23.547 Y30.805
G0 X23.543 Y29.617
G0 X23.555 Y29.554
G0 X23.55 Y29.529
G0 X23.543 Y29.615
G0 X23.538 Y29.591
G0 X23.489 Y29.226
G0 X23.543 Y28.956
G0 X23.558 Y28.91
G0 X23.587 Y28.804
G0 X23.516 Y28.788
G0 X23.54 Y28.947
G0 X23.488 Y29.223
G0 X23.549 Y31.029
G0 X23.544 Y31.103
G0 X22.996 Y31.25
G1 Z0.8
G0 F12000 X25.528 Y31.573
G0 X25.501 Y31.628
G0 X26.92 Y33.05
G0 X26.975 Y33.023
G0 X28.519 Y32.06
G1 Z0.3
G1 F6000 E648.03256
G1 F900 X28.785 Y31.966 E648.03896
G1 X28.911 Y31.867 E648.0426
G0 F12000 X28.932 Y31.936
G1 F900 X28.672 Y32.012 E648.05138
G1 X28.226 Y32.287 E648.08033
G0 F12000 X28.206 Y32.305
G1 F900 X27.18 Y32.904 E648.14642
G1 X27.142 Y32.926 E648.1498
G0 F12000 X26.975 Y33.023
G0 X26.924 Y33.058
G0 X27.445 Y34.998
G0 X27.499 Y35.002
G0 X27.698 Y35.001
G1 F900 X27.742 Y35 E648.15225
G1 X28.926 Y34.995 E648.21811
G0 F12000 X28.953 Y34.99
G1 F900 X29.319 Y34.941 E648.23856
G0 F12000 X29.322 Y34.94
G1 F900 X29.597 Y34.992 E648.24491
G1 X29.757 Y34.969 E648.24858
G0 F12000 X29.74 Y35.04
G1 F900 X29.636 Y35.01 E648.25066
G0 F12000 X27.499 Y35.002
G0 X27.443 Y35.006
G0 X26.923 Y36.945
G0 X26.974 Y36.979
G0 X28.232 Y37.695
G1 F900 X28.576 Y37.837 E648.25879
G1 X28.798 Y38.023 E648.26511
G1 X28.939 Y38.075 E648.26839
G0 F12000 X28.895 Y38.131
G1 F900 X28.81 Y38.049 E648.27073
G0 F12000 X28.207 Y37.686
G1 F900 X27.18 Y37.097 E648.33644
G1 X27.14 Y37.075 E648.33995
G0 F12000 X26.974 Y36.979
G0 X26.917 Y36.952
G0 X25.498 Y38.374
G0 X25.524 Y38.427
G0 X25.621 Y38.595
G1 F900 X25.644 Y38.634 E648.34247
G1 X26.241 Y39.659 E648.4083
G0 F12000 X26.259 Y39.679
G1 F900 X26.483 Y39.969 E648.4285
G0 F12000 X26.484 Y39.971
G1 F900 X26.578 Y40.235 E648.43483
G1 X26.678 Y40.36 E648.43844
G0 F12000 X26.609 Y40.383
G1 F900 X26.58 Y40.275 E648.44062
G0 F12000 X25.524 Y38.427
G0 X25.489 Y38.376
G0 X23.539 Y38.895
G0 X21.592 Y38.371
G0 X20.17 Y36.941
G0 X19.649 Y35.001
G0 X19.595 Y34.997
G0 X16.562 Y35.457
G0 X-34.453 Y39.847
G0 X-37.499 Y40.002
G0 X-37.555 Y40.006
G0 X-38.081 Y41.952
G0 X-39.5 Y43.374
G0 X-39.474 Y43.427
G0 X-39.509 Y43.376
G0 X-41.448 Y43.896
G0 X-41.453 Y43.97
G0 X-41.459 Y43.895
G0 X-41.904 Y43.777
G0 X-42.072 Y44.404
; TYPE:WALL-OUTER
G1 F900 X-43.118 Y44.123 E648.52843
G1 X-43.679 Y44.955 E648.60978
G1 X-44.154 Y45.494 E648.66803
G1 X-44.596 Y45.886 E648.71592
G1 X-44.977 Y45.66 E648.75183
G1 X-44.87 Y45.123 E648.79623
G1 X-44.641 Y44.444 E648.85432
G1 X-44.191 Y43.504 E648.93881
G1 X-44.956 Y42.737 E649.02663
G1 X-45.861 Y43.179 E649.10829
G1 X-46.542 Y43.408 E649.16653
G1 X-47.117 Y43.525 E649.21411
G1 X-47.334 Y43.139 E649.25001
G1 X-46.974 Y42.727 E649.29436
G1 X-46.434 Y42.251 E649.35272
G1 X-45.575 Y41.664 E649.43707
G1 X-45.856 Y40.618 E649.52488
G1 X-46.855 Y40.549 E649.60606
