; Generated with MatterSlice 1.0
; filamentDiameter = 1.75
; extrusionWidth = 0.5
; firstLayerExtrusionWidth = 0.65
; layerThickness = 0.2
; firstLayerThickness = 0.3
; automatic settings before start_gcode
G21 ; set units to millimeters
M107 ; fan off
M190 S60 ; wait for bed temperature to be reached
M104 T0 S210 ; start heating extruder 1
M109 T0 S210 ; wait for extruder 1
T0 ; set the active extruder to 0
; settings from start_gcode
G28
; automatic settings after start_gcode
T0 ; set the active extruder to 0
G90 ; use absolute coordinates
G92 E0 ; reset the expected extruder position
M82 ; use absolute distance for extrusion
; Layer count: 15
; Layer Change GCode
; LAYER:0
M400
M107
G0 F12000 X23.126 Y-28.467 Z0.8
; TYPE:SKIRT
G1 Z0.3
G1 F6000 E0
G1 F900 X26.039 Y-28.161 E0.23746
G1 X27.266 Y-27.899 E0.33918
G1 X30.048 Y-26.996 E0.5763
G1 X31.196 Y-26.485 E0.67818
G1 X33.729 Y-25.022 E0.91532
G1 X34.744 Y-24.285 E1.01702
G1 X36.919 Y-22.326 E1.25433
G1 X37.759 Y-21.395 E1.35598
G1 X39.48 Y-19.025 E1.59344
G1 X40.107 Y-17.94 E1.69503
G1 X41.298 Y-15.265 E1.93242
G1 X41.686 Y-14.073 E2.03405
G1 X42.295 Y-11.207 E2.27159
G1 X42.425 Y-9.96 E2.37323
G1 X42.425 Y-7.035 E2.61037
G1 X42.295 Y-5.788 E2.71201
G1 X41.686 Y-2.922 E2.94955
G1 X41.298 Y-1.73 E3.05118
G1 X40.108 Y0.943 E3.28839
G1 X39.48 Y2.03 E3.39016
G1 X37.838 Y4.289 E3.61657
G1 X22.347 Y24.029 E5.65087
G1 X19.94 Y26.437 E5.9269
G1 X19.206 Y26.906 E5.99751
G1 X18.135 Y27.494 E6.09657
G1 X14.609 Y28.438 E6.39249
G1 X13.759 Y28.474 E6.46146
G1 X12.528 Y28.45 E6.56128
G1 X9.383 Y27.607 E6.82525
G1 X-26.273 Y17.268 E9.83501
G1 X-27.321 Y16.898 E9.92512
G1 X-29.89 Y15.736 E10.1537
G1 X-30.908 Y15.169 E10.24817
G1 X-33.245 Y13.589 E10.47687
G1 X-34.151 Y12.857 E10.5713
G1 X-36.188 Y10.906 E10.79997
G1 X-36.958 Y10.03 E10.89453
G1 X-38.634 Y7.764 E11.12302
G1 X-39.246 Y6.771 E11.21759
G1 X-40.514 Y4.254 E11.44608
G1 X-40.949 Y3.173 E11.54055
G1 X-41.774 Y0.479 E11.76896
G1 X-42.02 Y-0.66 E11.86343
G1 X-42.378 Y-3.458 E12.09212
G1 X-42.428 Y-4.622 E12.18658
G1 X-42.308 Y-7.439 E12.41516
G1 X-42.16 Y-8.595 E12.50965
G1 X-41.566 Y-11.353 E12.73837
G1 X-41.224 Y-12.467 E12.83284
G1 X-40.173 Y-15.083 E13.0614
G1 X-39.648 Y-16.124 E13.15592
G1 X-38.171 Y-18.523 E13.38432
G1 X-37.478 Y-19.461 E13.47887
G1 X-35.615 Y-21.577 E13.70743
G1 X-34.775 Y-22.384 E13.80186
G1 X-32.579 Y-24.157 E14.03068
G1 X-31.613 Y-24.808 E14.12512
G1 X-29.153 Y-26.183 E14.35359
G1 X-28.091 Y-26.663 E14.44808
G1 X-25.43 Y-27.604 E14.6769
G1 X-24.302 Y-27.896 E14.77136
G1 X-21.525 Y-28.373 E14.9998
G1 X-20.364 Y-28.472 E15.09426
G1 X-17.713 Y-28.472 E15.30918
G1 X23.126 Y-28.467 E18.62007
G0 F12000 X23.092 Y-27.817
G1 F900 X25.937 Y-27.518 E18.85199
G1 X27.098 Y-27.271 E18.94822
G1 X29.815 Y-26.389 E19.1798
G1 X30.9 Y-25.906 E19.27609
G1 X33.375 Y-24.476 E19.50782
G1 X34.335 Y-23.779 E19.604
G1 X36.459 Y-21.866 E19.83574
G1 X37.253 Y-20.985 E19.9319
G1 X38.934 Y-18.671 E20.16377
G1 X39.527 Y-17.644 E20.25991
G1 X40.69 Y-15.032 E20.49172
G1 X41.057 Y-13.904 E20.58788
G1 X41.652 Y-11.106 E20.81979
G1 X41.775 Y-9.926 E20.91598
G1 X41.775 Y-7.069 E21.1476
G1 X41.652 Y-5.889 E21.24378
G1 X41.057 Y-3.091 E21.47569
G1 X40.69 Y-1.963 E21.57186
G1 X39.528 Y0.647 E21.80348
G1 X38.934 Y1.676 E21.8998
G1 X37.319 Y3.897 E22.12243
G1 X21.86 Y23.598 E24.15264
G1 X19.531 Y25.927 E24.41967
G1 X18.875 Y26.346 E24.48277
G1 X17.891 Y26.886 E24.57377
G1 X14.51 Y27.792 E24.85754
G1 X13.752 Y27.823 E24.91905
G1 X12.62 Y27.802 E25.01084
G1 X9.558 Y26.981 E25.26785
G1 X-26.074 Y16.648 E28.2756
G1 X-27.079 Y16.295 E28.36196
G1 X-29.597 Y15.155 E28.58604
G1 X-30.567 Y14.615 E28.67605
G1 X-32.858 Y13.066 E28.90025
G1 X-33.722 Y12.368 E28.9903
G1 X-35.718 Y10.456 E29.21438
G1 X-36.452 Y9.621 E29.30451
G1 X-38.095 Y7.4 E29.52849
G1 X-38.678 Y6.454 E29.61857
G1 X-39.921 Y3.986 E29.8426
G1 X-40.336 Y2.956 E29.93263
G1 X-41.144 Y0.315 E30.15654
G1 X-41.379 Y-0.77 E30.24654
G1 X-41.73 Y-3.513 E30.47073
G1 X-41.777 Y-4.622 E30.56072
G1 X-41.66 Y-7.384 E30.78484
G1 X-41.519 Y-8.485 E30.87483
G1 X-40.936 Y-11.189 E31.09909
G1 X-40.611 Y-12.25 E31.18905
G1 X-39.58 Y-14.815 E31.41317
G1 X-39.08 Y-15.807 E31.50323
G1 X-37.632 Y-18.159 E31.72715
G1 X-36.972 Y-19.052 E31.81717
G1 X-35.145 Y-21.127 E32.04131
G1 X-34.345 Y-21.896 E32.13127
G1 X-32.192 Y-23.633 E32.35554
G1 X-31.272 Y-24.254 E32.44553
G1 X-28.86 Y-25.602 E32.66954
G1 X-27.848 Y-26.06 E32.75959
G1 X-25.24 Y-26.982 E32.98385
G1 X-24.165 Y-27.26 E33.07387
G1 X-21.442 Y-27.728 E33.29787
G1 X-20.336 Y-27.822 E33.38786
G1 X-17.713 Y-27.822 E33.60051
G1 X23.092 Y-27.817 E36.90863
G1 F6000 E34.40863
G0 F900 X13.092 Y-27.818
G1 Z0.8
G0 F12000 X4.04 Y-27.997
G0 X-0.394 Y-14.859
G0 X-1.732 Y-14.183
G0 X-3.186 Y-12.987
G0 X-4.259 Y-12.105
G0 X-4.084 Y-11.672
G0 X-19.732 Y11.227
G0 X-19.786 Y11.873
; TYPE:WALL-OUTER
G1 Z0.3
G1 F6000 E36.90863
G1 F900 X-20.991 Y11.771 E37.00667
G1 X-21.364 Y12.681 E37.0864
G1 X-21.704 Y13.374 E37.14899
G1 X-22.007 Y13.889 E37.19743
G1 X-22.38 Y13.825 E37.22811
G1 X-22.483 Y13.303 E37.27124
G1 X-22.577 Y12.559 E37.33204
G1 X-22.633 Y11.49 E37.41883
G1 X-23.803 Y11.184 E37.51687
G1 X-24.324 Y12.02 E37.59673
G1 X-24.777 Y12.644 E37.65924
G1 X-25.161 Y13.1 E37.70757
G1 X-25.519 Y12.974 E37.73834
G1 X-25.532 Y12.457 E37.78027
G1 X-25.497 Y11.682 E37.84316
G1 X-25.373 Y10.63 E37.92904
G1 X-26.475 Y10.131 E38.02712
G1 X-27.134 Y10.871 E38.10745
G1 X-27.677 Y11.401 E38.16896
G1 X-28.138 Y11.79 E38.21787
G1 X-28.469 Y11.605 E38.24861
G1 X-28.394 Y11.09 E38.2908
G1 X-28.229 Y10.335 E38.35345
G1 X-27.929 Y9.319 E38.43934
G1 X-28.93 Y8.642 E38.53731
G1 X-29.703 Y9.258 E38.61744
G1 X-30.337 Y9.696 E38.67991
G1 X-30.849 Y9.996 E38.72802
G1 X-31.145 Y9.758 E38.75882
G1 X-30.98 Y9.253 E38.80189
G1 X-30.699 Y8.559 E38.86259
G1 X-30.225 Y7.596 E38.9496
G1 X-31.099 Y6.759 E39.04771
G1 X-31.966 Y7.237 E39.12798
G1 X-32.657 Y7.557 E39.18971
G1 X-33.219 Y7.769 E39.23841
G1 X-33.47 Y7.484 E39.2692
G1 X-33.223 Y7.014 E39.31224
G1 X-32.825 Y6.372 E39.37348
G1 X-32.199 Y5.509 E39.45991
G1 X-32.918 Y4.536 E39.558
G1 X-33.844 Y4.858 E39.63748
G1 X-34.598 Y5.063 E39.70083
G1 X-35.179 Y5.175 E39.7488
G1 X-35.378 Y4.852 E39.77955
G1 X-35.054 Y4.43 E39.82269
G1 X-34.558 Y3.869 E39.88339
G1 X-33.791 Y3.119 E39.97036
G1 X-34.336 Y2.039 E40.06844
G1 X-35.304 Y2.2 E40.14799
G1 X-36.077 Y2.272 E40.21093
G1 X-36.671 Y2.285 E40.2591
G1 X-36.812 Y1.934 E40.28977
G1 X-36.422 Y1.573 E40.33285
G1 X-35.839 Y1.104 E40.39351
G1 X-34.957 Y0.494 E40.48045
G1 X-35.31 Y-0.66 E40.57829
G1 X-36.293 Y-0.667 E40.65798
G1 X-37.068 Y-0.726 E40.72099
G1 X-37.653 Y-0.813 E40.76894
G1 X-37.733 Y-1.183 E40.79963
G1 X-37.292 Y-1.469 E40.84225
G1 X-36.626 Y-1.84 E40.90405
G1 X-35.66 Y-2.288 E40.99038
G1 X-35.815 Y-3.487 E41.08839
G1 X-36.786 Y-3.66 E41.16835
G1 X-37.522 Y-3.844 E41.22986
G1 X-38.099 Y-4.034 E41.27911
G1 X-38.115 Y-4.413 E41.30986
G1 X-37.648 Y-4.614 E41.35108
G1 X-36.905 Y-4.876 E41.41495
G1 X-35.885 Y-5.15 E41.50057
G1 X-35.834 Y-6.359 E41.59868
G1 X-36.767 Y-6.695 E41.67907
G1 X-37.463 Y-7.002 E41.74074
G1 X-37.994 Y-7.284 E41.78949
G1 X-37.945 Y-7.66 E41.82023
G1 X-37.429 Y-7.785 E41.86327
G1 X-36.691 Y-7.91 E41.92395
G1 X-35.623 Y-8.011 E42.01092
G1 X-35.367 Y-9.193 E42.10897
G1 X-36.219 Y-9.675 E42.18833
G1 X-36.87 Y-10.106 E42.25163
G1 X-37.339 Y-10.469 E42.29971
G1 X-37.228 Y-10.832 E42.33048
G1 X-36.713 Y-10.866 E42.37233
G1 X-35.937 Y-10.865 E42.43524
G1 X-34.88 Y-10.785 E42.52118
G1 X-34.429 Y-11.906 E42.61914
G1 X-35.182 Y-12.522 E42.69801
G1 X-35.76 Y-13.066 E42.76236
G1 X-36.157 Y-13.498 E42.80992
G1 X-35.986 Y-13.837 E42.84071
G1 X-35.471 Y-13.784 E42.88268
G1 X-34.707 Y-13.652 E42.94553
G1 X-33.679 Y-13.394 E43.03146
G1 X-33.045 Y-14.423 E43.12945
G1 X-33.687 Y-15.161 E43.20875
G1 X-34.156 Y-15.783 E43.2719
G1 X-34.479 Y-16.284 E43.32023
G1 X-34.254 Y-16.589 E43.35096
G1 X-33.752 Y-16.449 E43.39321
G1 X-33.022 Y-16.189 E43.45603
G1 X-32.055 Y-15.763 E43.5417
G1 X-31.256 Y-16.669 E43.63963
G1 X-31.767 Y-17.513 E43.71962
G1 X-32.122 Y-18.2 E43.78231
G1 X-32.355 Y-18.746 E43.83044
G1 X-32.082 Y-19.008 E43.86112
G1 X-31.601 Y-18.781 E43.90424
G1 X-30.949 Y-18.415 E43.96485
G1 X-30.054 Y-17.821 E44.05194
G1 X-29.113 Y-18.581 E44.15
G1 X-29.471 Y-19.489 E44.22913
G1 X-29.707 Y-20.234 E44.29249
G1 X-29.846 Y-20.814 E44.34084
G1 X-29.531 Y-21.026 E44.37162
G1 X-29.109 Y-20.73 E44.41341
G1 X-28.512 Y-20.246 E44.47572
G1 X-27.733 Y-19.514 E44.56238
G1 X-26.678 Y-20.104 E44.66038
G1 X-26.88 Y-21.065 E44.73999
G1 X-26.985 Y-21.835 E44.80299
G1 X-27.023 Y-22.427 E44.85108
G1 X-26.677 Y-22.584 E44.88189
G1 X-26.307 Y-22.217 E44.92414
G1 X-25.792 Y-21.628 E44.98757
G1 X-25.16 Y-20.789 E45.07273
G1 X-24.02 Y-21.192 E45.17075
G1 X-24.057 Y-22.175 E45.2505
G1 X-24.03 Y-22.957 E45.31394
G1 X-23.968 Y-23.54 E45.36147
G1 X-23.6 Y-23.636 E45.3923
G1 X-23.292 Y-23.203 E45.43538
G1 X-22.896 Y-22.556 E45.49688
G1 X-22.409 Y-21.613 E45.58292
G1 X-21.217 Y-21.816 E45.68095
G1 X-21.086 Y-22.795 E45.76103
G1 X-20.934 Y-23.534 E45.82219
G1 X-20.767 Y-24.122 E45.87175
G1 X-20.391 Y-24.154 E45.90234
G1 X-20.159 Y-23.675 E45.94549
G1 X-19.879 Y-22.971 E46.00691
G1 X-19.558 Y-21.957 E46.09314
G1 X-18.348 Y-21.957 E46.19124
G1 X-18.059 Y-22.885 E46.27004
G1 X-17.771 Y-23.623 E46.33426
G1 X-17.517 Y-24.154 E46.38198
G1 X-17.138 Y-24.122 E46.41282
G1 X-16.997 Y-23.632 E46.45415
G1 X-16.833 Y-22.864 E46.51782
G1 X-16.69 Y-21.816 E46.60357
G1 X-15.497 Y-21.613 E46.70168
G1 X-15.051 Y-22.486 E46.78116
G1 X-14.653 Y-23.147 E46.84371
G1 X-14.307 Y-23.636 E46.89227
G1 X-13.939 Y-23.54 E46.92311
G1 X-13.882 Y-23.027 E46.96495
G1 X-13.85 Y-22.252 E47.02784
G1 X-13.886 Y-21.192 E47.11382
G1 X-12.746 Y-20.789 E47.21185
G1 X-12.155 Y-21.579 E47.29183
G1 X-11.661 Y-22.152 E47.35317
G1 X-11.229 Y-22.583 E47.40264
G1 X-10.884 Y-22.427 E47.43334
G1 X-10.915 Y-21.909 E47.47541
G1 X-11.015 Y-21.14 E47.53828
G1 X-11.228 Y-20.103 E47.6241
G1 X-10.173 Y-19.514 E47.72206
G1 X-9.451 Y-20.198 E47.80269
G1 X-8.869 Y-20.677 E47.8638
G1 X-8.375 Y-21.025 E47.91279
G1 X-8.061 Y-20.813 E47.9435
G1 X-8.177 Y-20.318 E47.98472
G1 X-8.409 Y-19.565 E48.0486
G1 X-8.793 Y-18.581 E48.13423
G1 X-7.852 Y-17.821 E48.2323
G1 X-7.031 Y-18.37 E48.31237
G1 X-6.365 Y-18.75 E48.37453
G1 X-5.826 Y-19.008 E48.42298
G1 X-5.552 Y-18.745 E48.45377
G1 X-5.752 Y-18.27 E48.49555
G1 X-6.105 Y-17.574 E48.55882
G1 X-6.65 Y-16.669 E48.64446
G1 X-5.851 Y-15.762 E48.74246
G1 X-4.947 Y-16.164 E48.82267
G1 X-4.235 Y-16.423 E48.88409
G1 X-3.652 Y-16.588 E48.93321
G1 X-3.427 Y-16.283 E48.96394
G1 X-3.708 Y-15.846 E49.00606
G1 X-4.172 Y-15.221 E49.06917
G1 X-4.862 Y-14.422 E49.15475
G1 X-4.227 Y-13.393 E49.25278
G1 X-3.278 Y-13.634 E49.33216
G1 X-2.51 Y-13.774 E49.39545
G1 X-1.921 Y-13.836 E49.44347
G1 X-1.75 Y-13.498 E49.47418
G1 X-2.103 Y-13.11 E49.5167
G1 X-2.658 Y-12.58 E49.57892
G1 X-3.478 Y-11.906 E49.66497
G1 X-3.027 Y-10.784 E49.76301
G1 X-2.047 Y-10.862 E49.84271
G1 X-1.271 Y-10.869 E49.90562
G1 X-0.68 Y-10.831 E49.95363
G1 X-0.569 Y-10.468 E49.98441
G1 X-0.983 Y-10.146 E50.02693
G1 X-1.619 Y-9.717 E50.08912
G1 X-2.54 Y-9.192 E50.17507
G1 X-2.284 Y-8.01 E50.27312
G1 X-1.305 Y-7.921 E50.35281
G1 X-0.543 Y-7.798 E50.41539
G1 X0.037 Y-7.659 E50.46374
G1 X0.085 Y-7.283 E50.49447
G1 X-0.378 Y-7.036 E50.53702
G1 X-1.082 Y-6.718 E50.59964
G1 X-2.074 Y-6.358 E50.6852
G1 X-2.021 Y-5.149 E50.78331
G1 X-1.069 Y-4.896 E50.86317
G1 X-0.35 Y-4.649 E50.9248
G1 X0.205 Y-4.411 E50.97376
G1 X0.189 Y-4.032 E51.00451
G1 X-0.295 Y-3.871 E51.04587
G1 X-1.05 Y-3.676 E51.10908
G1 X-2.093 Y-3.486 E51.19503
G1 X-2.247 Y-2.287 E51.29304
G1 X-1.359 Y-1.881 E51.37219
G1 X-0.676 Y-1.506 E51.43536
G1 X-0.176 Y-1.183 E51.48362
G1 X-0.256 Y-0.812 E51.51439
G1 X-0.763 Y-0.735 E51.55597
G1 X-1.538 Y-0.67 E51.61902
G1 X-2.597 Y-0.66 E51.70488
G1 X-2.952 Y0.495 E51.80284
G1 X-2.136 Y1.054 E51.88302
G1 X-1.536 Y1.528 E51.94502
G1 X-1.095 Y1.934 E51.99361
G1 X-1.237 Y2.286 E52.02438
G1 X-1.754 Y2.277 E52.0663
G1 X-2.525 Y2.21 E52.12905
G1 X-3.572 Y2.04 E52.21504
G1 X-4.117 Y3.12 E52.31311
G1 X-3.415 Y3.799 E52.39229
G1 X-2.895 Y4.378 E52.45538
G1 X-2.53 Y4.851 E52.50382
G1 X-2.73 Y5.175 E52.53469
G1 X-3.24 Y5.078 E52.57678
G1 X-3.987 Y4.882 E52.63939
G1 X-4.99 Y4.537 E52.72538
G1 X-5.708 Y5.51 E52.82341
G1 X-5.129 Y6.303 E52.90302
G1 X-4.721 Y6.953 E52.96523
G1 X-4.438 Y7.485 E53.01409
G1 X-4.688 Y7.77 E53.04482
G1 X-5.186 Y7.584 E53.08792
G1 X-5.879 Y7.269 E53.14963
G1 X-6.809 Y6.759 E53.23562
G1 X-7.682 Y7.597 E53.33373
G1 X-7.24 Y8.487 E53.41429
G1 X-6.954 Y9.179 E53.47499
G1 X-6.763 Y9.759 E53.5245
G1 X-7.058 Y9.997 E53.55523
G1 X-7.502 Y9.739 E53.59686
G1 X-8.146 Y9.3 E53.66005
G1 X-8.978 Y8.643 E53.74599
G1 X-9.98 Y9.32 E53.84403
G1 X-9.698 Y10.256 E53.92328
G1 X-9.527 Y11.018 E53.9866
G1 X-9.438 Y11.605 E54.03473
G1 X-9.77 Y11.79 E54.06554
G1 X-10.179 Y11.449 E54.10871
G1 X-10.721 Y10.926 E54.16978
G1 X-11.433 Y10.132 E54.25624
G1 X-12.536 Y10.63 E54.35435
G1 X-12.416 Y11.607 E54.43415
G1 X-12.376 Y12.381 E54.49699
G1 X-12.389 Y12.974 E54.54507
G1 X-12.746 Y13.1 E54.57576
G1 X-13.085 Y12.701 E54.61821
G1 X-13.548 Y12.073 E54.68147
G1 X-14.106 Y11.184 E54.76656
G1 X-15.275 Y11.49 E54.86452
G1 X-15.323 Y12.465 E54.94367
G1 X-15.414 Y13.241 E55.00701
G1 X-15.527 Y13.825 E55.05523
G1 X-15.901 Y13.889 E55.08599
G1 X-16.172 Y13.431 E55.12914
G1 X-16.516 Y12.742 E55.19157
G1 X-16.916 Y11.771 E55.27671
G1 X-18.122 Y11.873 E55.37483
G1 X-18.331 Y12.822 E55.45361
G1 X-18.554 Y13.576 E55.51736
G1 X-18.765 Y14.132 E55.56557
G1 X-19.143 Y14.132 E55.59621
G1 X-19.33 Y13.643 E55.63866
G1 X-19.556 Y12.899 E55.7017
G1 X-19.786 Y11.873 E55.78694
G0 F12000 X-19.732 Y11.227
G0 X-19.256 Y11.266
; TYPE:WALL-INNER
G1 F900 X-21.412 Y11.083 E55.96236
G0 F12000 X-21.71 Y11.032
G1 F900 X-21.731 Y11.158 E55.97272
G1 X-21.936 Y12.365 E56.07197
G0 F12000 X-22.008 Y10.981
G1 F900 X-24.102 Y10.434 E56.24743
G0 F12000 X-24.387 Y10.334
G1 F900 X-24.429 Y10.455 E56.25781
G1 X-24.835 Y11.611 E56.35714
G0 F12000 X-24.672 Y10.234
G1 F900 X-26.642 Y9.342 E56.53247
G0 F12000 X-26.906 Y9.194
G1 F900 X-26.969 Y9.306 E56.54288
G1 X-27.563 Y10.375 E56.64203
G0 F12000 X-27.171 Y9.047
G1 F900 X-28.961 Y7.836 E56.81724
G0 F12000 X-29.196 Y7.646
G1 F900 X-29.277 Y7.747 E56.82773
G1 X-30.043 Y8.699 E56.9268
G0 F12000 X-29.432 Y7.456
G1 F900 X-30.994 Y5.959 E57.1022
G0 F12000 X-31.194 Y5.732
G1 F900 X-31.289 Y5.817 E57.11253
G1 X-32.209 Y6.629 E57.21201
G0 F12000 X-31.394 Y5.506
G1 F900 X-32.679 Y3.765 E57.38744
G0 F12000 X-32.837 Y3.508
G1 F900 X-32.946 Y3.575 E57.39781
G1 X-33.988 Y4.22 E57.49717
G0 F12000 X-32.996 Y3.251
G1 F900 X-33.971 Y1.319 E57.67261
G0 F12000 X-34.083 Y1.039
G1 F900 X-34.201 Y1.087 E57.68294
G1 X-35.336 Y1.547 E57.78222
G0 F12000 X-34.196 Y0.759
G1 F900 X-34.828 Y-1.307 E57.95738
G0 F12000 X-34.891 Y-1.603
G1 F900 X-35.016 Y-1.574 E57.96778
G1 X-36.211 Y-1.316 E58.0669
G0 F12000 X-34.954 Y-1.899
G1 F900 X-35.232 Y-4.044 E58.24225
G0 F12000 X-35.244 Y-4.345
G1 F900 X-35.371 Y-4.338 E58.25256
G1 X-36.596 Y-4.286 E58.35196
G0 F12000 X-35.256 Y-4.646
G1 F900 X-35.165 Y-6.809 E58.52748
G0 F12000 X-35.126 Y-7.108
G1 F900 X-35.254 Y-7.123 E58.53792
G1 X-36.47 Y-7.278 E58.6373
G0 F12000 X-35.088 Y-7.408
G1 F900 X-34.63 Y-9.524 E58.81282
G0 F12000 X-34.542 Y-9.812
G1 F900 X-34.664 Y-9.849 E58.82316
G1 X-35.838 Y-10.206 E58.92264
G0 F12000 X-34.455 Y-10.101
G1 F900 X-33.648 Y-12.107 E59.09794
G0 F12000 X-33.512 Y-12.377
G1 F900 X-33.627 Y-12.435 E59.10838
G1 X-34.721 Y-12.985 E59.20765
G0 F12000 X-33.376 Y-12.648
G1 F900 X-32.241 Y-14.489 E59.38299
G0 F12000 X-32.061 Y-14.732
G1 F900 X-32.164 Y-14.808 E59.39336
G1 X-33.15 Y-15.535 E59.49268
G0 F12000 X-31.882 Y-14.976
G1 F900 X-30.453 Y-16.598 E59.66793
G0 F12000 X-30.235 Y-16.807
G1 F900 X-30.323 Y-16.899 E59.67825
G1 X-31.171 Y-17.783 E59.77756
G0 F12000 X-30.017 Y-17.016
G1 F900 X-28.333 Y-18.375 E59.953
G0 F12000 X-28.082 Y-18.545
G1 F900 X-28.154 Y-18.651 E59.96339
G1 X-28.842 Y-19.665 E60.06273
G0 F12000 X-27.832 Y-18.715
G1 F900 X-25.944 Y-19.769 E60.23803
G0 F12000 X-25.668 Y-19.893
G1 F900 X-25.721 Y-20.01 E60.24844
G1 X-26.229 Y-21.127 E60.34793
G0 F12000 X-25.392 Y-20.018
G1 F900 X-23.353 Y-20.739 E60.52326
G0 F12000 X-23.06 Y-20.815
G1 F900 X-23.093 Y-20.939 E60.53367
G1 X-23.405 Y-22.124 E60.63301
G0 F12000 X-22.768 Y-20.892
G1 F900 X-20.636 Y-21.255 E60.80834
G0 F12000 X-20.335 Y-21.281
G1 F900 X-20.346 Y-21.408 E60.81868
G1 X-20.453 Y-22.628 E60.91796
G0 F12000 X-20.034 Y-21.307
G1 F900 X-17.87 Y-21.307 E61.0934
G0 F12000 X-17.569 Y-21.281
G1 F900 X-17.559 Y-21.408 E61.10373
G1 X-17.457 Y-22.631 E61.20322
G0 F12000 X-17.269 Y-21.255
G1 F900 X-15.136 Y-20.892 E61.37864
G0 F12000 X-14.843 Y-20.815
G1 F900 X-14.812 Y-20.938 E61.38892
G1 X-14.504 Y-22.126 E61.48842
G0 F12000 X-14.551 Y-20.738
G1 F900 X-12.511 Y-20.017 E61.66383
G0 F12000 X-12.236 Y-19.892
G1 F900 X-12.184 Y-20.009 E61.67421
G1 X-11.681 Y-21.127 E61.7736
G0 F12000 X-11.961 Y-19.768
G1 F900 X-10.072 Y-18.713 E61.94901
G0 F12000 X-9.822 Y-18.543
G1 F900 X-9.751 Y-18.649 E61.95935
G1 X-9.066 Y-19.668 E62.05889
G0 F12000 X-9.572 Y-18.374
G1 F900 X-7.888 Y-17.015 E62.23433
G0 F12000 X-7.67 Y-16.805
G1 F900 X-7.583 Y-16.898 E62.24465
G1 X-6.735 Y-17.786 E62.3442
G0 F12000 X-7.453 Y-16.596
G1 F900 X-6.023 Y-14.974 E62.5195
G0 F12000 X-5.844 Y-14.73
G1 F900 X-5.741 Y-14.807 E62.52993
G1 X-4.757 Y-15.537 E62.62926
G0 F12000 X-5.665 Y-14.487
G1 F900 X-4.53 Y-12.646 E62.8046
G0 F12000 X-4.394 Y-12.375
G1 F900 X-4.28 Y-12.433 E62.81497
G1 X-3.186 Y-12.987 E62.91438
G0 F12000 X-4.259 Y-12.105
G1 F900 X-3.452 Y-10.098 E63.08976
G0 F12000 X-3.364 Y-9.809
G1 F900 X-3.243 Y-9.847 E63.10004
G1 X-2.07 Y-10.208 E63.19954
G0 F12000 X-3.276 Y-9.521
G1 F900 X-2.818 Y-7.406 E63.37498
G0 F12000 X-2.781 Y-7.106
G1 F900 X-2.654 Y-7.124 E63.38538
G1 X-1.438 Y-7.281 E63.48478
G0 F12000 X-2.744 Y-6.806
G1 F900 X-2.65 Y-4.644 E63.66022
G0 F12000 X-2.663 Y-4.342
G1 F900 X-2.535 Y-4.338 E63.6706
G1 X-1.313 Y-4.288 E63.76975
G0 F12000 X-2.677 Y-4.041
G1 F900 X-2.952 Y-1.896 E63.94508
G0 F12000 X-3.015 Y-1.6
G1 F900 X-2.889 Y-1.574 E63.95551
G1 X-1.692 Y-1.318 E64.05474
G0 F12000 X-3.078 Y-1.305
G1 F900 X-3.714 Y0.761 E64.22999
G0 F12000 X-3.826 Y1.041
G1 F900 X-3.707 Y1.089 E64.2404
G1 X-2.569 Y1.545 E64.33979
G0 F12000 X-3.938 Y1.322
G1 F900 X-4.913 Y3.254 E64.51523
G0 F12000 X-5.071 Y3.511
G1 F900 X-4.962 Y3.577 E64.52556
G1 X-3.916 Y4.219 E64.62506
G0 F12000 X-5.23 Y3.768
G1 F900 X-6.515 Y5.508 E64.80043
G0 F12000 X-6.715 Y5.734
G1 F900 X-6.619 Y5.817 E64.81071
G1 X-5.695 Y6.629 E64.91044
G0 F12000 X-6.915 Y5.96
G1 F900 X-8.477 Y7.458 E65.0859
G0 F12000 X-8.712 Y7.648
G1 F900 X-8.631 Y7.748 E65.09633
G1 X-7.862 Y8.696 E65.19529
G0 F12000 X-8.948 Y7.838
G1 F900 X-10.741 Y9.049 E65.3707
G0 F12000 X-11.003 Y9.196
G1 F900 X-10.941 Y9.307 E65.38101
G1 X-10.341 Y10.377 E65.48046
G0 F12000 X-11.266 Y9.343
G1 F900 X-13.239 Y10.235 E65.65601
G0 F12000 X-13.524 Y10.335
G1 F900 X-13.481 Y10.455 E65.66634
G1 X-13.071 Y11.609 E65.76563
G0 F12000 X-13.809 Y10.435
G1 F900 X-15.901 Y10.982 E65.94093
G0 F12000 X-16.199 Y11.032
G1 F900 X-16.176 Y11.159 E65.95139
G1 X-15.969 Y12.363 E66.05044
G0 F12000 X-16.497 Y11.083
G1 F900 X-18.653 Y11.266 E66.22585
G0 F12000 X-18.954 Y11.266
G1 F900 X-18.954 Y11.393 E66.23615
G1 X-18.952 Y12.619 E66.33554
G0 F12000 X-18.956 Y10.64
G1 F900 X-21.603 Y10.415 E66.55091
G1 X-24.184 Y9.742 E66.76716
G1 X-26.605 Y8.645 E66.98264
G1 X-28.801 Y7.16 E67.19756
G1 X-30.726 Y5.315 E67.41373
G1 X-32.305 Y3.178 E67.62914
G1 X-33.501 Y0.807 E67.84443
G1 X-34.275 Y-1.72 E68.05869
G1 X-34.618 Y-4.36 E68.27452
G1 X-34.505 Y-7.033 E68.49142
G1 X-33.939 Y-9.64 E68.7077
G1 X-32.951 Y-12.098 E68.92247
G1 X-31.549 Y-14.371 E69.13898
G1 X-29.801 Y-16.355 E69.35335
G1 X-27.729 Y-18.028 E69.56925
G1 X-25.414 Y-19.321 E69.78422
G1 X-22.893 Y-20.212 E70.00099
G1 X-20.278 Y-20.657 E70.21604
G1 X-17.632 Y-20.657 E70.43055
G1 X-15.011 Y-20.211 E70.6461
G1 X-12.489 Y-19.319 E70.86297
G1 X-10.177 Y-18.027 E71.07769
G1 X-8.112 Y-16.361 E71.29279
G1 X-6.355 Y-14.367 E71.50825
G1 X-4.958 Y-12.1 E71.72414
G1 X-3.966 Y-9.634 E71.93963
G1 X-3.406 Y-7.045 E72.15438
G1 X-3.289 Y-4.385 E72.37024
G1 X-3.63 Y-1.724 E72.58773
G1 X-4.413 Y0.822 E72.80368
G1 X-5.602 Y3.178 E73.01763
G1 X-7.181 Y5.316 E73.23311
G1 X-9.108 Y7.162 E73.44945
G1 X-11.314 Y8.652 E73.66527
G1 X-13.719 Y9.739 E73.87924
G1 X-16.301 Y10.414 E74.0956
G1 X-18.956 Y10.64 E74.31162
G1 F6000 E71.81162
G0 F900 X-16.301 Y10.414
G0 X-13.719 Y9.739
G0 X-11.314 Y8.652
G0 X-9.633 Y7.517
G1 Z0.8
G0 F12000 X-19.187 Y-1.57
G0 X-19.187 Y-2.22
; TYPE:WALL-OUTER
G1 Z0.3
G1 F6000 E74.31162
G1 F900 X-18.72 Y-2.22 E74.34948
G1 X-18.26 Y-2.297 E74.38729
G1 X-17.818 Y-2.448 E74.42516
G1 X-17.408 Y-2.67 E74.46296
G1 X-17.039 Y-2.957 E74.50086
G1 X-16.724 Y-3.301 E74.53867
G1 X-16.468 Y-3.691 E74.57649
G1 X-16.28 Y-4.119 E74.61439
G1 X-16.166 Y-4.571 E74.65218
G1 X-16.128 Y-5.036 E74.69001
G1 X-16.166 Y-5.502 E74.72791
G1 X-16.281 Y-5.954 E74.76572
G1 X-16.468 Y-6.381 E74.80352
G1 X-16.724 Y-6.772 E74.8414
G1 X-17.039 Y-7.116 E74.87922
G1 X-17.408 Y-7.402 E74.91707
G1 X-17.818 Y-7.625 E74.95491
G1 X-18.26 Y-7.776 E74.99277
G1 X-18.72 Y-7.853 E75.03059
G1 X-19.187 Y-7.853 E75.06845
G1 X-19.647 Y-7.776 E75.10626
G1 X-20.089 Y-7.625 E75.14412
G1 X-20.499 Y-7.402 E75.18196
G1 X-20.868 Y-7.116 E75.21981
G1 X-21.183 Y-6.772 E75.25763
G1 X-21.439 Y-6.381 E75.29551
G1 X-21.626 Y-5.954 E75.33331
G1 X-21.741 Y-5.502 E75.37112
G1 X-21.78 Y-5.036 E75.40903
G1 X-21.741 Y-4.571 E75.44686
G1 X-21.627 Y-4.119 E75.48465
G1 X-21.439 Y-3.691 E75.52255
G1 X-21.183 Y-3.301 E75.56037
G1 X-20.868 Y-2.957 E75.59819
G1 X-20.499 Y-2.67 E75.63608
G1 X-20.089 Y-2.448 E75.67388
G1 X-19.647 Y-2.297 E75.71175
G1 X-19.187 Y-2.22 E75.74956
G0 F12000 X-19.187 Y-1.57
G0 X-19.241 Y-1.57
; TYPE:WALL-INNER
G1 F900 X-18.666 Y-1.57 E75.79618
G1 X-18.1 Y-1.665 E75.84271
G1 X-17.557 Y-1.851 E75.88924
G1 X-17.051 Y-2.124 E75.93585
G1 X-16.597 Y-2.478 E75.98253
G1 X-16.209 Y-2.9 E76.029
G1 X-15.895 Y-3.38 E76.0755
G1 X-15.663 Y-3.908 E76.12226
G1 X-15.523 Y-4.464 E76.16874
G1 X-15.476 Y-5.036 E76.21527
G1 X-15.523 Y-5.609 E76.26188
G1 X-15.664 Y-6.166 E76.30846
G1 X-15.895 Y-6.692 E76.35504
G1 X-16.209 Y-7.172 E76.40154
G1 X-16.597 Y-7.596 E76.44813
G1 X-17.051 Y-7.948 E76.4947
G1 X-17.556 Y-8.222 E76.54128
G1 X-18.1 Y-8.408 E76.58789
G1 X-18.666 Y-8.503 E76.63442
G1 X-19.241 Y-8.503 E76.68104
G1 X-19.807 Y-8.408 E76.72757
G1 X-20.351 Y-8.222 E76.77418
G1 X-20.856 Y-7.948 E76.82076
G1 X-21.31 Y-7.596 E76.86733
G1 X-21.698 Y-7.172 E76.91392
G1 X-22.012 Y-6.692 E76.96042
G1 X-22.243 Y-6.166 E77.007
G1 X-22.384 Y-5.61 E77.0535
G1 X-22.433 Y-5.036 E77.10021
G1 X-22.384 Y-4.463 E77.14683
G1 X-22.244 Y-3.908 E77.19323
G1 X-22.012 Y-3.38 E77.23999
G1 X-21.698 Y-2.9 E77.28649
G1 X-21.31 Y-2.478 E77.33297
G1 X-20.856 Y-2.124 E77.37964
G1 X-20.35 Y-1.851 E77.42625
G1 X-19.807 Y-1.665 E77.47278
G1 X-19.241 Y-1.57 E77.51931
G0 F12000 X-19.295 Y-0.92
G1 F900 X-18.612 Y-0.92 E77.57468
G1 X-17.94 Y-1.032 E77.62992
G1 X-17.295 Y-1.253 E77.68519
G1 X-16.694 Y-1.578 E77.74058
G1 X-16.154 Y-1.998 E77.79604
G1 X-15.694 Y-2.5 E77.85124
G1 X-15.321 Y-3.069 E77.9064
G1 X-15.046 Y-3.697 E77.96198
G1 X-14.88 Y-4.357 E78.01716
G1 X-14.823 Y-5.036 E78.0724
G1 X-14.88 Y-5.716 E78.12772
G1 X-15.047 Y-6.377 E78.18299
G1 X-15.321 Y-7.002 E78.23832
G1 X-15.694 Y-7.572 E78.29354
G1 X-16.155 Y-8.076 E78.34892
G1 X-16.694 Y-8.494 E78.40422
G1 X-17.293 Y-8.819 E78.45947
G1 X-17.94 Y-9.041 E78.51492
G1 X-18.612 Y-9.153 E78.57015
G1 X-19.295 Y-9.153 E78.62552
G1 X-19.967 Y-9.041 E78.68076
G1 X-20.614 Y-8.819 E78.73621
G1 X-21.213 Y-8.494 E78.79146
G1 X-21.752 Y-8.076 E78.84676
G1 X-22.213 Y-7.572 E78.90213
G1 X-22.586 Y-7.002 E78.95736
G1 X-22.86 Y-6.377 E79.01268
G1 X-23.027 Y-5.717 E79.06788
G1 X-23.085 Y-5.036 E79.12329
G1 X-23.027 Y-4.355 E79.1787
G1 X-22.861 Y-3.697 E79.23371
G1 X-22.586 Y-3.069 E79.28929
G1 X-22.213 Y-2.5 E79.34445
G1 X-21.753 Y-1.998 E79.39965
G1 X-21.213 Y-1.578 E79.45511
G1 X-20.612 Y-1.253 E79.5105
G1 X-19.967 Y-1.032 E79.56578
G1 X-19.295 Y-0.92 E79.62101
G1 F6000 E77.12101
G0 F900 X-19.967 Y-1.032
G0 X-20.612 Y-1.253
G0 X-21.213 Y-1.578
G0 X-21.753 Y-1.998
G0 X-22.213 Y-2.5
G0 X-22.586 Y-3.069
G0 X-22.861 Y-3.697
G0 X-23.027 Y-4.355
G0 X-23.085 Y-5.036
G0 X-23.027 Y-5.717
G0 X-22.86 Y-6.377
G0 X-22.586 Y-7.002
G0 X-22.213 Y-7.572
G0 X-21.752 Y-8.076
G0 X-21.392 Y-8.355
G1 Z0.8
G0 F12000 X-18.952 Y12.619
G0 X-18.929 Y12.84
; TYPE:FILL
G1 Z0.3
G1 F6000 E79.62101
G1 F900 X-18.869 Y13.25 E79.65409
G1 X-18.919 Y13.621 E79.68131
G1 X-18.954 Y13.528 E79.69318
G1 X-18.988 Y13.63 E79.69506
G0 F12000 X-18.952 Y12.619
G0 X-19.256 Y11.266
G0 X-21.412 Y11.083
G0 X-21.936 Y12.365
G0 X-21.961 Y13.007
G1 F900 X-22.071 Y13.358 E79.7225
G1 X-22.09 Y13.26 E79.73442
G1 X-22.051 Y13.175 E79.74086
G1 X-21.952 Y12.596 E79.78314
G0 F12000 X-21.936 Y12.365
G0 X-22.008 Y10.981
G0 X-24.102 Y10.434
G0 X-24.835 Y11.611
G0 X-24.885 Y11.821
G1 F900 X-24.972 Y12.239 E79.81754
G1 X-25.136 Y12.565 E79.84457
G1 X-25.138 Y12.465 E79.85641
G1 X-25.204 Y12.547 E79.85822
G0 F12000 X-24.835 Y11.611
G0 X-24.672 Y10.234
G0 X-26.642 Y9.342
G0 X-27.563 Y10.375
G0 X-27.803 Y10.976
G1 F900 X-28.023 Y11.268 E79.8854
G1 X-28.008 Y11.169 E79.89725
G1 X-27.943 Y11.103 E79.9037
G1 X-27.652 Y10.582 E79.94709
G0 F12000 X-27.563 Y10.375
G0 X-27.171 Y9.047
G0 X-28.961 Y7.836
G0 X-30.043 Y8.699
G0 X-30.157 Y8.876
G1 F900 X-30.375 Y9.24 E79.9563
G1 X-30.595 Y9.401 E79.96082
G1 X-30.678 Y9.518 E79.9632
G0 F12000 X-30.708 Y9.467
G1 F900 X-30.646 Y9.421 E79.96452
G0 F12000 X-30.043 Y8.699
G0 X-29.432 Y7.456
G0 X-30.994 Y5.959
G0 X-32.209 Y6.629
G0 X-32.635 Y7.114
G1 F900 X-32.938 Y7.315 E79.99164
G1 X-32.892 Y7.227 E80.00343
G1 X-32.809 Y7.186 E80.00988
G1 X-32.353 Y6.787 E80.05439
G0 F12000 X-32.209 Y6.629
G0 X-31.394 Y5.506
G0 X-32.679 Y3.765
G0 X-33.988 Y4.22
G0 X-34.167 Y4.358
G1 F900 X-34.483 Y4.623 E80.08741
G1 X-34.823 Y4.775 E80.11472
G1 X-34.763 Y4.696 E80.12658
G1 X-34.866 Y4.72 E80.1284
G1 F6000 E77.6284
G0 F900 X-34.763 Y4.696
G0 X-34.823 Y4.775
G0 X-34.483 Y4.623
G0 X-34.167 Y4.358
G0 X-33.988 Y4.22
G0 X-32.679 Y3.765
G0 X-31.394 Y5.506
G0 X-32.209 Y6.629
G0 X-32.353 Y6.787
G0 X-32.809 Y7.186
G0 X-32.892 Y7.227
G0 X-32.938 Y7.315
G0 X-32.635 Y7.114
G0 X-32.209 Y6.629
G0 X-30.994 Y5.959
G0 X-30.672 Y6.268
G1 Z0.8
G0 F12000 X-33.988 Y4.22
G0 X-32.996 Y3.251
G0 X-33.971 Y1.319
G0 X-35.336 Y1.547
G0 X-35.903 Y1.862
G1 Z0.3
G1 F6000 E80.1284
G1 F900 X-36.252 Y1.95 E80.15511
G1 X-36.178 Y1.882 E80.16717
G1 X-36.09 Y1.871 E80.17369
G1 X-35.53 Y1.649 E80.21772
G0 F12000 X-35.336 Y1.547
G0 X-34.196 Y0.759
G0 X-34.828 Y-1.307
G0 X-36.211 Y-1.316
G0 X-36.424 Y-1.246
G1 F900 X-36.817 Y-1.1 E80.25103
G1 X-37.186 Y-1.072 E80.27785
G1 X-37.105 Y-1.124 E80.28955
G1 X-37.211 Y-1.135 E80.2914
G0 F12000 X-36.211 Y-1.316
G0 X-34.954 Y-1.899
G0 X-35.232 Y-4.044
G0 X-36.596 Y-4.286
G0 X-37.233 Y-4.175
G1 F900 X-37.597 Y-4.209 E80.3189
G1 X-37.356 Y-4.207 E80.33008
G1 X-36.805 Y-4.254 E80.3707
G0 F12000 X-36.596 Y-4.286
G0 X-35.256 Y-4.646
G0 X-35.165 Y-6.809
G0 X-36.47 Y-7.278
G0 X-36.685 Y-7.282
G1 F900 X-37.109 Y-7.276 E80.40482
G1 X-37.468 Y-7.373 E80.43241
G1 X-37.373 Y-7.396 E80.44401
G1 X-37.464 Y-7.442 E80.44569
G0 F12000 X-36.47 Y-7.278
G0 X-35.088 Y-7.408
G0 X-34.63 Y-9.524
G0 X-35.838 Y-10.206
G0 X-36.472 Y-10.312
G1 F900 X-36.806 Y-10.466 E80.47344
G1 X-36.709 Y-10.473 E80.48482
G1 X-36.628 Y-10.423 E80.49091
G1 X-36.053 Y-10.247 E80.53493
G0 F12000 X-35.838 Y-10.206
G0 X-34.455 Y-10.101
G0 X-33.648 Y-12.107
G0 X-34.721 Y-12.985
G0 X-34.925 Y-13.063
G1 F900 X-35.325 Y-13.201 E80.56897
G1 X-35.627 Y-13.403 E80.5958
G1 X-35.525 Y-13.392 E80.60787
G1 X-35.599 Y-13.47 E80.60975
G0 F12000 X-34.721 Y-12.985
G0 X-33.376 Y-12.648
G0 X-32.241 Y-14.489
G0 X-33.15 Y-15.535
G0 X-33.715 Y-15.85
G1 F900 X-33.974 Y-16.102 E80.63656
G1 X-33.877 Y-16.074 E80.64868
G1 X-33.821 Y-16.005 E80.65522
G1 X-33.34 Y-15.647 E80.69904
G1 F6000 E78.19904
G0 F900 X-33.821 Y-16.005
G0 X-33.877 Y-16.074
G0 X-33.974 Y-16.102
G0 X-33.715 Y-15.85
G0 X-33.15 Y-15.535
G0 X-32.241 Y-14.489
G0 X-33.376 Y-12.648
G0 X-34.721 Y-12.985
G0 X-35.599 Y-13.47
G0 X-35.525 Y-13.392
G0 X-35.627 Y-13.403
G0 X-35.325 Y-13.201
G0 X-34.925 Y-13.063
G0 X-34.721 Y-12.985
G0 X-33.903 Y-12.316
G1 Z0.8
G0 F12000 X-33.15 Y-15.535
G0 X-31.882 Y-14.976
G0 X-30.453 Y-16.598
G0 X-31.171 Y-17.783
G0 X-31.338 Y-17.923
G1 Z0.3
G1 F6000 E80.69904
G1 F900 X-31.67 Y-18.186 E80.73301
G1 X-31.889 Y-18.484 E80.76036
G1 X-31.799 Y-18.441 E80.77212
G1 X-31.842 Y-18.536 E80.77387
G0 F12000 X-31.171 Y-17.783
G0 X-30.017 Y-17.016
G0 X-28.333 Y-18.375
G0 X-28.842 Y-19.665
G0 X-29.27 Y-20.148
G1 F900 X-29.431 Y-20.478 E80.80135
G1 X-29.352 Y-20.422 E80.81287
G1 X-29.321 Y-20.332 E80.81912
G1 X-28.981 Y-19.83 E80.86336
G0 F12000 X-28.842 Y-19.665
G0 X-27.832 Y-18.715
G0 X-25.944 Y-19.769
G0 X-26.229 Y-21.127
G0 X-26.338 Y-21.312
G1 F900 X-26.563 Y-21.671 E80.89718
G1 X-26.67 Y-22.025 E80.92412
G1 X-26.599 Y-21.954 E80.93608
G1 X-26.61 Y-22.061 E80.93797
G0 F12000 X-26.229 Y-21.127
G0 X-25.392 Y-20.018
G0 X-23.353 Y-20.739
G0 X-23.405 Y-22.124
G0 X-23.645 Y-22.722
G1 F900 X-23.689 Y-23.087 E80.96562
G1 X-23.632 Y-23.008 E80.97709
G1 X-23.632 Y-22.913 E80.98325
G1 X-23.481 Y-22.329 E81.02726
G0 F12000 X-23.405 Y-22.124
G0 X-22.768 Y-20.892
G0 X-20.636 Y-21.255
G0 X-20.453 Y-22.628
G0 X-20.493 Y-22.836
G1 F900 X-20.588 Y-23.26 E81.06222
G1 X-20.57 Y-23.628 E81.08956
G1 X-20.528 Y-23.541 E81.10105
G1 X-20.502 Y-23.64 E81.10275
G0 F12000 X-20.453 Y-22.628
G0 X-20.034 Y-21.307
G0 X-17.87 Y-21.307
G0 X-17.457 Y-22.631
G0 X-17.487 Y-23.273
G1 F900 X-17.417 Y-23.61 E81.11357
G0 F12000 X-17.393 Y-23.66
G1 F900 X-17.391 Y-23.519 E81.11605
G1 X-17.486 Y-23.268 E81.13577
G1 X-17.462 Y-22.84 E81.16726
G0 F12000 X-17.452 Y-22.792
G1 F900 X-17.419 Y-22.953 E81.17751
G0 F12000 X-17.457 Y-22.631
G0 X-17.269 Y-21.255
G0 X-15.136 Y-20.892
G0 X-14.504 Y-22.126
G0 X-14.421 Y-22.766
G1 F900 X-14.286 Y-23.099 E81.20408
G1 X-14.275 Y-22.997 E81.2163
G1 X-14.318 Y-22.921 E81.22289
G1 X-14.471 Y-22.344 E81.26637
G1 F6000 E78.76637
G0 F900 X-14.318 Y-22.921
G0 X-14.275 Y-22.997
G0 X-14.286 Y-23.099
G0 X-14.421 Y-22.766
G0 X-14.504 Y-22.126
G0 X-15.136 Y-20.892
G0 X-17.269 Y-21.255
G0 X-17.457 Y-22.631
G0 X-17.419 Y-22.953
G0 X-17.452 Y-22.792
G0 X-17.462 Y-22.84
G0 X-17.486 Y-23.268
G0 X-17.391 Y-23.519
G0 X-17.393 Y-23.66
G0 X-17.417 Y-23.61
G0 X-17.487 Y-23.273
G0 X-17.457 Y-22.631
G0 X-17.712 Y-21.811
G1 Z0.8
G0 F12000 X-14.504 Y-22.126
G0 X-14.551 Y-20.738
G0 X-12.511 Y-20.017
G0 X-11.681 Y-21.127
G0 X-11.613 Y-21.336
G1 Z0.3
G1 F6000 E81.26637
G1 F900 X-11.494 Y-21.741 E81.30017
G1 X-11.298 Y-22.054 E81.32735
G1 X-11.305 Y-21.957 E81.33889
G1 X-11.234 Y-22.032 E81.34063
G0 F12000 X-11.681 Y-21.127
G0 X-11.961 Y-19.768
G0 X-10.072 Y-18.713
G0 X-9.066 Y-19.668
G0 X-8.778 Y-20.242
G1 F900 X-8.534 Y-20.514 E81.36788
G1 X-8.557 Y-20.417 E81.37979
G1 X-8.626 Y-20.357 E81.38614
G1 X-8.963 Y-19.861 E81.42997
G0 F12000 X-9.066 Y-19.668
G0 X-9.572 Y-18.374
G0 X-7.888 Y-17.015
G0 X-6.735 Y-17.786
G0 X-6.601 Y-17.959
G1 F900 X-6.353 Y-18.301 E81.46385
G1 X-6.068 Y-18.531 E81.49094
G1 X-6.108 Y-18.439 E81.50273
G1 X-6.014 Y-18.487 E81.50453
G0 F12000 X-6.735 Y-17.786
G0 X-7.453 Y-16.596
G0 X-6.023 Y-14.974
G0 X-4.757 Y-15.537
G0 X-4.291 Y-15.985
G1 F900 X-3.97 Y-16.16 E81.53189
G1 X-4.023 Y-16.078 E81.54347
G1 X-4.11 Y-16.043 E81.54976
G1 X-4.596 Y-15.685 E81.59396
G0 F12000 X-4.757 Y-15.537
G0 X-5.665 Y-14.487
G0 X-4.53 Y-12.646
G0 X-3.186 Y-12.987
G0 X-3.008 Y-13.102
G1 F900 X-2.654 Y-13.347 E81.62859
G1 X-2.305 Y-13.468 E81.65609
G1 X-2.37 Y-13.397 E81.66746
G1 X-2.27 Y-13.409 E81.66912
G0 F12000 X-3.186 Y-12.987
G0 X-4.259 Y-12.105
G0 X-3.452 Y-10.098
G0 X-2.07 Y-10.208
G0 X-1.481 Y-10.477
G1 F900 X-1.122 Y-10.533 E81.69595
G1 X-1.2 Y-10.473 E81.70792
G1 X-1.293 Y-10.47 E81.71441
G1 X-1.868 Y-10.294 E81.75836
G0 F12000 X-2.07 Y-10.208
G0 X-3.276 Y-9.521
G0 X-2.818 Y-7.406
G0 X-1.438 Y-7.281
G0 X-1.235 Y-7.33
G1 F900 X-0.819 Y-7.444 E81.79295
G1 X-0.447 Y-7.441 E81.82042
G1 X-0.532 Y-7.395 E81.83192
G1 X-0.433 Y-7.374 E81.83361
G1 F6000 E79.33361
G0 F900 X-0.532 Y-7.395
G0 X-0.447 Y-7.441
G0 X-0.819 Y-7.444
G0 X-1.235 Y-7.33
G0 X-1.438 Y-7.281
G0 X-2.818 Y-7.406
G0 X-3.276 Y-9.521
G0 X-2.07 Y-10.208
G0 X-1.868 Y-10.294
G0 X-1.293 Y-10.47
G0 X-1.2 Y-10.473
G0 X-1.122 Y-10.533
G0 X-1.481 Y-10.477
G0 X-2.07 Y-10.208
G0 X-3.452 Y-10.098
G0 X-3.619 Y-10.514
G1 Z0.8
G0 F12000 X-1.438 Y-7.281
G0 X-2.744 Y-6.806
G0 X-2.65 Y-4.644
G0 X-1.313 Y-4.288
G0 X-0.668 Y-4.342
G1 Z0.3
G1 F6000 E81.83361
G1 F900 X-0.313 Y-4.279 E81.86032
G1 X-0.408 Y-4.248 E81.87235
G1 X-0.493 Y-4.274 E81.87889
G1 X-1.098 Y-4.302 E81.92323
G0 F12000 X-1.313 Y-4.288
G0 X-2.677 Y-4.041
G0 X-2.952 Y-1.896
G0 X-1.692 Y-1.318
G0 X-1.477 Y-1.295
G1 F900 X-1.054 Y-1.265 E81.95735
G1 X-0.705 Y-1.138 E81.985
G1 X-0.802 Y-1.124 E81.9965
G1 X-0.716 Y-1.071 E81.99815
G0 F12000 X-1.692 Y-1.318
G0 X-3.078 Y-1.305
G0 X-3.714 Y0.761
G0 X-2.569 Y1.545
G0 X-1.941 Y1.705
G1 F900 X-1.624 Y1.888 E82.02536
G1 X-1.721 Y1.886 E82.03696
G1 X-1.797 Y1.829 E82.04319
G1 X-2.363 Y1.602 E82.08799
G0 F12000 X-2.569 Y1.545
G0 X-3.938 Y1.322
G0 X-4.913 Y3.254
G0 X-3.916 Y4.219
G0 X-3.713 Y4.316
G1 F900 X-3.336 Y4.48 E82.12065
G1 X-3.047 Y4.712 E82.14751
G1 X-3.147 Y4.693 E82.15984
G1 X-3.077 Y4.777 E82.16181
G0 F12000 X-3.916 Y4.219
G0 X-5.23 Y3.768
G0 X-6.515 Y5.508
G0 X-5.695 Y6.629
G0 X-5.16 Y6.987
G1 F900 X-4.922 Y7.265 E82.18902
G1 X-5.014 Y7.23 E82.20074
G1 X-5.066 Y7.152 E82.2072
G1 X-5.516 Y6.756 E82.25086
G0 F12000 X-5.695 Y6.629
G0 X-6.915 Y5.96
G0 X-8.477 Y7.458
G0 X-7.862 Y8.696
G0 X-7.708 Y8.85
G1 F900 X-7.395 Y9.143 E82.28535
G1 X-7.203 Y9.458 E82.31286
G1 X-7.287 Y9.409 E82.3244
G1 X-7.255 Y9.505 E82.32608
G0 F12000 X-7.862 Y8.696
G0 X-8.948 Y7.838
G0 X-10.741 Y9.049
G0 X-10.341 Y10.377
G0 X-9.954 Y10.898
G1 F900 X-9.823 Y11.235 E82.35277
G1 X-9.899 Y11.171 E82.36481
G1 X-9.921 Y11.082 E82.37134
G1 X-10.215 Y10.553 E82.4158
G1 F6000 E79.9158
G0 F900 X-9.921 Y11.082
G0 X-9.899 Y11.171
G0 X-9.823 Y11.235
G0 X-9.954 Y10.898
G0 X-10.341 Y10.377
G0 X-10.741 Y9.049
G0 X-8.948 Y7.838
G0 X-7.862 Y8.696
G0 X-7.255 Y9.505
G0 X-7.287 Y9.409
G0 X-7.203 Y9.458
G0 X-7.395 Y9.143
G0 X-7.708 Y8.85
G0 X-7.862 Y8.696
G0 X-8.324 Y7.765
G1 Z0.8
G0 F12000 X-10.341 Y10.377
G0 X-11.266 Y9.343
G0 X-13.239 Y10.235
G0 X-13.071 Y11.609
G0 X-12.976 Y11.807
G1 Z0.3
G1 F6000 E82.4158
G1 F900 X-12.781 Y12.18 E82.4494
G1 X-12.704 Y12.543 E82.47647
G1 X-12.768 Y12.467 E82.48843
G1 X-12.767 Y12.574 E82.49031
G0 F12000 X-13.071 Y11.609
G0 X-13.809 Y10.435
G0 X-15.901 Y10.982
G0 X-15.969 Y12.363
G0 X-15.778 Y12.984
G1 F900 X-15.765 Y13.349 E82.51764
G1 X-15.815 Y13.264 E82.52939
G1 X-15.807 Y13.172 E82.53556
G1 X-15.91 Y12.566 E82.5808
G0 F12000 X-15.969 Y12.363
G0 X-15.901 Y10.982
G0 X-15.343 Y9.75
; TYPE:BOTTOM-FILL
G1 F900 X-22.565 Y9.75 E83.1663
G0 F12000 X-24.631 Y9.1
G1 F900 X-13.275 Y9.1 E84.08695
G0 F12000 X-11.838 Y8.45
G1 F900 X-26.065 Y8.45 E85.24035
G0 F12000 X-27.14 Y7.8
G1 F900 X-10.769 Y7.8 E86.56757
G0 F12000 X-9.806 Y7.15
G1 F900 X-28.101 Y7.15 E88.05078
G0 F12000 X-28.91 Y6.5
G1 F900 X-8.996 Y6.5 E89.66524
G0 F12000 X-8.318 Y5.85
G1 F900 X-29.588 Y5.85 E91.38963
G0 F12000 X-30.266 Y5.2
G1 F900 X-7.64 Y5.2 E93.22396
G0 F12000 X-7.114 Y4.55
G1 F900 X-30.793 Y4.55 E95.14365
G0 F12000 X-31.273 Y3.9
G1 F900 X-6.633 Y3.9 E97.14125
G0 F12000 X-6.153 Y3.25
G1 F900 X-31.754 Y3.25 E99.21677
G0 F12000 X-32.149 Y2.6
G1 F900 X-5.758 Y2.6 E101.35633
G0 F12000 X-5.43 Y1.95
G1 F900 X-32.476 Y1.95 E103.54899
G0 F12000 X-32.804 Y1.3
G1 F900 X-5.102 Y1.3 E105.79483
G0 F12000 X-4.779 Y0.65
G1 F900 X-33.13 Y0.65 E108.09329
G0 F12000 X-33.329 Y0
G1 F900 X-4.578 Y0 E110.42418
G0 F12000 X-4.378 Y-0.649
G1 F900 X-17.819 Y-0.649 E111.51387
G0 F12000 X-16.4 Y-1.299
G1 F900 X-4.178 Y-1.299 E112.50472
G0 F12000 X-4.004 Y-1.949
G1 F900 X-15.656 Y-1.949 E113.44937
G0 F12000 X-15.15 Y-2.599
G1 F900 X-3.921 Y-2.599 E114.35972
G0 F12000 X-3.837 Y-3.249
G1 F900 X-14.805 Y-3.249 E115.24891
G0 F12000 X-14.582 Y-3.899
G1 F900 X-3.754 Y-3.899 E116.12676
G0 F12000 X-3.695 Y-4.55
G1 F900 X-14.462 Y-4.549 E116.99966
G0 F12000 X-14.436 Y-5.199
G1 F900 X-3.724 Y-5.2 E117.86809
G0 F12000 X-3.753 Y-5.85
G1 F900 X-14.501 Y-5.849 E118.73945
G0 F12000 X-14.664 Y-6.499
G1 F900 X-3.781 Y-6.5 E119.62175
G0 F12000 X-3.837 Y-7.15
G1 F900 X-14.948 Y-7.149 E120.52254
G0 F12000 X-15.365 Y-7.799
G1 F900 X-3.977 Y-7.8 E121.44578
G0 F12000 X-4.118 Y-8.45
G1 F900 X-15.984 Y-8.449 E122.40778
G0 F12000 X-16.973 Y-9.099
G1 F900 X-4.258 Y-9.1 E123.4386
G0 F12000 X-4.443 Y-9.75
G1 F900 X-33.465 Y-9.749 E125.79146
G0 F12000 X-33.648 Y-9.099
G1 F900 X-20.934 Y-9.099 E126.82221
G0 F12000 X-21.923 Y-8.449
G1 F900 X-33.788 Y-8.449 E127.78412
G0 F12000 X-33.929 Y-7.799
G1 F900 X-22.542 Y-7.799 E128.70728
G0 F12000 X-22.959 Y-7.149
G1 F900 X-34.07 Y-7.149 E129.60807
G0 F12000 X-34.127 Y-6.499
G1 F900 X-23.243 Y-6.499 E130.49045
G0 F12000 X-23.407 Y-5.849
G1 F900 X-34.155 Y-5.849 E131.36181
G0 F12000 X-34.182 Y-5.199
G1 F900 X-23.472 Y-5.199 E132.23009
G0 F12000 X-23.445 Y-4.549
G1 F900 X-34.21 Y-4.549 E133.10282
G0 F12000 X-34.154 Y-3.899
G1 F900 X-23.326 Y-3.899 E133.98067
G0 F12000 X-23.103 Y-3.249
G1 F900 X-34.07 Y-3.249 E134.86978
G0 F12000 X-33.985 Y-2.599
G1 F900 X-22.757 Y-2.599 E135.78005
G0 F12000 X-22.251 Y-1.949
G1 F900 X-33.901 Y-1.949 E136.72453
G0 F12000 X-33.727 Y-1.299
G1 F900 X-21.507 Y-1.299 E137.71523
G0 F12000 X-20.088 Y-0.649
G1 F900 X-33.528 Y-0.649 E138.80483
G1 F6000 E136.30483
G0 F900 X-23.528 Y-0.649
G1 Z0.8
G0 F12000 X-33.203 Y-10.399
G1 Z0.3
G1 F6000 E138.80483
G1 F900 X-4.704 Y-10.4 E141.11529
G0 F12000 X-4.966 Y-11.05
G1 F900 X-32.942 Y-11.049 E143.38335
G0 F12000 X-32.681 Y-11.699
G1 F900 X-5.227 Y-11.7 E145.60909
G0 F12000 X-5.58 Y-12.35
G1 F900 X-32.326 Y-12.349 E147.77743
G0 F12000 X-31.925 Y-12.999
G1 F900 X-5.981 Y-13 E149.88075
G0 F12000 X-6.382 Y-13.65
G1 F900 X-31.524 Y-13.649 E151.91905
G0 F12000 X-31.078 Y-14.299
G1 F900 X-6.829 Y-14.3 E153.88495
G0 F12000 X-7.402 Y-14.95
G1 F900 X-30.505 Y-14.949 E155.75795
G0 F12000 X-29.932 Y-15.599
G1 F900 X-7.974 Y-15.6 E157.53812
G0 F12000 X-8.611 Y-16.25
G1 F900 X-29.294 Y-16.249 E159.21492
G0 F12000 X-28.49 Y-16.9
G1 F900 X-9.416 Y-16.9 E160.76128
G0 F12000 X-10.222 Y-17.55
G1 F900 X-27.685 Y-17.55 E162.17704
G0 F12000 X-26.602 Y-18.2
G1 F900 X-11.305 Y-18.2 E163.41719
G0 F12000 X-12.468 Y-18.85
G1 F900 X-25.438 Y-18.85 E164.46869
G0 F12000 X-23.706 Y-19.5
G1 F900 X-14.201 Y-19.5 E165.23927
G0 F12000 X-17.039 Y-20.15
G1 F900 X-20.871 Y-20.15 E165.54994
G1 F6000 E163.04994
G0 F900 X-17.039 Y-20.15
G0 X-14.201 Y-19.5
G0 X-17.458 Y-19.5
G1 Z0.8
G0 F12000 X-3.452 Y-10.098
G0 X-2.07 Y-10.208
G0 X-0.435 Y-11.141
G0 X0.999 Y-11.581
G0 X4.04 Y-13.042
G0 X7.158 Y-13.042
G0 X9.063 Y-12.864
G0 X9.135 Y-12.819
G0 X10.232 Y-12.21
G0 X10.083 Y-11.507
G0 X22.24 Y4.313
G0 X22.331 Y4.785
G0 X21.694 Y4.91
; TYPE:WALL-OUTER
G1 Z0.3
G1 F6000 E165.54994
G1 F900 X20.5 Y4.785 E165.64727
G1 X20.187 Y5.522 E165.71218
G1 X19.925 Y6.054 E165.76026
G1 X19.652 Y6.531 E165.80482
G1 X19.433 Y6.868 E165.8374
G1 X19.05 Y6.786 E165.86915
G1 X18.995 Y6.447 E165.897
G1 X18.933 Y5.86 E165.94485
G1 X18.91 Y5.298 E165.99045
G1 X18.922 Y4.449 E166.05929
G1 X17.781 Y4.079 E166.15653
G1 X17.33 Y4.725 E166.2204
G1 X16.946 Y5.211 E166.27062
G1 X16.585 Y5.616 E166.3146
G1 X16.305 Y5.895 E166.34665
G1 X15.947 Y5.736 E166.37841
G1 X15.964 Y5.392 E166.40633
G1 X16.026 Y4.807 E166.45402
G1 X16.12 Y4.248 E166.49998
G1 X16.31 Y3.423 E166.56861
G1 X15.269 Y2.822 E166.66606
G1 X14.693 Y3.361 E166.73002
G1 X14.218 Y3.757 E166.78015
G1 X13.785 Y4.073 E166.82361
G1 X13.447 Y4.292 E166.85626
G1 X13.13 Y4.062 E166.88801
G1 X13.212 Y3.748 E166.91432
G1 X13.407 Y3.153 E166.96509
G1 X13.601 Y2.662 E167.00789
G1 X13.966 Y1.875 E167.07822
G1 X13.073 Y1.071 E167.17563
G1 X12.399 Y1.479 E167.23951
G1 X11.85 Y1.767 E167.28977
G1 X11.362 Y1.987 E167.33317
G1 X10.986 Y2.131 E167.36581
G1 X10.724 Y1.84 E167.39755
G1 X10.879 Y1.533 E167.42543
G1 X11.173 Y1.024 E167.47309
G1 X11.487 Y0.552 E167.51905
G1 X11.995 Y-0.125 E167.58767
G1 X11.29 Y-1.095 E167.68488
G1 X10.543 Y-0.839 E167.7489
G1 X9.951 Y-0.671 E167.79879
G1 X9.407 Y-0.553 E167.84392
G1 X9.026 Y-0.493 E167.87519
G1 X8.83 Y-0.833 E167.907
G1 X9.041 Y-1.095 E167.93428
G1 X9.454 Y-1.552 E167.98421
G1 X9.832 Y-1.921 E168.02704
G1 X10.483 Y-2.491 E168.09719
G1 X9.995 Y-3.588 E168.19453
G1 X9.194 Y-3.49 E168.25995
G1 X8.602 Y-3.45 E168.30805
G1 X8.06 Y-3.448 E168.352
G1 X7.657 Y-3.47 E168.38472
G1 X7.536 Y-3.842 E168.41643
G1 X7.796 Y-4.054 E168.44363
G1 X8.295 Y-4.416 E168.49361
G1 X8.741 Y-4.699 E168.53643
G1 X9.497 Y-5.121 E168.60662
G1 X9.248 Y-6.295 E168.70392
G1 X8.457 Y-6.363 E168.76828
G1 X7.843 Y-6.452 E168.81858
G1 X7.326 Y-6.56 E168.8614
G1 X6.936 Y-6.665 E168.89414
G1 X6.895 Y-7.054 E168.92585
G1 X7.196 Y-7.209 E168.9533
G1 X7.744 Y-7.453 E169.00193
G1 X8.269 Y-7.648 E169.04734
G1 X9.079 Y-7.898 E169.11606
G1 X9.079 Y-9.098 E169.21335
G1 X8.318 Y-9.33 E169.27785
G1 X7.738 Y-9.544 E169.32797
G1 X7.247 Y-9.761 E169.37149
G1 X6.895 Y-9.941 E169.40354
G1 X6.936 Y-10.33 E169.43525
G1 X7.265 Y-10.419 E169.46288
G1 X7.844 Y-10.542 E169.51087
G1 X8.4 Y-10.624 E169.55643
G1 X9.248 Y-10.701 E169.62546
G1 X9.497 Y-11.875 E169.72276
G1 X8.798 Y-12.263 E169.78757
G1 X8.291 Y-12.582 E169.83614
G1 X7.834 Y-12.912 E169.88184
G1 X7.536 Y-13.154 E169.91296
G1 X7.658 Y-13.527 E169.94477
G1 X7.983 Y-13.545 E169.97116
G1 X8.604 Y-13.545 E170.02151
G1 X9.135 Y-13.511 E170.06464
G1 X9.995 Y-13.408 E170.13486
G1 X10.484 Y-14.505 E170.23224
G1 X9.889 Y-15.021 E170.29609
G1 X9.44 Y-15.458 E170.34688
G1 X9.079 Y-15.856 E170.39044
G1 X8.831 Y-16.163 E170.42244
G1 X9.027 Y-16.502 E170.45419
G1 X9.351 Y-16.453 E170.48075
G1 X9.957 Y-16.323 E170.531
G1 X10.47 Y-16.18 E170.57417
G1 X11.29 Y-15.901 E170.6444
G1 X11.995 Y-16.872 E170.74168
G1 X11.518 Y-17.505 E170.80593
G1 X11.181 Y-18.009 E170.85509
G1 X10.898 Y-18.494 E170.90061
G1 X10.724 Y-18.837 E170.93179
G1 X10.987 Y-19.128 E170.96359
G1 X11.293 Y-19.013 E170.99009
G1 X11.862 Y-18.758 E171.04064
G1 X12.331 Y-18.514 E171.0835
G1 X13.074 Y-18.069 E171.15372
G1 X13.966 Y-18.873 E171.25107
G1 X13.63 Y-19.592 E171.31541
G1 X13.406 Y-20.153 E171.36439
G1 X13.229 Y-20.688 E171.41007
G1 X13.13 Y-21.059 E171.4412
G1 X13.448 Y-21.29 E171.47307
G1 X13.726 Y-21.111 E171.49987
G1 X14.227 Y-20.747 E171.55008
G1 X14.635 Y-20.409 E171.59303
G1 X15.27 Y-19.82 E171.66325
G1 X16.31 Y-20.42 E171.76059
G1 X16.128 Y-21.206 E171.826
G1 X16.028 Y-21.79 E171.87403
G1 X15.968 Y-22.332 E171.91824
G1 X15.947 Y-22.733 E171.9508
G1 X16.306 Y-22.893 E171.98266
G1 X16.537 Y-22.663 E172.00909
G1 X16.942 Y-22.213 E172.05817
G1 X17.294 Y-21.768 E172.10417
G1 X17.783 Y-21.076 E172.17286
G1 X18.923 Y-21.446 E172.27003
G1 X18.91 Y-22.236 E172.33409
G1 X18.933 Y-22.861 E172.38479
G1 X18.987 Y-23.386 E172.42758
G1 X19.05 Y-23.784 E172.46025
G1 X19.434 Y-23.865 E172.49206
G1 X19.612 Y-23.594 E172.51835
G1 X19.921 Y-23.058 E172.56851
G1 X20.16 Y-22.578 E172.61198
G1 X20.5 Y-21.782 E172.68215
G1 X21.695 Y-21.907 E172.77956
G1 X21.843 Y-22.682 E172.84353
G1 X21.997 Y-23.288 E172.89422
G1 X22.162 Y-23.799 E172.93775
G1 X22.304 Y-24.167 E172.96973
G1 X22.695 Y-24.167 E173.00143
G1 X22.82 Y-23.846 E173.02936
G1 X23.004 Y-23.28 E173.07761
G1 X23.143 Y-22.739 E173.12289
G1 X23.305 Y-21.907 E173.19161
G1 X24.499 Y-21.782 E173.28894
G1 X24.814 Y-22.525 E173.35436
G1 X25.074 Y-23.051 E173.40193
G1 X25.347 Y-23.528 E173.44649
G1 X25.566 Y-23.865 E173.47907
G1 X25.949 Y-23.783 E173.51083
G1 X26.004 Y-23.444 E173.53867
G1 X26.066 Y-22.86 E173.58628
G1 X26.089 Y-22.295 E173.63212
G1 X26.077 Y-21.446 E173.70096
G1 X27.217 Y-21.076 E173.79813
G1 X27.669 Y-21.722 E173.86205
G1 X28.044 Y-22.198 E173.91117
G1 X28.409 Y-22.607 E173.95562
G1 X28.694 Y-22.892 E173.98829
G1 X29.052 Y-22.733 E174.02005
G1 X29.035 Y-22.389 E174.04797
G1 X28.973 Y-21.804 E174.09566
G1 X28.88 Y-21.251 E174.14113
G1 X28.689 Y-20.42 E174.21025
G1 X29.73 Y-19.819 E174.3077
G1 X30.306 Y-20.358 E174.37166
G1 X30.787 Y-20.758 E174.42238
G1 X31.214 Y-21.07 E174.46525
G1 X31.552 Y-21.289 E174.4979
G1 X31.869 Y-21.058 E174.5297
G1 X31.787 Y-20.744 E174.55601
G1 X31.593 Y-20.151 E174.60659
G1 X31.398 Y-19.658 E174.64957
G1 X31.033 Y-18.872 E174.71983
G1 X31.926 Y-18.068 E174.81725
G1 X32.6 Y-18.476 E174.88112
G1 X33.15 Y-18.765 E174.93149
G1 X33.637 Y-18.984 E174.97478
G1 X34.013 Y-19.128 E175.00743
G1 X34.275 Y-18.837 E175.03917
G1 X34.122 Y-18.533 E175.06676
G1 X33.826 Y-18.021 E175.11471
G1 X33.515 Y-17.552 E175.16033
G1 X33.004 Y-16.871 E175.22935
G1 X33.709 Y-15.901 E175.32657
G1 X34.458 Y-16.158 E175.39077
G1 X35.044 Y-16.323 E175.44012
G1 X35.592 Y-16.442 E175.48559
G1 X35.972 Y-16.502 E175.51678
G1 X36.168 Y-16.162 E175.54859
G1 X35.959 Y-15.901 E175.5757
G1 X35.547 Y-15.446 E175.62546
G1 X35.167 Y-15.074 E175.66857
G1 X34.516 Y-14.504 E175.73872
G1 X35.004 Y-13.407 E175.83606
G1 X35.805 Y-13.505 E175.90148
G1 X36.397 Y-13.545 E175.94959
G1 X36.939 Y-13.547 E175.99353
G1 X37.342 Y-13.525 E176.02625
G1 X37.463 Y-13.153 E176.05796
G1 X37.206 Y-12.944 E176.08482
G1 X36.706 Y-12.581 E176.13491
G1 X36.258 Y-12.296 E176.17796
G1 X35.502 Y-11.874 E176.24815
G1 X35.751 Y-10.7 E176.34544
G1 X36.542 Y-10.631 E176.40982
G1 X37.156 Y-10.542 E176.46011
G1 X37.678 Y-10.433 E176.50335
G1 X38.063 Y-10.33 E176.53566
G1 X38.104 Y-9.94 E176.56745
G1 X37.804 Y-9.786 E176.59479
G1 X37.26 Y-9.544 E176.64306
G1 X36.736 Y-9.349 E176.68839
G1 X35.92 Y-9.097 E176.75762
G1 X35.92 Y-7.898 E176.85483
G1 X36.688 Y-7.662 E176.91996
G1 X37.257 Y-7.453 E176.96911
G1 X37.752 Y-7.234 E177.01299
G1 X38.104 Y-7.054 E177.04504
G1 X38.063 Y-6.664 E177.07683
G1 X37.734 Y-6.575 E177.10446
G1 X37.139 Y-6.449 E177.15377
G1 X36.614 Y-6.371 E177.1968
G1 X35.751 Y-6.295 E177.26704
G1 X35.502 Y-5.12 E177.36441
G1 X36.201 Y-4.732 E177.42923
G1 X36.705 Y-4.415 E177.4775
G1 X37.165 Y-4.083 E177.52349
G1 X37.463 Y-3.841 E177.55461
G1 X37.341 Y-3.468 E177.58643
G1 X37.016 Y-3.45 E177.61281
G1 X36.395 Y-3.45 E177.66316
G1 X35.864 Y-3.484 E177.7063
G1 X35.004 Y-3.587 E177.77652
G1 X34.515 Y-2.49 E177.87389
G1 X35.119 Y-1.966 E177.93871
G1 X35.559 Y-1.537 E177.98854
G1 X35.926 Y-1.132 E178.03284
G1 X36.168 Y-0.833 E178.06403
G1 X35.972 Y-0.493 E178.09585
G1 X35.649 Y-0.542 E178.12233
G1 X35.046 Y-0.671 E178.17232
G1 X34.525 Y-0.817 E178.21619
G1 X33.709 Y-1.095 E178.28608
G1 X33.003 Y-0.124 E178.38341
G1 X33.479 Y0.504 E178.44729
G1 X33.816 Y1.008 E178.49644
G1 X34.101 Y1.497 E178.54233
G1 X34.275 Y1.84 E178.57351
G1 X34.012 Y2.131 E178.60531
G1 X33.706 Y2.016 E178.63181
G1 X33.137 Y1.761 E178.68236
G1 X32.666 Y1.516 E178.72541
G1 X31.925 Y1.072 E178.79544
G1 X31.033 Y1.876 E178.89279
G1 X31.367 Y2.591 E178.95677
G1 X31.595 Y3.161 E179.00654
G1 X31.77 Y3.692 E179.05187
G1 X31.868 Y4.062 E179.0829
G1 X31.551 Y4.293 E179.1147
G1 X31.273 Y4.114 E179.14151
G1 X30.781 Y3.757 E179.19079
G1 X30.351 Y3.4 E179.2361
G1 X29.729 Y2.823 E179.30488
G1 X28.689 Y3.423 E179.40222
G1 X28.871 Y4.209 E179.46763
G1 X28.971 Y4.789 E179.51534
G1 X29.031 Y5.333 E179.55971
G1 X29.052 Y5.736 E179.59243
G1 X28.693 Y5.895 E179.62426
G1 X28.449 Y5.653 E179.65212
G1 X28.054 Y5.212 E179.70012
G1 X27.705 Y4.772 E179.74565
G1 X27.217 Y4.079 E179.81436
G1 X26.076 Y4.449 E179.91161
G1 X26.09 Y5.239 E179.97567
G1 X26.066 Y5.862 E180.02621
G1 X26.012 Y6.389 E180.06916
G1 X25.949 Y6.787 E180.10183
G1 X25.565 Y6.868 E180.13364
G1 X25.384 Y6.591 E180.16047
G1 X25.078 Y6.061 E180.21008
G1 X24.836 Y5.575 E180.2541
G1 X24.499 Y4.785 E180.32373
G1 X23.304 Y4.91 E180.42114
G1 X23.156 Y5.685 E180.48511
G1 X23.004 Y6.283 E180.53513
G1 X22.837 Y6.802 E180.57933
G1 X22.695 Y7.17 E180.61131
G1 X22.304 Y7.17 E180.64301
G1 X22.179 Y6.849 E180.67093
G1 X21.995 Y6.283 E180.71918
G1 X21.856 Y5.742 E180.76447
G1 X21.694 Y4.91 E180.83319
G0 F12000 X22.331 Y4.785
G0 X22.24 Y4.313
; TYPE:WALL-INNER
G1 F900 X20.089 Y4.088 E181.00852
G0 F12000 X19.834 Y4.033
G1 F900 X19.813 Y4.13 E181.01657
G1 X19.561 Y5.322 E181.11534
G0 F12000 X19.579 Y3.979
G1 F900 X17.524 Y3.312 E181.2905
G0 F12000 X17.287 Y3.206
G1 F900 X17.247 Y3.295 E181.29841
G1 X16.752 Y4.408 E181.39716
G0 F12000 X17.051 Y3.1
G1 F900 X15.177 Y2.019 E181.57256
G0 F12000 X14.967 Y1.866
G1 F900 X14.909 Y1.946 E181.58057
G1 X14.195 Y2.931 E181.6792
G0 F12000 X14.757 Y1.713
G1 F900 X13.15 Y0.265 E181.85457
G0 F12000 X12.976 Y0.073
G1 F900 X12.904 Y0.139 E181.86248
G1 X12 Y0.954 E181.96116
G0 F12000 X12.803 Y-0.119
G1 F900 X11.533 Y-1.866 E182.13626
G0 F12000 X11.402 Y-2.092
G1 F900 X11.317 Y-2.042 E182.14426
G1 X10.266 Y-1.436 E182.24261
G0 F12000 X11.272 Y-2.318
G1 F900 X10.393 Y-4.292 E182.4178
G0 F12000 X10.312 Y-4.539
G1 F900 X10.218 Y-4.509 E182.4258
G1 X9.062 Y-4.133 E182.52435
G0 F12000 X10.232 Y-4.787
G1 F900 X9.784 Y-6.902 E182.69962
G0 F12000 X9.756 Y-7.16
G1 F900 X9.658 Y-7.149 E182.70761
G1 X8.446 Y-7.021 E182.80642
G0 F12000 X9.729 Y-7.419
G1 F900 X9.729 Y-9.579 E182.98153
G0 F12000 X9.757 Y-9.837
G1 F900 X9.659 Y-9.847 E182.98952
G1 X8.449 Y-9.975 E183.08816
G0 F12000 X9.785 Y-10.096
G1 F900 X10.232 Y-12.21 E183.26334
G0 F12000 X10.313 Y-12.457
G1 F900 X10.218 Y-12.488 E183.27144
G1 X9.063 Y-12.864 E183.36991
G0 F12000 X10.394 Y-12.705
G1 F900 X11.273 Y-14.68 E183.54517
G0 F12000 X11.403 Y-14.905
G1 F900 X11.318 Y-14.954 E183.55313
G1 X10.264 Y-15.563 E183.65181
G0 F12000 X11.534 Y-15.131
G1 F900 X12.804 Y-16.879 E183.82698
G0 F12000 X12.978 Y-17.071
G1 F900 X12.905 Y-17.137 E183.83496
G1 X12 Y-17.953 E183.93375
G0 F12000 X13.152 Y-17.264
G1 F900 X14.759 Y-18.712 E184.10912
G0 F12000 X14.969 Y-18.864
G1 F900 X14.91 Y-18.944 E184.11718
G1 X14.196 Y-19.928 E184.21574
G0 F12000 X15.179 Y-19.017
G1 F900 X17.052 Y-20.097 E184.39102
G0 F12000 X17.29 Y-20.203
G1 F900 X17.249 Y-20.294 E184.39911
G1 X16.754 Y-21.403 E184.49757
G0 F12000 X17.528 Y-20.31
G1 F900 X19.58 Y-20.976 E184.67247
G0 F12000 X19.835 Y-21.03
G1 F900 X19.815 Y-21.128 E184.68058
G1 X19.563 Y-22.318 E184.7792
G0 F12000 X19.576 Y-22.289
G0 X20.091 Y-21.085
G1 F900 X22.242 Y-21.311 E184.95454
G0 F12000 X22.5 Y-21.31
G1 F900 X22.499 Y-21.408 E184.96249
G1 X22.5 Y-22.63 E185.06156
G0 F12000 X22.759 Y-21.31
G1 F900 X24.91 Y-21.085 E185.23689
G0 F12000 X25.165 Y-21.03
G1 F900 X25.185 Y-21.127 E185.24492
G1 X25.438 Y-22.319 E185.34371
G0 F12000 X25.42 Y-20.976
G1 F900 X27.474 Y-20.309 E185.51879
G0 F12000 X27.711 Y-20.203
G1 F900 X27.751 Y-20.293 E185.52678
G1 X28.246 Y-21.403 E185.62531
G0 F12000 X27.948 Y-20.097
G1 F900 X29.822 Y-19.016 E185.8007
G0 F12000 X30.031 Y-18.863
G1 F900 X30.089 Y-18.942 E185.80865
G1 X30.805 Y-19.928 E185.90744
G0 F12000 X30.241 Y-18.711
G1 F900 X31.849 Y-17.262 E186.08292
G0 F12000 X32.022 Y-17.069
G1 F900 X32.095 Y-17.135 E186.0909
G1 X33 Y-17.951 E186.18969
G0 F12000 X32.196 Y-16.877
G1 F900 X33.466 Y-15.13 E186.36479
G0 F12000 X33.596 Y-14.903
G1 F900 X33.682 Y-14.953 E186.37286
G1 X34.735 Y-15.561 E186.47143
G0 F12000 X33.727 Y-14.677
G1 F900 X34.606 Y-12.703 E186.64662
G0 F12000 X34.686 Y-12.455
G1 F900 X34.781 Y-12.486 E186.65472
G1 X35.937 Y-12.862 E186.75327
G0 F12000 X34.767 Y-12.208
G1 F900 X35.215 Y-10.094 E186.92846
G0 F12000 X35.242 Y-9.835
G1 F900 X35.34 Y-9.846 E186.93646
G1 X36.551 Y-9.973 E187.03517
G0 F12000 X35.27 Y-9.577
G1 F900 X35.27 Y-7.417 E187.21029
G0 F12000 X35.242 Y-7.158
G1 F900 X35.34 Y-7.148 E187.21827
G1 X36.553 Y-7.019 E187.31717
G0 F12000 X35.215 Y-6.9
G1 F900 X34.767 Y-4.785 E187.49244
G0 F12000 X34.686 Y-4.537
G1 F900 X34.78 Y-4.507 E187.50044
G1 X35.936 Y-4.131 E187.59899
G0 F12000 X34.605 Y-4.29
G1 F900 X33.725 Y-2.315 E187.77428
G0 F12000 X33.595 Y-2.09
G1 F900 X33.681 Y-2.041 E187.78231
G1 X34.734 Y-1.434 E187.88084
G0 F12000 X33.465 Y-1.865
G1 F900 X32.194 Y-0.117 E188.05606
G0 F12000 X32.02 Y0.075
G1 F900 X32.093 Y0.14 E188.06398
G1 X32.999 Y0.956 E188.16283
G0 F12000 X31.847 Y0.267
G1 F900 X30.24 Y1.715 E188.3382
G0 F12000 X30.03 Y1.867
G1 F900 X30.088 Y1.946 E188.34615
G1 X30.804 Y2.931 E188.44487
G0 F12000 X29.82 Y2.02
G1 F900 X27.947 Y3.1 E188.62015
G0 F12000 X27.709 Y3.206
G1 F900 X27.749 Y3.297 E188.62821
G1 X28.245 Y4.407 E188.72678
G0 F12000 X27.472 Y3.313
G1 F900 X25.417 Y3.979 E188.90191
G0 F12000 X25.162 Y4.033
G1 F900 X25.183 Y4.13 E188.90996
G1 X25.437 Y5.323 E189.00884
G0 F12000 X24.908 Y4.088
G1 F900 X22.757 Y4.314 E189.18419
G0 F12000 X22.498 Y4.313
G1 F900 X22.499 Y4.411 E189.19213
G1 X22.499 Y5.633 E189.2912
G0 F12000 X22.498 Y3.687
G1 F900 X19.97 Y3.422 E189.49727
G1 X17.548 Y2.636 E189.70371
G1 X15.335 Y1.359 E189.91085
G1 X13.44 Y-0.348 E190.11762
G1 X11.945 Y-2.405 E190.32378
G1 X10.908 Y-4.733 E190.53039
G1 X10.379 Y-7.23 E190.73732
G1 X10.379 Y-9.766 E190.94291
G1 X10.906 Y-12.259 E191.14949
G1 X11.946 Y-14.592 E191.35657
G1 X13.441 Y-16.649 E191.56273
G1 X15.338 Y-18.358 E191.76973
G1 X17.549 Y-19.633 E191.97665
G1 X19.97 Y-20.419 E192.18301
G1 X22.501 Y-20.684 E192.38932
G1 X25.029 Y-20.419 E192.59539
G1 X27.454 Y-19.632 E192.80208
G1 X29.661 Y-18.358 E193.00868
G1 X31.557 Y-16.651 E193.21551
G1 X33.053 Y-14.593 E193.42178
G1 X34.091 Y-12.262 E193.62865
G1 X34.62 Y-9.766 E193.8355
G1 X34.62 Y-7.231 E194.04101
G1 X34.092 Y-4.736 E194.24777
G1 X33.055 Y-2.407 E194.45445
G1 X31.56 Y-0.349 E194.66068
G1 X29.663 Y1.36 E194.86767
G1 X27.449 Y2.637 E195.07488
G1 X25.03 Y3.422 E195.28106
G1 X22.498 Y3.687 E195.48746
G1 F6000 E192.98746
G0 F900 X25.03 Y3.422
G0 X27.449 Y2.637
G0 X29.663 Y1.36
G0 X31.414 Y-0.217
G1 Z0.8
G0 F12000 X22.314 Y-3.527
G0 X22.371 Y-4.174
; TYPE:WALL-OUTER
G1 Z0.3
G1 F6000 E195.48746
G1 F900 X22.884 Y-4.189 E195.52907
G1 X23.39 Y-4.264 E195.57054
G1 X23.885 Y-4.4 E195.61215
G1 X24.36 Y-4.592 E195.65369
G1 X24.809 Y-4.84 E195.69527
G1 X25.225 Y-5.138 E195.73676
G1 X25.604 Y-5.484 E195.77836
G1 X25.938 Y-5.872 E195.81987
G1 X26.224 Y-6.298 E195.86147
G1 X26.458 Y-6.754 E195.90302
G1 X26.636 Y-7.234 E195.94452
G1 X26.756 Y-7.733 E195.98613
G1 X26.817 Y-8.241 E196.02761
G1 X26.817 Y-8.753 E196.06912
G1 X26.756 Y-9.262 E196.11068
G1 X26.636 Y-9.761 E196.15229
G1 X26.458 Y-10.241 E196.19379
G1 X26.224 Y-10.697 E196.23535
G1 X25.938 Y-11.123 E196.27694
G1 X25.604 Y-11.511 E196.31845
G1 X25.225 Y-11.857 E196.36005
G1 X24.809 Y-12.155 E196.40154
G1 X24.36 Y-12.403 E196.44312
G1 X23.885 Y-12.595 E196.48466
G1 X23.39 Y-12.731 E196.52628
G1 X22.884 Y-12.806 E196.56775
G1 X22.371 Y-12.821 E196.60936
G1 X21.861 Y-12.776 E196.65086
G1 X21.359 Y-12.67 E196.69246
G1 X20.874 Y-12.506 E196.73396
G1 X20.411 Y-12.285 E196.77556
G1 X19.978 Y-12.012 E196.81706
G1 X19.581 Y-11.689 E196.85855
G1 X19.222 Y-11.322 E196.90017
G1 X18.912 Y-10.914 E196.94171
G1 X18.651 Y-10.473 E196.98326
G1 X18.445 Y-10.004 E197.02479
G1 X18.295 Y-9.513 E197.06641
G1 X18.205 Y-9.009 E197.10791
G1 X18.174 Y-8.497 E197.1495
G1 X18.205 Y-7.986 E197.191
G1 X18.295 Y-7.482 E197.23251
G1 X18.445 Y-6.991 E197.27413
G1 X18.651 Y-6.522 E197.31566
G1 X18.912 Y-6.081 E197.3572
G1 X19.222 Y-5.673 E197.39875
G1 X19.58 Y-5.306 E197.44031
G1 X19.978 Y-4.982 E197.48192
G1 X20.411 Y-4.71 E197.52337
G1 X20.874 Y-4.489 E197.56497
G1 X21.359 Y-4.325 E197.60647
G1 X21.861 Y-4.219 E197.64807
G1 X22.371 Y-4.174 E197.68958
G0 F12000 X22.314 Y-3.527
G0 X22.352 Y-3.523
; TYPE:WALL-INNER
G1 F900 X22.942 Y-3.54 E197.73743
G1 X23.524 Y-3.627 E197.78514
G1 X24.094 Y-3.783 E197.83305
G1 X24.64 Y-4.004 E197.8808
G1 X25.156 Y-4.289 E197.92859
G1 X25.635 Y-4.632 E197.97635
G1 X26.071 Y-5.031 E198.02427
G1 X26.455 Y-5.477 E198.07198
G1 X26.785 Y-5.967 E198.11987
G1 X27.054 Y-6.492 E198.1677
G1 X27.259 Y-7.044 E198.21544
G1 X27.397 Y-7.618 E198.2633
G1 X27.467 Y-8.202 E198.31098
G1 X27.467 Y-8.792 E198.35881
G1 X27.397 Y-9.377 E198.40658
G1 X27.259 Y-9.951 E198.45444
G1 X27.054 Y-10.503 E198.50218
G1 X26.785 Y-11.028 E198.55
G1 X26.455 Y-11.518 E198.5979
G1 X26.071 Y-11.964 E198.64561
G1 X25.635 Y-12.363 E198.69352
G1 X25.156 Y-12.706 E198.74129
G1 X24.64 Y-12.991 E198.78908
G1 X24.094 Y-13.212 E198.83683
G1 X23.524 Y-13.368 E198.88474
G1 X22.942 Y-13.455 E198.93245
G1 X22.352 Y-13.472 E198.9803
G1 X21.765 Y-13.42 E199.02808
G1 X21.187 Y-13.298 E199.07597
G1 X20.629 Y-13.109 E199.12373
G1 X20.096 Y-12.855 E199.1716
G1 X19.599 Y-12.541 E199.21926
G1 X19.142 Y-12.17 E199.26698
G1 X18.729 Y-11.747 E199.31491
G1 X18.372 Y-11.277 E199.36276
G1 X18.072 Y-10.77 E199.41052
G1 X17.835 Y-10.231 E199.45825
G1 X17.662 Y-9.666 E199.50616
G1 X17.558 Y-9.086 E199.55393
G1 X17.523 Y-8.497 E199.60176
G1 X17.558 Y-7.909 E199.64952
G1 X17.662 Y-7.329 E199.69729
G1 X17.835 Y-6.764 E199.74519
G1 X18.072 Y-6.225 E199.79293
G1 X18.372 Y-5.718 E199.84069
G1 X18.729 Y-5.248 E199.88854
G1 X19.141 Y-4.825 E199.93641
G1 X19.599 Y-4.453 E199.98425
G1 X20.097 Y-4.14 E200.03193
G1 X20.629 Y-3.886 E200.07973
G1 X21.187 Y-3.697 E200.12749
G1 X21.765 Y-3.575 E200.17538
G1 X22.352 Y-3.523 E200.22315
G0 F12000 X22.333 Y-2.872
G1 F900 X23 Y-2.892 E200.27725
G1 X23.658 Y-2.99 E200.33119
G1 X24.302 Y-3.166 E200.38531
G1 X24.92 Y-3.416 E200.43936
G1 X25.504 Y-3.739 E200.49346
G1 X26.045 Y-4.127 E200.54744
G1 X26.538 Y-4.577 E200.60155
G1 X26.973 Y-5.082 E200.65559
G1 X27.346 Y-5.636 E200.70973
G1 X27.65 Y-6.23 E200.76383
G1 X27.882 Y-6.854 E200.8178
G1 X28.038 Y-7.503 E200.87192
G1 X28.117 Y-8.164 E200.92589
G1 X28.117 Y-8.83 E200.97988
G1 X28.038 Y-9.492 E201.03393
G1 X27.882 Y-10.141 E201.08804
G1 X27.65 Y-10.765 E201.14202
G1 X27.346 Y-11.359 E201.19611
G1 X26.973 Y-11.913 E201.25026
G1 X26.538 Y-12.418 E201.30429
G1 X26.045 Y-12.868 E201.35841
G1 X25.504 Y-13.256 E201.41238
G1 X24.92 Y-13.579 E201.46649
G1 X24.302 Y-13.829 E201.52053
G1 X23.658 Y-14.005 E201.57466
G1 X23 Y-14.103 E201.62859
G1 X22.333 Y-14.123 E201.68269
G1 X21.668 Y-14.064 E201.73681
G1 X21.015 Y-13.926 E201.79092
G1 X20.384 Y-13.712 E201.84494
G1 X19.781 Y-13.425 E201.89908
G1 X19.219 Y-13.07 E201.95297
G1 X18.703 Y-12.651 E202.00686
G1 X18.236 Y-12.172 E202.0611
G1 X17.831 Y-11.64 E202.1153
G1 X17.493 Y-11.067 E202.16924
G1 X17.224 Y-10.458 E202.22321
G1 X17.029 Y-9.819 E202.27737
G1 X16.911 Y-9.162 E202.33149
G1 X16.872 Y-8.497 E202.38549
G1 X16.911 Y-7.833 E202.43942
G1 X17.029 Y-7.176 E202.49354
G1 X17.224 Y-6.537 E202.5477
G1 X17.493 Y-5.928 E202.60167
G1 X17.831 Y-5.355 E202.65561
G1 X18.236 Y-4.823 E202.70981
G1 X18.702 Y-4.345 E202.76393
G1 X19.219 Y-3.924 E202.81799
G1 X19.783 Y-3.569 E202.87201
G1 X20.384 Y-3.283 E202.92597
G1 X21.015 Y-3.069 E202.97999
G1 X21.668 Y-2.931 E203.0341
G1 X22.333 Y-2.872 E203.08823
G1 F6000 E200.58823
G0 F900 X21.668 Y-2.931
G0 X21.015 Y-3.069
G0 X20.384 Y-3.283
G0 X19.783 Y-3.569
G0 X19.219 Y-3.924
G0 X18.702 Y-4.345
G0 X18.236 Y-4.823
G0 X17.831 Y-5.355
G0 X17.493 Y-5.928
G0 X17.224 Y-6.537
G0 X17.029 Y-7.176
G0 X16.911 Y-7.833
G0 X16.872 Y-8.497
G0 X16.911 Y-9.162
G0 X17.029 Y-9.819
G0 X17.03 Y-9.823
G1 Z0.8
G0 F12000 X22.499 Y5.633
G0 X22.562 Y6.071
; TYPE:FILL
G1 Z0.3
G1 F6000 E203.08823
G1 F900 X22.591 Y6.459 E203.11875
G1 X22.517 Y6.491 E203.12006
G1 X22.448 Y6.329 E203.14187
G1 X22.42 Y6.526 E203.14983
G1 X22.401 Y6.468 E203.15412
G1 X22.415 Y6.521 E203.16046
G1 X22.394 Y6.459 E203.16393
G0 F12000 X22.499 Y5.633
G0 X22.24 Y4.313
G0 X20.089 Y4.088
G0 X19.561 Y5.322
G0 X19.486 Y6.163
G1 F900 X19.473 Y6.167 E203.16622
G1 X19.473 Y5.844 E203.19676
G1 X19.313 Y6.172 E203.21829
G1 X19.306 Y6.106 E203.22538
G1 X19.294 Y6.186 E203.23194
G1 X19.287 Y6.12 E203.23544
G1 X19.292 Y6.165 E203.23784
G0 F12000 X19.561 Y5.322
G0 X19.579 Y3.979
G0 X17.524 Y3.312
G0 X16.752 Y4.408
G0 X16.499 Y5.222
G1 F900 X16.489 Y5.216 E203.23956
G1 X16.557 Y4.905 E203.27029
G1 X16.329 Y5.176 E203.29061
G1 X16.321 Y5.139 E203.29392
G1 X16.314 Y5.208 E203.2997
G1 X16.334 Y5.135 E203.30714
G1 X16.311 Y5.196 E203.31083
G0 F12000 X16.752 Y4.408
G0 X17.051 Y3.1
G0 X15.177 Y2.019
G0 X14.195 Y2.931
G0 X13.784 Y3.67
G1 F900 X13.772 Y3.665 E203.31286
G1 X13.992 Y3.297 E203.34328
G1 X14.162 Y3.01 E203.36737
G0 F12000 X14.195 Y2.931
G0 X13.786 Y3.075
G1 F900 X13.803 Y3.251 E203.36868
G1 X13.619 Y3.592 E203.39018
G1 X13.625 Y3.546 E203.39418
G1 X13.602 Y3.617 E203.40048
G1 X13.634 Y3.547 E203.40786
G1 X13.601 Y3.602 E203.41153
G0 F12000 X14.195 Y2.931
G0 X14.757 Y1.713
G0 X13.15 Y0.265
G0 X12 Y0.954
G0 X11.437 Y1.594
G1 F900 X11.428 Y1.588 E203.41372
G1 X11.624 Y1.324 E203.44506
G1 X11.296 Y1.486 E203.46664
G1 X11.309 Y1.445 E203.47021
G1 X11.275 Y1.504 E203.4758
G1 X11.32 Y1.446 E203.48281
G1 X11.277 Y1.495 E203.48664
G0 F12000 X12 Y0.954
G0 X12.803 Y-0.119
G0 X11.533 Y-1.866
G0 X10.266 Y-1.436
G0 X9.582 Y-0.925
G1 F900 X9.576 Y-0.933 E203.48859
G1 X9.936 Y-1.181 E203.51978
G1 X10.205 Y-1.377 E203.54452
G0 F12000 X10.266 Y-1.436
G0 X9.83 Y-1.459
G1 F900 X9.775 Y-1.302 E203.54491
G1 X9.462 Y-1.049 E203.56575
G1 X9.503 Y-1.094 E203.57307
G1 X9.439 Y-1.051 E203.57874
G1 X9.476 Y-1.09 E203.58186
G0 F12000 X10.266 Y-1.436
G0 X11.272 Y-2.318
G0 X10.393 Y-4.292
G0 X9.062 Y-4.133
G0 X8.275 Y-3.776
G1 F900 X8.223 Y-3.847 E203.58518
G1 X8.471 Y-3.939 E203.60636
G1 X8.717 Y-3.972 E203.6175
G0 F12000 X9.062 Y-4.133
G0 X8.264 Y-3.957
G1 F900 X8.181 Y-3.926 E203.62484
G1 X8.227 Y-3.959 E203.62877
G1 X8.182 Y-3.932 E203.63474
G1 X8.233 Y-3.97 E203.6381
G1 F6000 E201.1381
G0 F900 X8.182 Y-3.932
G0 X8.227 Y-3.959
G0 X8.181 Y-3.926
G0 X8.264 Y-3.957
G0 X9.062 Y-4.133
G0 X8.717 Y-3.972
G0 X8.471 Y-3.939
G0 X8.223 Y-3.847
G0 X8.275 Y-3.776
G0 X9.062 Y-4.133
G0 X10.393 Y-4.292
G0 X11.272 Y-2.318
G0 X10.266 Y-1.436
G0 X9.476 Y-1.09
G0 X9.439 Y-1.051
G0 X9.503 Y-1.094
G0 X9.462 Y-1.049
G0 X9.775 Y-1.302
G0 X9.83 Y-1.459
G0 X10.266 Y-1.436
G0 X10.205 Y-1.377
G0 X10.122 Y-1.317
G1 Z0.8
G0 F12000 X9.062 Y-4.133
G0 X10.232 Y-4.787
G0 X9.784 Y-6.902
G0 X8.446 Y-7.021
G0 X7.616 Y-6.833
G1 Z0.3
G1 F6000 E203.6381
G1 F900 X7.623 Y-6.842 E203.63911
G1 X8.045 Y-6.924 E203.66956
G1 X8.367 Y-6.991 E203.6936
G0 F12000 X8.446 Y-7.021
G0 X8.068 Y-7.227
G1 F900 X7.952 Y-7.097 E203.69456
G1 X7.561 Y-6.995 E203.71593
G1 X7.622 Y-7.022 E203.72428
G1 X7.538 Y-7.004 E203.73017
G1 X7.595 Y-7.03 E203.73389
G0 F12000 X8.446 Y-7.021
G0 X9.729 Y-7.419
G0 X9.729 Y-9.579
G0 X8.449 Y-9.975
G0 X7.594 Y-9.965
G1 F900 X7.599 Y-9.973 E203.73534
G1 X7.924 Y-10.004 E203.76673
G1 X7.573 Y-10.134 E203.78774
G1 X7.634 Y-10.147 E203.79548
G1 X7.554 Y-10.147 E203.80091
G1 X7.611 Y-10.159 E203.80437
G0 F12000 X8.449 Y-9.975
G0 X9.785 Y-10.096
G0 X10.232 Y-12.21
G0 X9.063 Y-12.864
G0 X8.225 Y-13.032
G1 F900 X8.228 Y-13.117 E203.80607
G1 X8.468 Y-13.056 E203.82686
G1 X8.687 Y-12.936 E203.83807
G0 F12000 X9.063 Y-12.864
G0 X8.312 Y-13.191
G1 F900 X8.228 Y-13.216 E203.84533
G1 X8.282 Y-13.215 E203.84914
G1 X8.216 Y-13.219 E203.85316
G0 F12000 X9.063 Y-12.864
G0 X10.394 Y-12.705
G0 X11.273 Y-14.68
G0 X10.264 Y-15.563
G0 X9.479 Y-15.902
G1 F900 X9.486 Y-15.906 E203.85447
G1 X9.797 Y-15.803 E203.88581
G1 X9.542 Y-16.065 E203.90724
G1 X9.58 Y-16.068 E203.91033
G1 X9.515 Y-16.082 E203.91588
G1 X9.588 Y-16.054 E203.92359
G1 X9.52 Y-16.084 E203.92805
G0 F12000 X10.264 Y-15.563
G0 X11.534 Y-15.131
G0 X12.804 Y-16.879
G0 X12 Y-17.953
G0 X11.305 Y-18.443
G1 F900 X11.307 Y-18.456 E203.93043
G1 X11.594 Y-18.285 E203.9621
G1 X11.394 Y-18.598 E203.98434
G1 X11.443 Y-18.584 E203.98871
G1 X11.376 Y-18.614 E203.99467
G1 X11.441 Y-18.577 E204.00154
G1 X11.389 Y-18.614 E204.00523
G0 F12000 X12 Y-17.953
G0 X13.152 Y-17.264
G0 X14.759 Y-18.712
G0 X14.196 Y-19.928
G0 X13.614 Y-20.563
G1 F900 X13.667 Y-20.625 E204.00654
G1 X13.825 Y-20.435 E204.02753
G1 X13.934 Y-20.205 E204.0388
G0 F12000 X14.196 Y-19.928
G0 X13.779 Y-20.635
G1 F900 X13.721 Y-20.708 E204.04642
G1 X13.768 Y-20.673 E204.05068
G1 X13.716 Y-20.715 E204.0547
G0 F12000 X14.196 Y-19.928
G0 X15.179 Y-19.017
G0 X17.052 Y-20.097
G0 X16.754 Y-21.403
G0 X16.318 Y-22.141
G1 F900 X16.327 Y-22.143 E204.05628
G1 X16.515 Y-21.879 E204.08749
G1 X16.452 Y-22.244 E204.10865
G1 X16.494 Y-22.197 E204.11602
G1 X16.455 Y-22.266 E204.1218
G1 X16.493 Y-22.224 E204.12506
G0 F12000 X16.754 Y-21.403
G0 X17.528 Y-20.31
G0 X19.561 Y-20.97
G0 X19.576 Y-22.289
G0 X19.289 Y-23.129
G1 F900 X19.297 Y-23.134 E204.1271
G1 X19.429 Y-22.83 E204.15847
G1 X19.451 Y-23.198 E204.18054
G1 X19.482 Y-23.161 E204.1847
G1 X19.446 Y-23.223 E204.19059
G1 X19.477 Y-23.152 E204.19776
G1 X19.454 Y-23.218 E204.20181
G1 F6000 E201.70181
G0 F900 X19.477 Y-23.152
G0 X19.446 Y-23.223
G0 X19.482 Y-23.161
G0 X19.451 Y-23.198
G0 X19.429 Y-22.83
G0 X19.297 Y-23.134
G0 X19.289 Y-23.129
G0 X19.576 Y-22.289
G0 X19.561 Y-20.97
G0 X17.528 Y-20.31
G0 X16.754 Y-21.403
G0 X16.493 Y-22.224
G0 X16.455 Y-22.266
G0 X16.494 Y-22.197
G0 X16.452 Y-22.244
G0 X16.515 Y-21.879
G0 X16.327 Y-22.143
G0 X16.318 Y-22.141
G0 X16.754 Y-21.403
G0 X16.915 Y-20.695
G1 Z0.8
G0 F12000 X19.576 Y-22.289
G0 X20.091 Y-21.085
G0 X22.242 Y-21.311
G0 X22.5 Y-22.63
G0 X22.401 Y-23.472
G1 Z0.3
G1 F6000 E204.20181
G1 F900 X22.409 Y-23.466 E204.20318
G1 X22.446 Y-23.039 E204.2336
G1 X22.49 Y-23.212 E204.25253
G1 X22.52 Y-22.762 E204.27435
G0 F12000 X22.5 Y-22.63
G0 X22.6 Y-23.468
G1 F900 X22.589 Y-23.501 E204.2762
G0 F12000 X22.5 Y-22.63
G0 X22.759 Y-21.31
G0 X24.91 Y-21.085
G0 X25.438 Y-22.319
G0 X25.516 Y-23.166
G1 F900 X25.529 Y-23.172 E204.27868
G1 X25.527 Y-22.851 E204.30939
G1 X25.686 Y-23.176 E204.33042
G1 X25.693 Y-23.113 E204.33711
G1 X25.703 Y-23.189 E204.3434
G1 X25.709 Y-23.137 E204.34622
G0 F12000 X25.438 Y-22.319
G0 X25.42 Y-20.976
G0 X27.474 Y-20.309
G0 X28.246 Y-21.403
G0 X28.494 Y-22.21
G1 F900 X28.506 Y-22.209 E204.34874
G1 X28.441 Y-21.897 E204.37951
G1 X28.669 Y-22.165 E204.39926
G1 X28.677 Y-22.136 E204.40186
G1 X28.683 Y-22.195 E204.40675
G1 X28.665 Y-22.131 E204.41335
G1 X28.687 Y-22.183 E204.41669
G0 F12000 X28.246 Y-21.403
G0 X28.616 Y-21.639
G1 F900 X28.612 Y-21.635 E204.41698
G0 F12000 X28.246 Y-21.403
G0 X27.948 Y-20.097
G0 X29.822 Y-19.016
G0 X30.805 Y-19.928
G0 X30.988 Y-20.262
G1 F900 X31.168 Y-20.429 E204.43655
G1 X31.381 Y-20.592 E204.45722
G1 X31.379 Y-20.555 E204.46023
G1 X31.399 Y-20.615 E204.46543
G1 X31.367 Y-20.553 E204.47232
G1 X31.321 Y-20.647 E204.47591
G1 X31.221 Y-20.669 E204.48118
G0 F12000 X30.805 Y-19.928
G0 X30.241 Y-18.711
G0 X31.849 Y-17.262
G0 X33 Y-17.951
G0 X33.564 Y-18.592
G1 F900 X33.572 Y-18.586 E204.48329
G1 X33.377 Y-18.323 E204.51469
G1 X33.707 Y-18.495 E204.53558
G1 X33.678 Y-18.445 E204.54256
G1 X33.726 Y-18.499 E204.5476
G1 X33.699 Y-18.453 E204.55078
G0 F12000 X33 Y-17.951
G0 X32.196 Y-16.877
G0 X33.466 Y-15.13
G0 X34.735 Y-15.561
G0 X35.422 Y-16.071
G1 F900 X35.425 Y-16.062 E204.55232
G1 X35.181 Y-15.846 E204.58362
G1 X35.538 Y-15.948 E204.60478
G1 X35.495 Y-15.9 E204.61229
G1 X35.561 Y-15.946 E204.61824
G1 X35.523 Y-15.904 E204.62145
G0 F12000 X34.735 Y-15.561
G0 X33.727 Y-14.677
G0 X34.606 Y-12.703
G0 X35.937 Y-12.862
G0 X36.712 Y-13.219
G1 F900 X36.76 Y-13.148 E204.62325
G1 X36.527 Y-13.055 E204.6444
G1 X36.281 Y-13.023 E204.65554
G0 F12000 X35.937 Y-12.862
G0 X36.735 Y-13.037
G1 F900 X36.817 Y-13.067 E204.66277
G1 X36.772 Y-13.035 E204.66659
G1 X36.816 Y-13.062 E204.6725
G1 X36.765 Y-13.025 E204.67582
G0 F12000 X35.937 Y-12.862
G0 X34.767 Y-12.208
G0 X35.215 Y-10.094
G0 X36.551 Y-9.973
G0 X37.377 Y-10.162
G1 F900 X37.379 Y-10.151 E204.6778
G1 X36.951 Y-10.071 E204.70886
G1 X36.634 Y-10.003 E204.733
G0 F12000 X36.551 Y-9.973
G0 X36.934 Y-9.772
G1 F900 X37.05 Y-9.894 E204.73332
G1 X37.436 Y-9.999 E204.75407
G1 X37.38 Y-9.974 E204.76132
G1 X37.456 Y-9.987 E204.76708
G1 X37.408 Y-9.966 E204.7701
G1 F6000 E202.2701
G0 F900 X37.456 Y-9.987
G0 X37.38 Y-9.974
G0 X37.436 Y-9.999
G0 X37.05 Y-9.894
G0 X36.934 Y-9.772
G0 X36.551 Y-9.973
G0 X36.634 Y-10.003
G0 X36.951 Y-10.071
G0 X37.379 Y-10.151
G0 X37.377 Y-10.162
G0 X36.551 Y-9.973
G0 X35.215 Y-10.094
G0 X34.767 Y-12.208
G0 X35.937 Y-12.862
G0 X36.765 Y-13.025
G0 X36.816 Y-13.062
G0 X36.772 Y-13.035
G0 X36.817 Y-13.067
G0 X36.735 Y-13.037
G0 X35.937 Y-12.862
G0 X36.253 Y-13.01
G1 Z0.8
G0 F12000 X36.551 Y-9.973
G0 X35.27 Y-9.577
G0 X35.27 Y-7.417
G0 X36.553 Y-7.019
G0 X37.401 Y-7.031
G1 Z0.3
G1 F6000 E204.7701
G1 F900 X37.398 Y-7.021 E204.77197
G1 X36.959 Y-7.033 E204.80324
G1 X36.636 Y-7.032 E204.82737
G0 F12000 X36.553 Y-7.019
G0 X36.88 Y-6.743
G1 F900 X37.021 Y-6.839 E204.82778
G1 X37.422 Y-6.859 E204.84861
G1 X37.364 Y-6.847 E204.85601
G1 X37.44 Y-6.845 E204.86136
G1 X37.388 Y-6.835 E204.8645
G0 F12000 X36.553 Y-7.019
G0 X35.215 Y-6.9
G0 X34.767 Y-4.785
G0 X35.936 Y-4.131
G0 X36.774 Y-3.963
G1 F900 X36.77 Y-3.877 E204.86629
G1 X36.53 Y-3.939 E204.88709
G1 X36.311 Y-4.059 E204.89831
G0 F12000 X35.936 Y-4.131
G0 X36.686 Y-3.803
G1 F900 X36.771 Y-3.779 E204.90562
G1 X36.716 Y-3.779 E204.90943
G1 X36.783 Y-3.776 E204.91351
G0 F12000 X35.936 Y-4.131
G0 X34.605 Y-4.29
G0 X33.725 Y-2.315
G0 X34.734 Y-1.434
G0 X35.519 Y-1.093
G1 F900 X35.512 Y-1.087 E204.91509
G1 X35.202 Y-1.19 E204.94658
G1 X35.455 Y-0.929 E204.96757
G1 X35.42 Y-0.925 E204.97043
G1 X35.483 Y-0.912 E204.97573
G1 X35.412 Y-0.939 E204.98336
G1 X35.477 Y-0.911 E204.98761
G0 F12000 X34.734 Y-1.434
G0 X33.465 Y-1.865
G0 X32.194 Y-0.117
G0 X32.999 Y0.956
G0 X33.694 Y1.446
G1 F900 X33.692 Y1.459 E204.98999
G1 X33.404 Y1.288 E205.02182
G1 X33.614 Y1.601 E205.04406
G1 X33.555 Y1.574 E205.05096
G1 X33.617 Y1.619 E205.057
G1 X33.558 Y1.593 E205.06091
G1 X33.599 Y1.612 E205.0634
G0 F12000 X32.999 Y0.956
G0 X31.847 Y0.267
G0 X30.24 Y1.715
G0 X30.804 Y2.931
G0 X31.383 Y3.563
G1 F900 X31.374 Y3.564 E205.06462
G1 X31.132 Y3.343 E205.09597
G1 X31.26 Y3.686 E205.11753
G1 X31.22 Y3.671 E205.12107
G1 X31.278 Y3.713 E205.12696
G1 X31.22 Y3.657 E205.13471
G1 X31.27 Y3.711 E205.139
G0 F12000 X30.804 Y2.931
G0 X29.82 Y2.02
G0 X27.947 Y3.1
G0 X28.245 Y4.407
G0 X28.681 Y5.145
G1 F900 X28.671 Y5.145 E205.14029
G1 X28.482 Y4.881 E205.17139
G1 X28.534 Y5.24 E205.19275
G1 X28.499 Y5.217 E205.19631
G1 X28.547 Y5.27 E205.20226
G1 X28.503 Y5.203 E205.20997
G1 X28.538 Y5.266 E205.21415
G0 F12000 X28.245 Y4.407
G0 X27.472 Y3.313
G0 X25.417 Y3.979
G0 X25.437 Y5.323
G0 X25.71 Y6.127
G1 F900 X25.699 Y6.128 E205.21586
G1 X25.569 Y5.831 E205.24675
G1 X25.544 Y6.191 E205.26795
G1 X25.515 Y6.162 E205.27144
G1 X25.551 Y6.223 E205.27726
G1 X25.522 Y6.151 E205.28486
G1 X25.542 Y6.216 E205.2888
G0 F12000 X25.437 Y5.323
G0 X25.417 Y3.979
G0 X26.268 Y2.599
; TYPE:BOTTOM-FILL
G1 F900 X18.733 Y2.599 E205.89968
G0 F12000 X17.16 Y1.949
G1 F900 X27.84 Y1.949 E206.76552
G0 F12000 X28.966 Y1.299
G1 F900 X16.034 Y1.299 E207.81394
G0 F12000 X15.145 Y0.649
G1 F900 X29.854 Y0.649 E209.00642
G0 F12000 X30.576 Y0
G1 F900 X14.423 Y0 E210.31597
G0 F12000 X13.714 Y-0.65
G1 F900 X31.285 Y-0.65 E211.74048
G0 F12000 X31.757 Y-1.3
G1 F900 X13.242 Y-1.3 E213.24152
G0 F12000 X12.769 Y-1.95
G1 F900 X32.23 Y-1.95 E214.81925
G0 F12000 X32.702 Y-2.6
G1 F900 X23.75 Y-2.6 E215.54501
G0 F12000 X25.447 Y-3.25
G1 F900 X32.993 Y-3.25 E216.15677
G0 F12000 X33.283 Y-3.9
G1 F900 X26.39 Y-3.9 E216.7156
G0 F12000 X27.044 Y-4.55
G1 F900 X33.572 Y-4.55 E217.24483
G0 F12000 X33.781 Y-5.2
G1 F900 X27.536 Y-5.2 E217.75113
G0 F12000 X27.905 Y-5.85
G1 F900 X33.919 Y-5.85 E218.23869
G0 F12000 X34.056 Y-6.5
G1 F900 X28.178 Y-6.5 E218.71523
G0 F12000 X28.365 Y-7.15
G1 F900 X34.194 Y-7.15 E219.1878
G0 F12000 X34.22 Y-7.8
G1 F900 X28.477 Y-7.8 E219.65339
G0 F12000 X28.517 Y-8.45
G1 F900 X34.22 Y-8.45 E220.11574
G0 F12000 X34.22 Y-9.1
G1 F900 X28.488 Y-9.1 E220.58044
G0 F12000 X28.388 Y-9.75
G1 F900 X34.214 Y-9.75 E221.05277
G0 F12000 X34.076 Y-10.4
G1 F900 X28.212 Y-10.4 E221.52817
G0 F12000 X27.953 Y-11.05
G1 F900 X33.939 Y-11.05 E222.01346
G0 F12000 X33.801 Y-11.7
G1 F900 X27.599 Y-11.7 E222.51627
G0 F12000 X27.124 Y-12.35
G1 F900 X33.614 Y-12.35 E223.04242
G0 F12000 X33.324 Y-13
G1 F900 X26.492 Y-13 E223.59631
G0 F12000 X25.614 Y-13.65
G1 F900 X33.035 Y-13.65 E224.19794
G0 F12000 X32.746 Y-14.3
G1 F900 X24.092 Y-14.3 E224.89953
G0 F12000 X20.877 Y-14.3
G1 F900 X12.254 Y-14.3 E225.59861
G0 F12000 X11.964 Y-13.65
G1 F900 X19.39 Y-13.65 E226.20065
G0 F12000 X18.499 Y-13
G1 F900 X11.674 Y-13 E226.75396
G0 F12000 X11.385 Y-12.35
G1 F900 X17.869 Y-12.35 E227.27963
G0 F12000 X17.403 Y-11.7
G1 F900 X11.197 Y-11.7 E227.78276
G0 F12000 X11.059 Y-11.05
G1 F900 X17.049 Y-11.05 E228.26838
G0 F12000 X16.789 Y-10.4
G1 F900 X10.922 Y-10.4 E228.74403
G0 F12000 X10.784 Y-9.75
G1 F900 X16.61 Y-9.75 E229.21635
G0 F12000 X16.507 Y-9.1
G1 F900 X10.779 Y-9.1 E229.68073
G0 F12000 X10.779 Y-8.45
G1 F900 X16.475 Y-8.45 E230.14251
G0 F12000 X16.512 Y-7.8
G1 F900 X10.779 Y-7.8 E230.60729
G0 F12000 X10.805 Y-7.15
G1 F900 X16.627 Y-7.15 E231.07929
G0 F12000 X16.817 Y-6.5
G1 F900 X10.943 Y-6.5 E231.55551
G0 F12000 X11.08 Y-5.85
G1 F900 X17.09 Y-5.85 E232.04275
G0 F12000 X17.457 Y-5.2
G1 F900 X11.218 Y-5.2 E232.54855
G0 F12000 X11.427 Y-4.55
G1 F900 X17.944 Y-4.55 E233.0769
G0 F12000 X18.615 Y-3.9
G1 F900 X11.716 Y-3.9 E233.63621
G0 F12000 X12.006 Y-3.25
G1 F900 X19.539 Y-3.25 E234.24692
G0 F12000 X21.298 Y-2.6
G1 F900 X12.297 Y-2.6 E234.97665
G1 F6000 E232.47665
G0 F900 X21.298 Y-2.6
G0 X20.361 Y-2.946
G1 Z0.8
G0 F12000 X22.164 Y3.249
G1 Z0.3
G1 F6000 E234.97665
G1 F900 X22.833 Y3.249 E235.03088
G0 F12000 X32.299 Y-14.95
G1 F900 X12.7 Y-14.95 E236.61981
G0 F12000 X13.172 Y-15.6
G1 F900 X31.826 Y-15.6 E238.13212
G0 F12000 X31.353 Y-16.25
G1 F900 X13.645 Y-16.25 E239.56773
G0 F12000 X14.316 Y-16.9
G1 F900 X30.682 Y-16.9 E240.89455
G0 F12000 X29.96 Y-17.55
G1 F900 X15.038 Y-17.55 E242.1043
G0 F12000 X15.864 Y-18.2
G1 F900 X29.134 Y-18.2 E243.18012
G0 F12000 X28.008 Y-18.85
G1 F900 X16.992 Y-18.85 E244.0732
G0 F12000 X18.434 Y-19.5
G1 F900 X26.565 Y-19.5 E244.7324
G0 F12000 X23.761 Y-20.15
G1 F900 X21.24 Y-20.15 E244.93678
G1 F6000 E242.43678
G0 F900 X23.761 Y-20.15
G0 X26.565 Y-19.5
G0 X21.964 Y-19.5
G1 Z0.8
G0 F12000 X17.835 Y-10.231
G0 X17.662 Y-9.666
G0 X17.558 Y-9.086
G0 X17.523 Y-8.497
G0 X17.051 Y3.1
G0 X16.752 Y4.408
G0 X15.611 Y5.942
G0 X14.005 Y10.514
G0 X13.548 Y13.602
G0 X14.671 Y14.208
G0 X15.302 Y14.495
G0 X15.862 Y14.903
G0 X16.33 Y15.411
G0 X16.69 Y16.006
G0 X16.923 Y16.659
G0 X17.023 Y17.342
G0 X16.985 Y18.035
G0 X16.81 Y18.706
G0 X16.507 Y19.327
G0 X16.087 Y19.878
G0 X15.565 Y20.335
G0 X14.961 Y20.678
G0 X14.305 Y20.895
G0 X13.969 Y20.935
G0 X13.989 Y21.28
G0 X14.157 Y21.907
; TYPE:WALL-OUTER
G1 Z0.3
G1 F6000 E244.93678
G1 F900 X14.139 Y22.459 E244.98155
G1 X14.063 Y23.119 E245.03541
G1 X13.917 Y23.752 E245.08808
G1 X13.771 Y24.169 E245.1239
G1 X13.315 Y24.164 E245.16087
G1 X13.098 Y23.45 E245.22137
G1 X12.987 Y22.816 E245.27355
G1 X12.93 Y21.905 E245.34755
G1 X11.871 Y21.621 E245.43644
G1 X11.58 Y22.091 E245.48125
G1 X11.195 Y22.612 E245.53377
G1 X10.754 Y23.087 E245.58632
G1 X10.406 Y23.388 E245.62362
G1 X10.013 Y23.155 E245.66066
G1 X10.187 Y22.413 E245.72245
G1 X10.405 Y21.824 E245.77337
G1 X10.81 Y21.006 E245.84737
G1 X10.036 Y20.231 E245.93617
G1 X9.547 Y20.492 E245.9811
G1 X8.955 Y20.749 E246.03342
G1 X8.311 Y20.948 E246.08807
G1 X7.883 Y21.028 E246.12337
G1 X7.659 Y20.63 E246.1604
G1 X8.169 Y20.087 E246.22079
G1 X8.666 Y19.671 E246.27333
G1 X9.423 Y19.167 E246.34706
G1 X9.139 Y18.109 E246.43587
G1 X8.573 Y18.09 E246.48179
G1 X7.926 Y18.015 E246.53459
G1 X7.298 Y17.87 E246.58684
G1 X6.878 Y17.723 E246.62292
G1 X6.883 Y17.268 E246.65981
G1 X7.595 Y17.051 E246.72015
G1 X8.231 Y16.939 E246.77251
G1 X9.141 Y16.883 E246.84642
G1 X9.425 Y15.825 E246.93523
G1 X8.951 Y15.528 E246.98058
G1 X8.435 Y15.147 E247.03258
G1 X7.953 Y14.7 E247.08588
G1 X7.66 Y14.358 E247.12239
G1 X7.892 Y13.966 E247.15931
G1 X8.618 Y14.135 E247.21975
G1 X9.235 Y14.361 E247.27302
G1 X10.04 Y14.764 E247.346
G1 X10.815 Y13.988 E247.43491
G1 X10.545 Y13.48 E247.48155
G1 X10.291 Y12.893 E247.53341
G1 X10.1 Y12.267 E247.58647
G1 X10.018 Y11.835 E247.62212
G1 X10.416 Y11.611 E247.65914
G1 X10.964 Y12.125 E247.72005
G1 X11.381 Y12.625 E247.77284
G1 X11.878 Y13.377 E247.84591
G1 X12.936 Y13.093 E247.93472
G1 X12.957 Y12.521 E247.98113
G1 X13.032 Y11.879 E248.03353
G1 X13.174 Y11.26 E248.08502
G1 X13.323 Y10.83 E248.12191
G1 X13.386 Y10.827 E248.12703
G1 X13.773 Y10.835 E248.15841
G1 X13.914 Y11.238 E248.19302
G1 X14.059 Y11.856 E248.24448
G1 X14.136 Y12.5 E248.29707
G1 X14.158 Y13.093 E248.34517
G1 X15.223 Y13.378 E248.43455
G1 X15.517 Y12.906 E248.47964
G1 X15.904 Y12.381 E248.53251
G1 X16.34 Y11.912 E248.58443
G1 X16.688 Y11.611 E248.62173
G1 X17.081 Y11.844 E248.65877
G1 X16.912 Y12.57 E248.7192
G1 X16.686 Y13.187 E248.77247
G1 X16.284 Y13.992 E248.84542
G1 X17.058 Y14.768 E248.93428
G1 X17.547 Y14.507 E248.97921
G1 X18.139 Y14.25 E249.03153
G1 X18.766 Y14.056 E249.08474
G1 X19.212 Y13.971 E249.12155
G1 X19.435 Y14.368 E249.15847
G1 X18.922 Y14.916 E249.21932
G1 X18.426 Y15.33 E249.2717
G1 X17.67 Y15.831 E249.34523
G1 X17.955 Y16.89 E249.43414
G1 X18.522 Y16.909 E249.48013
G1 X19.168 Y16.984 E249.53286
G1 X19.797 Y17.129 E249.58519
G1 X20.216 Y17.276 E249.62119
G1 X20.211 Y17.732 E249.65816
G1 X19.5 Y17.948 E249.7184
G1 X18.847 Y18.062 E249.77214
G1 X17.953 Y18.116 E249.84475
G1 X17.669 Y19.174 E249.93356
G1 X18.144 Y19.471 E249.97898
G1 X18.66 Y19.852 E250.03098
G1 X19.135 Y20.292 E250.08347
G1 X19.435 Y20.641 E250.12078
G1 X19.203 Y21.033 E250.15771
G1 X18.477 Y20.864 E250.21814
G1 X17.859 Y20.638 E250.27149
G1 X17.053 Y20.236 E250.34451
G1 X16.279 Y21.012 E250.43337
G1 X16.55 Y21.519 E250.47997
G1 X16.796 Y22.088 E250.53023
G1 X16.996 Y22.736 E250.58521
G1 X17.076 Y23.164 E250.62051
G1 X16.68 Y23.387 E250.65735
G1 X16.124 Y22.867 E250.71907
G1 X15.709 Y22.369 E250.77162
G1 X15.216 Y21.622 E250.84419
G1 X14.157 Y21.907 E250.93309
G0 F12000 X13.989 Y21.28
G0 X13.547 Y21.397
; TYPE:WALL-INNER
G1 F900 X11.596 Y20.874 E251.09685
G1 X10.171 Y19.446 E251.2604
G1 X9.649 Y17.5 E251.42374
G1 X10.172 Y15.552 E251.58726
G1 X11.595 Y14.126 E251.75059
G1 X13.548 Y13.602 E251.91452
G1 X15.498 Y14.125 E252.0782
G1 X16.922 Y15.552 E252.24163
G1 X17.445 Y17.498 E252.405
G1 X16.923 Y19.446 E252.5685
G1 X15.5 Y20.873 E252.73188
G1 X13.547 Y21.397 E252.89581
G0 F12000 X13.682 Y20.97
G0 X13.604 Y20.324
; TYPE:WALL-OUTER
G1 F900 X13.885 Y20.304 E252.91865
G1 X14.162 Y20.257 E252.94143
G1 X14.433 Y20.181 E252.96424
G1 X14.694 Y20.081 E252.9869
G1 X14.947 Y19.954 E253.00985
G1 X15.186 Y19.801 E253.03286
G1 X15.405 Y19.627 E253.05554
G1 X15.608 Y19.432 E253.07836
G1 X15.791 Y19.216 E253.10131
G1 X15.95 Y18.984 E253.12411
G1 X16.087 Y18.738 E253.14694
G1 X16.196 Y18.478 E253.16979
G1 X16.281 Y18.21 E253.19259
G1 X16.339 Y17.934 E253.21545
G1 X16.368 Y17.654 E253.23827
G1 X16.369 Y17.372 E253.26114
G1 X16.342 Y17.092 E253.28394
G1 X16.288 Y16.817 E253.30666
G1 X16.207 Y16.547 E253.32952
G1 X16.099 Y16.286 E253.35242
G1 X15.964 Y16.038 E253.37531
G1 X15.807 Y15.805 E253.39808
G1 X15.627 Y15.589 E253.42088
G1 X15.427 Y15.391 E253.4437
G1 X15.209 Y15.215 E253.46641
G1 X14.972 Y15.06 E253.48937
G1 X14.721 Y14.931 E253.51225
G1 X14.461 Y14.827 E253.53495
G1 X14.189 Y14.748 E253.55791
G1 X13.912 Y14.698 E253.58073
G1 X13.631 Y14.676 E253.60358
G1 X13.35 Y14.681 E253.62637
G1 X13.07 Y14.714 E253.64923
G1 X12.795 Y14.776 E253.67208
G1 X12.528 Y14.865 E253.6949
G1 X12.271 Y14.98 E253.71772
G1 X12.027 Y15.119 E253.74049
G1 X11.796 Y15.283 E253.76346
G1 X11.585 Y15.468 E253.78621
G1 X11.393 Y15.674 E253.80904
G1 X11.222 Y15.896 E253.83175
G1 X11.075 Y16.135 E253.8545
G1 X10.949 Y16.388 E253.87742
G1 X10.851 Y16.654 E253.9004
G1 X10.781 Y16.927 E253.92325
G1 X10.738 Y17.205 E253.94605
G1 X10.722 Y17.499 E253.96992
G1 X10.736 Y17.781 E253.99281
G1 X10.776 Y18.046 E254.01454
G1 X10.844 Y18.318 E254.03727
G1 X10.939 Y18.584 E254.06017
G1 X11.061 Y18.839 E254.08309
G1 X11.206 Y19.079 E254.10582
G1 X11.375 Y19.304 E254.12863
G1 X11.565 Y19.511 E254.15141
G1 X11.774 Y19.699 E254.1742
G1 X12.003 Y19.866 E254.19718
G1 X12.246 Y20.007 E254.21996
G1 X12.503 Y20.124 E254.24285
G1 X12.768 Y20.215 E254.26557
G1 X13.043 Y20.279 E254.28846
G1 X13.322 Y20.315 E254.31126
G1 X13.604 Y20.324 E254.33414
G0 F12000 X13.682 Y20.97
G0 X13.617 Y20.979
G0 X13.617 Y20.975
; TYPE:WALL-INNER
G1 F900 X13.964 Y20.95 E254.36234
G1 X14.305 Y20.892 E254.39038
G1 X14.637 Y20.799 E254.41834
G1 X14.957 Y20.676 E254.44613
G1 X15.269 Y20.52 E254.47441
G1 X15.564 Y20.331 E254.50281
G1 X15.833 Y20.117 E254.53068
G1 X16.083 Y19.877 E254.55878
G1 X16.308 Y19.611 E254.58702
G1 X16.503 Y19.326 E254.61502
G1 X16.672 Y19.023 E254.64314
G1 X16.807 Y18.703 E254.6713
G1 X16.91 Y18.375 E254.69917
G1 X16.982 Y18.035 E254.72735
G1 X17.018 Y17.689 E254.75555
G1 X17.019 Y17.342 E254.78368
G1 X16.986 Y16.998 E254.8117
G1 X16.919 Y16.66 E254.83963
G1 X16.82 Y16.328 E254.86772
G1 X16.686 Y16.006 E254.896
G1 X16.521 Y15.701 E254.92411
G1 X16.328 Y15.415 E254.95208
G1 X16.106 Y15.148 E254.98023
G1 X15.86 Y14.906 E255.00821
G1 X15.592 Y14.689 E255.03617
G1 X15.299 Y14.497 E255.06457
G1 X14.99 Y14.338 E255.09274
G1 X14.673 Y14.212 E255.12039
G1 X14.338 Y14.115 E255.14867
G1 X13.996 Y14.053 E255.17685
G1 X13.65 Y14.025 E255.20499
G1 X13.305 Y14.032 E255.23297
G1 X12.96 Y14.073 E255.26113
G1 X12.621 Y14.149 E255.2893
G1 X12.293 Y14.258 E255.31732
G1 X11.977 Y14.399 E255.34537
G1 X11.677 Y14.57 E255.37337
G1 X11.393 Y14.772 E255.40162
G1 X11.132 Y15.001 E255.42977
G1 X10.896 Y15.253 E255.45776
G1 X10.686 Y15.527 E255.48575
G1 X10.506 Y15.819 E255.51356
G1 X10.351 Y16.131 E255.5418
G1 X10.23 Y16.461 E255.5703
G1 X10.144 Y16.796 E255.59834
G1 X10.091 Y17.137 E255.62631
G1 X10.071 Y17.498 E255.65563
G1 X10.089 Y17.846 E255.68388
G1 X10.138 Y18.173 E255.71068
G1 X10.221 Y18.507 E255.73858
G1 X10.338 Y18.835 E255.76682
G1 X10.489 Y19.149 E255.79506
G1 X10.667 Y19.443 E255.82293
G1 X10.874 Y19.72 E255.85096
G1 X11.108 Y19.974 E255.87896
G1 X11.365 Y20.205 E255.90698
G1 X11.648 Y20.411 E255.93535
G1 X11.947 Y20.585 E255.9634
G1 X12.262 Y20.729 E255.99148
G1 X12.589 Y20.84 E256.01947
G1 X12.927 Y20.92 E256.04763
G1 X13.27 Y20.964 E256.07567
G1 X13.617 Y20.975 E256.10382
G0 F12000 X13.617 Y20.979
G0 X13.547 Y21.397
G0 X13.539 Y21.653
; TYPE:FILL
G1 F900 X13.54 Y21.681 E256.10565
G1 X13.553 Y22.452 E256.15614
G0 F12000 X13.563 Y22.609
G1 F900 X13.571 Y22.985 E256.17716
G1 X13.578 Y23.221 E256.1859
G1 X13.583 Y23.559 E256.19341
G1 X13.576 Y23.741 E256.19745
G0 F12000 X13.527 Y23.756
G1 F900 X13.51 Y23.516 E256.20174
G1 F6000 E253.70174
G0 F900 X13.527 Y23.756
G0 X13.576 Y23.741
G0 X13.583 Y23.559
G0 X13.578 Y23.221
G0 X13.571 Y22.985
G0 X13.563 Y22.609
G0 X13.553 Y22.452
G0 X13.54 Y21.681
G0 X13.539 Y21.653
G0 X13.547 Y21.397
G0 X13.617 Y20.979
G0 X13.617 Y20.975
G0 X13.27 Y20.964
G0 X12.927 Y20.92
G0 X12.589 Y20.84
G0 X12.262 Y20.729
G0 X11.947 Y20.585
G0 X11.648 Y20.411
G0 X11.365 Y20.205
G0 X11.108 Y19.974
G0 X10.874 Y19.72
G0 X10.667 Y19.443
G0 X10.489 Y19.149
G0 X10.338 Y18.835
G0 X10.221 Y18.507
G0 X10.138 Y18.173
G0 X10.089 Y17.846
G0 X10.071 Y17.498
G0 X10.091 Y17.137
G0 X10.144 Y16.796
G0 X10.23 Y16.461
G0 X10.351 Y16.131
G0 X10.357 Y16.118
G1 Z0.8
G0 F12000 X13.547 Y21.397
G0 X11.596 Y20.874
G0 X11.007 Y21.928
G1 Z0.3
G1 F6000 E256.20174
G1 F900 X10.831 Y22.249 E256.22266
G1 X10.718 Y22.462 E256.23147
G1 X10.551 Y22.755 E256.23971
G1 X10.457 Y22.913 E256.24421
G0 F12000 X10.402 Y22.899
G1 F900 X10.514 Y22.683 E256.24903
G0 F12000 X11.074 Y21.794
G1 F900 X11.45 Y21.117 E256.29964
G1 X11.463 Y21.093 E256.30168
G0 F12000 X11.596 Y20.874
G0 X10.171 Y19.446
G0 X9.946 Y19.569
G1 F900 X9.922 Y19.584 E256.30352
G1 X9.258 Y19.983 E256.35395
G0 F12000 X9.127 Y20.07
G1 F900 X8.814 Y20.257 E256.37487
G1 X8.618 Y20.382 E256.38369
G1 X8.319 Y20.559 E256.39127
G1 X8.155 Y20.646 E256.39532
G0 F12000 X8.118 Y20.611
G1 F900 X8.319 Y20.474 E256.3996
G0 F12000 X10.171 Y19.446
G0 X9.649 Y17.5
G0 X8.43 Y17.514
G1 F900 X8.06 Y17.523 E256.4201
G1 X7.823 Y17.53 E256.42897
G1 X7.487 Y17.535 E256.43635
G1 X7.303 Y17.529 E256.44039
G0 F12000 X7.288 Y17.48
G1 F900 X7.529 Y17.462 E256.44467
G0 F12000 X8.579 Y17.505
G1 F900 X9.365 Y17.494 E256.49585
G1 X9.393 Y17.492 E256.49793
G0 F12000 X9.649 Y17.5
G0 X10.172 Y15.552
G0 X9.953 Y15.418
G1 F900 X9.928 Y15.405 E256.49978
G1 X9.256 Y15.027 E256.55026
G0 F12000 X9.122 Y14.961
G1 F900 X8.801 Y14.785 E256.57136
G1 X8.586 Y14.672 E256.58054
G1 X8.282 Y14.501 E256.58811
G1 X8.126 Y14.403 E256.59211
G0 F12000 X8.137 Y14.353
G1 F900 X8.355 Y14.458 E256.59633
G0 F12000 X10.172 Y15.552
G0 X11.595 Y14.126
G0 X10.983 Y13.085
G1 F900 X10.79 Y12.774 E256.61701
G1 X10.657 Y12.558 E256.62628
G1 X10.485 Y12.265 E256.63366
G1 X10.401 Y12.107 E256.63754
G0 F12000 X10.436 Y12.07
G1 F900 X10.568 Y12.266 E256.64169
G0 F12000 X11.058 Y13.199
G1 F900 X11.46 Y13.874 E256.69284
G1 X11.475 Y13.899 E256.69502
G0 F12000 X11.595 Y14.126
G0 X13.548 Y13.602
G0 X13.547 Y13.344
G1 F900 X13.547 Y13.323 E256.69656
G1 X13.546 Y12.54 E256.74841
G1 X13.547 Y12.479 E256.75235
G1 X13.546 Y11.919 E256.77917
G1 X13.548 Y11.834 E256.78283
G0 F12000 X13.537 Y11.883
G1 F900 X13.487 Y11.575 E256.80777
G1 X13.481 Y11.599 E256.81228
G1 X13.516 Y11.264 E256.82031
G1 F6000 E254.32031
G0 F900 X13.481 Y11.599
G0 X13.487 Y11.575
G0 X13.537 Y11.883
G0 X13.548 Y11.834
G0 X13.546 Y11.919
G0 X13.547 Y12.479
G0 X13.546 Y12.54
G0 X13.547 Y13.323
G0 X13.547 Y13.344
G0 X13.548 Y13.602
G0 X11.595 Y14.126
G0 X11.475 Y13.899
G0 X11.46 Y13.874
G0 X11.058 Y13.199
G0 X10.568 Y12.266
G0 X10.436 Y12.07
G0 X10.401 Y12.107
G0 X10.485 Y12.265
G0 X10.657 Y12.558
G0 X10.79 Y12.774
G0 X10.983 Y13.085
G0 X11.595 Y14.126
G0 X11.075 Y14.647
G1 Z0.8
G0 F12000 X13.548 Y13.602
G0 X15.498 Y14.125
G0 X16.085 Y13.075
G1 Z0.3
G1 F6000 E256.82031
G1 F900 X16.262 Y12.75 E256.84145
G1 X16.376 Y12.535 E256.85028
G1 X16.543 Y12.243 E256.85846
G1 X16.636 Y12.086 E256.8629
G0 F12000 X16.691 Y12.099
G1 F900 X16.58 Y12.315 E256.86769
G0 F12000 X15.498 Y14.125
G0 X16.017 Y13.21
G1 F900 X15.642 Y13.882 E256.91817
G1 X15.629 Y13.905 E256.92014
G0 F12000 X15.498 Y14.125
G0 X16.922 Y15.552
G0 X17.147 Y15.429
G1 F900 X17.171 Y15.414 E256.92199
G1 X17.835 Y15.017 E256.97255
G0 F12000 X17.956 Y14.937
G1 F900 X18.268 Y14.746 E256.9939
G1 X18.483 Y14.61 E257.00288
G1 X18.778 Y14.442 E257.01097
G1 X18.933 Y14.355 E257.0152
G0 F12000 X18.973 Y14.393
G1 F900 X18.774 Y14.52 E257.01974
G0 F12000 X16.922 Y15.552
G0 X17.445 Y17.498
G0 X18.657 Y17.485
G1 F900 X19.026 Y17.474 E257.04018
G1 X19.271 Y17.469 E257.04932
G1 X19.606 Y17.463 E257.0568
G1 X19.789 Y17.47 E257.06089
G0 F12000 X19.804 Y17.52
G1 F900 X19.563 Y17.536 E257.06523
G0 F12000 X18.515 Y17.494
G1 F900 X17.729 Y17.504 E257.11641
G1 X17.701 Y17.506 E257.11849
G0 F12000 X17.445 Y17.498
G0 X16.923 Y19.446
G0 X17.14 Y19.581
G1 F900 X17.165 Y19.595 E257.12036
G1 X17.842 Y19.973 E257.17094
G0 F12000 X17.976 Y20.04
G1 F900 X18.295 Y20.214 E257.19188
G1 X18.509 Y20.327 E257.20069
G1 X18.805 Y20.496 E257.20885
G1 X18.961 Y20.589 E257.2132
G0 F12000 X18.948 Y20.644
G1 F900 X18.732 Y20.533 E257.2179
G0 F12000 X16.923 Y19.446
G0 X15.5 Y20.873
G0 X16.112 Y21.914
G1 F900 X16.3 Y22.222 E257.23837
G1 X16.427 Y22.426 E257.24772
G1 X16.605 Y22.724 E257.25534
G1 X16.694 Y22.892 E257.25952
G0 F12000 X16.658 Y22.929
G1 F900 X16.519 Y22.724 E257.2639
G0 F12000 X16.034 Y21.795
G1 F900 X15.633 Y21.124 E257.3149
G1 X15.618 Y21.1 E257.317
; Layer Change GCode
; LAYER:1
G0 F12000 X15.618 Y21.1 Z0.5
G0 X15.5 Y20.873
G0 X13.617 Y20.979
G0 X12.926 Y20.923
G0 X12.261 Y20.732
G0 X11.645 Y20.413
G0 X11.106 Y19.977
G0 X10.664 Y19.446
G0 X10.334 Y18.836
G0 X10.134 Y18.174
G0 X10.067 Y17.498
G0 X10.172 Y15.552
G0 X7.269 Y14.403
G0 X4.04 Y14.403
G0 X-2.92 Y8.52
G0 X-4.045 Y7.531
G0 X-5.101 Y7.151
G0 X-5.63 Y6.914
G0 X-6.88 Y6.239
G0 X-8.202 Y7.506
G0 X-18.214 Y11.454
G0 X-18.469 Y11.476
G0 X-18.483 Y11.542
G0 X-19.362 Y11.831
G0 X-19.848 Y11.943
G0 X-19.362 Y11.831
G0 X-18.956 Y11.362
; TYPE:WALL-INNER
G1 F2400 X-18.954 Y11.035 E257.33024
G1 X-18.92 Y11.202 E257.33951
G0 F12000 X-19.028 Y11.045
G1 F2400 X-19.037 Y11.009 E257.34105
G1 X-21.59 Y10.792 E257.44757
G0 F12000 X-21.668 Y10.796
G1 F2400 X-21.669 Y10.893 E257.45505
G1 X-21.728 Y11.13 E257.4652
G0 F12000 X-21.746 Y10.8
G1 F2400 X-21.749 Y10.764 E257.46671
G1 X-24.229 Y10.117 E257.57326
G0 F12000 X-24.307 Y10.108
G1 F2400 X-24.325 Y10.203 E257.58076
G1 X-24.421 Y10.425 E257.59081
G0 F12000 X-24.385 Y10.1
G1 F2400 X-24.38 Y10.064 E257.59232
G1 X-26.714 Y9.008 E257.69883
G0 F12000 X-26.789 Y8.986
G1 F2400 X-26.823 Y9.077 E257.70628
G1 X-26.956 Y9.28 E257.71637
G0 F12000 X-26.864 Y8.964
G1 F2400 X-26.854 Y8.93 E257.71784
G1 X-28.975 Y7.495 E257.82431
G0 F12000 X-29.045 Y7.461
G1 F2400 X-29.094 Y7.545 E257.83176
G1 X-29.259 Y7.722 E257.84182
G0 F12000 X-29.116 Y7.427
G1 F2400 X-29.1 Y7.394 E257.84335
G1 X-30.95 Y5.62 E257.94991
G0 F12000 X-31.013 Y5.575
G1 F2400 X-31.075 Y5.649 E257.95735
G1 X-31.268 Y5.796 E257.96744
G0 F12000 X-31.077 Y5.53
G1 F2400 X-31.056 Y5.5 E257.96896
G1 X-32.578 Y3.439 E258.07548
G0 F12000 X-32.632 Y3.384
G1 F2400 X-32.706 Y3.446 E258.08287
G1 X-32.918 Y3.557 E258.09282
G0 F12000 X-32.686 Y3.329
G1 F2400 X-32.661 Y3.304 E258.09429
G1 X-33.816 Y1.015 E258.20088
G0 F12000 X-33.861 Y0.952
G1 F2400 X-33.943 Y1 E258.2082
G1 X-34.172 Y1.074 E258.21821
G0 F12000 X-33.906 Y0.889
G1 F2400 X-33.875 Y0.867 E258.21979
G1 X-34.625 Y-1.582 E258.32627
G0 F12000 X-34.658 Y-1.652
G1 F2400 X-34.747 Y-1.617 E258.33368
G1 X-34.986 Y-1.584 E258.34371
G0 F12000 X-34.691 Y-1.722
G1 F2400 X-34.656 Y-1.739 E258.34532
G1 X-34.985 Y-4.28 E258.45185
G0 F12000 X-35.005 Y-4.354
G1 F2400 X-35.098 Y-4.335 E258.45924
G1 X-35.339 Y-4.343 E258.46926
G0 F12000 X-35.025 Y-4.429
G1 F2400 X-34.99 Y-4.439 E258.47077
G1 X-34.881 Y-6.999 E258.5773
G0 F12000 X-34.888 Y-7.076
G1 F2400 X-34.986 Y-7.074 E258.58478
G1 X-35.223 Y-7.122 E258.59484
G0 F12000 X-34.896 Y-7.154
G1 F2400 X-34.861 Y-7.158 E258.5963
G1 X-34.318 Y-9.663 E258.70287
G0 F12000 X-34.312 Y-9.74
G1 F2400 X-34.408 Y-9.754 E258.71031
G1 X-34.633 Y-9.841 E258.72033
G0 F12000 X-34.306 Y-9.818
G1 F2400 X-34.273 Y-9.815 E258.72171
G1 X-33.318 Y-12.192 E258.82821
G0 F12000 X-33.299 Y-12.268
G1 F2400 X-33.392 Y-12.298 E258.83575
G1 X-33.601 Y-12.423 E258.84587
G0 F12000 X-33.281 Y-12.345
G1 F2400 X-33.245 Y-12.336 E258.84741
G1 X-31.901 Y-14.516 E258.95389
G0 F12000 X-31.87 Y-14.588
G1 F2400 X-31.957 Y-14.635 E258.96148
G1 X-32.142 Y-14.793 E258.97159
G0 F12000 X-31.839 Y-14.661
G1 F2400 X-31.806 Y-14.647 E258.97308
G1 X-30.112 Y-16.568 E259.07957
G0 F12000 X-30.069 Y-16.633
G1 F2400 X-30.146 Y-16.692 E259.087
G1 X-30.301 Y-16.878 E259.09707
G0 F12000 X-30.027 Y-16.699
G1 F2400 X-29.997 Y-16.679 E259.09857
G1 X-28.003 Y-18.288 E259.20509
G0 F12000 X-27.949 Y-18.345
G1 F2400 X-28.015 Y-18.417 E259.21258
G1 X-28.136 Y-18.626 E259.22262
G0 F12000 X-27.896 Y-18.402
G1 F2400 X-27.87 Y-18.378 E259.22409
G1 X-25.633 Y-19.628 E259.33063
G0 F12000 X-25.571 Y-19.675
G1 F2400 X-25.623 Y-19.756 E259.33805
G1 X-25.707 Y-19.984 E259.34815
G0 F12000 X-25.509 Y-19.723
G1 F2400 X-25.486 Y-19.693 E259.34972
G1 X-23.072 Y-20.547 E259.45618
G0 F12000 X-23.002 Y-20.583
G1 F2400 X-23.041 Y-20.674 E259.4637
G1 X-23.085 Y-20.912 E259.47377
G0 F12000 X-22.933 Y-20.62
G1 F2400 X-22.916 Y-20.588 E259.47527
G1 X-20.39 Y-21.018 E259.5818
G0 F12000 X-20.316 Y-21.042
G1 F2400 X-20.339 Y-21.136 E259.58926
G1 X-20.342 Y-21.377 E259.59928
G0 F12000 X-20.242 Y-21.066
G1 F2400 X-20.231 Y-21.032 E259.60077
G1 X-17.667 Y-21.032 E259.70737
G0 F12000 X-17.591 Y-21.042
G1 F2400 X-17.597 Y-21.137 E259.7147
G1 X-17.56 Y-21.375 E259.72471
G0 F12000 X-17.515 Y-21.053
G1 F2400 X-17.509 Y-21.017 E259.72623
G1 X-14.984 Y-20.587 E259.83272
G0 F12000 X-14.905 Y-20.585
G1 F2400 X-14.896 Y-20.681 E259.84015
G1 X-14.818 Y-20.911 E259.85025
G0 F12000 X-14.826 Y-20.583
G1 F2400 X-14.828 Y-20.544 E259.85187
G1 X-12.413 Y-19.69 E259.95837
G0 F12000 X-12.336 Y-19.674
G1 F2400 X-12.31 Y-19.768 E259.96584
G1 X-12.196 Y-19.981 E259.97589
G0 F12000 X-12.26 Y-19.659
G1 F2400 X-12.267 Y-19.624 E259.97737
G1 X-10.03 Y-18.374 E260.08391
G0 F12000 X-9.957 Y-18.346
G1 F2400 X-9.916 Y-18.433 E260.09132
G1 X-9.767 Y-18.624 E260.10139
G0 F12000 X-9.884 Y-18.319
G1 F2400 X-9.898 Y-18.283 E260.103
G1 X-7.904 Y-16.674 E260.20952
G0 F12000 X-7.837 Y-16.634
G1 F2400 X-7.781 Y-16.713 E260.21703
G1 X-7.602 Y-16.876 E260.22709
G0 F12000 X-7.77 Y-16.594
G1 F2400 X-7.789 Y-16.562 E260.22864
G1 X-6.095 Y-14.641 E260.33512
G0 F12000 X-6.035 Y-14.59
G1 F2400 X-5.968 Y-14.658 E260.34251
G1 X-5.763 Y-14.789 E260.35263
G0 F12000 X-5.976 Y-14.54
G1 F2400 X-6.002 Y-14.509 E260.35431
G1 X-4.658 Y-12.329 E260.46079
G0 F12000 X-4.608 Y-12.269
G1 F2400 X-4.529 Y-12.325 E260.4682
G1 X-4.307 Y-12.418 E260.47821
G0 F12000 X-4.558 Y-12.21
G1 F2400 X-4.588 Y-12.185 E260.47983
G1 X-3.632 Y-9.808 E260.58635
G0 F12000 X-3.593 Y-9.741
G1 F2400 X-3.506 Y-9.782 E260.59371
G1 X-3.272 Y-9.837 E260.60371
G0 F12000 X-3.554 Y-9.674
G1 F2400 X-3.587 Y-9.655 E260.60529
G1 X-3.044 Y-7.15 E260.71186
G0 F12000 X-3.017 Y-7.077
G1 F2400 X-2.926 Y-7.104 E260.7192
G1 X-2.685 Y-7.117 E260.72923
G0 F12000 X-2.99 Y-7.005
G1 F2400 X-3.028 Y-6.991 E260.73091
G1 X-2.916 Y-4.43 E260.83749
G0 F12000 X-2.901 Y-4.354
G1 F2400 X-2.806 Y-4.364 E260.84481
G1 X-2.568 Y-4.337 E260.85476
G0 F12000 X-2.887 Y-4.278
G1 F2400 X-2.925 Y-4.271 E260.85637
G1 X-3.251 Y-1.731 E260.96284
G0 F12000 X-3.249 Y-1.653
G1 F2400 X-3.151 Y-1.646 E260.9703
G1 X-2.921 Y-1.579 E260.98026
G0 F12000 X-3.248 Y-1.575
G1 F2400 X-3.283 Y-1.574 E260.98171
G1 X-4.036 Y0.874 E261.08819
G0 F12000 X-4.048 Y0.951
G1 F2400 X-3.953 Y0.973 E261.09567
G1 X-3.736 Y1.079 E261.10571
G0 F12000 X-4.06 Y1.029
G1 F2400 X-4.095 Y1.023 E261.10719
G1 X-5.25 Y3.311 E261.21374
G0 F12000 X-5.274 Y3.384
G1 F2400 X-5.185 Y3.421 E261.22112
G1 X-4.99 Y3.562 E261.23113
G0 F12000 X-5.298 Y3.458
G1 F2400 X-5.334 Y3.446 E261.23271
G1 X-6.856 Y5.507 E261.33923
G0 F12000 X-6.893 Y5.575
G1 F2400 X-6.811 Y5.627 E261.34663
G1 X-6.643 Y5.799 E261.35662
G0 F12000 X-6.93 Y5.644
G1 F2400 X-6.963 Y5.626 E261.35819
G1 X-8.814 Y7.4 E261.46478
G0 F12000 X-8.862 Y7.461
G1 F2400 X-8.79 Y7.526 E261.47218
G1 X-8.653 Y7.723 E261.48215
G0 F12000 X-8.91 Y7.522
G1 F2400 X-8.938 Y7.5 E261.48363
G1 X-11.061 Y8.934 E261.59015
G0 F12000 X-11.118 Y8.986
G1 F2400 X-11.058 Y9.061 E261.5975
G1 X-10.957 Y9.28 E261.60753
G0 F12000 X-11.175 Y9.038
G1 F2400 X-11.2 Y9.011 E261.60906
G1 X-13.537 Y10.068 E261.71569
G0 F12000 X-13.602 Y10.109
G1 F2400 X-13.557 Y10.193 E261.72307
G1 X-13.493 Y10.425 E261.73308
G0 F12000 X-13.668 Y10.151
G1 F2400 X-13.688 Y10.119 E261.73465
G1 X-16.165 Y10.766 E261.84108
G0 F12000 X-16.237 Y10.796
G1 F2400 X-16.206 Y10.889 E261.84857
G1 X-16.183 Y11.131 E261.85867
G0 F12000 X-16.31 Y10.827
G1 F2400 X-16.325 Y10.792 E261.86026
G1 X-18.878 Y11.009 E261.96678
G0 F12000 X-18.732 Y12.664
G1 F2400 X-18.469 Y11.476 E262.01737
G1 X-16.645 Y11.321 E262.09347
G1 X-16.134 Y12.541 E262.14846
G1 X-16.097 Y12.629 E262.15243
G0 F12000 X-15.937 Y12.647
G1 F2400 X-15.833 Y13.148 E262.17371
G0 F12000 X-15.805 Y12.906
G1 F2400 X-15.92 Y12.503 E262.20622
G0 F12000 X-15.744 Y12.377
G1 F2400 X-15.684 Y11.157 E262.257
G1 X-13.915 Y10.695 E262.33301
G1 X-13.211 Y11.802 E262.38756
G1 X-13.152 Y11.895 E262.39214
G0 F12000 X-12.992 Y11.886
G1 F2400 X-12.805 Y12.36 E262.41332
G0 F12000 X-12.818 Y12.118
G1 F2400 X-13 Y11.732 E262.44685
G0 F12000 X-12.848 Y11.569
G1 F2400 X-12.996 Y10.372 E262.497
G1 X-11.327 Y9.617 E262.57316
G1 X-10.45 Y10.587 E262.62752
G1 X-10.375 Y10.67 E262.63217
G0 F12000 X-10.218 Y10.634
G1 F2400 X-9.953 Y11.071 E262.65342
G0 F12000 X-10.007 Y10.834
G1 F2400 X-10.252 Y10.483 E262.68709
G0 F12000 X-10.13 Y10.297
G1 F2400 X-10.477 Y9.142 E262.73723
G1 X-8.96 Y8.118 E262.81333
G1 X-7.925 Y8.93 E262.86802
G1 X-7.84 Y8.996 E262.87249
G0 F12000 X-7.692 Y8.934
G1 F2400 X-7.36 Y9.317 E262.89357
G0 F12000 X-7.452 Y9.094
G1 F2400 X-7.75 Y8.794 E262.92665
G0 F12000 X-7.661 Y8.592
G1 F2400 X-8.202 Y7.506 E262.97709
G1 X-6.88 Y6.239 E263.05322
G1 X-5.725 Y6.863 E263.1078
G1 X-5.63 Y6.914 E263.11229
G0 F12000 X-5.495 Y6.828
G1 F2400 X-5.101 Y7.151 E263.13347
G0 F12000 X-5.23 Y6.946
G1 F2400 X-5.576 Y6.7 E263.16668
G0 F12000 X-5.522 Y6.486
G1 F2400 X-6.236 Y5.508 E263.21703
G1 X-5.148 Y4.036 E263.29313
G1 X-3.901 Y4.457 E263.34785
G1 X-3.794 Y4.493 E263.35254
G0 F12000 X-3.677 Y4.387
G1 F2400 X-3.24 Y4.636 E263.37345
G0 F12000 X-3.4 Y4.458
G1 F2400 X-3.779 Y4.273 E263.40642
G0 F12000 X-3.765 Y4.053
G1 F2400 X-4.637 Y3.208 E263.4569
G1 X-3.812 Y1.573 E263.53304
G1 X-2.516 Y1.777 E263.58758
G1 X-2.413 Y1.793 E263.59192
G0 F12000 X-2.313 Y1.666
G1 F2400 X-1.833 Y1.84 E263.61314
G0 F12000 X-2.023 Y1.69
G1 F2400 X-2.432 Y1.573 E263.64643
G0 F12000 X-2.451 Y1.353
G1 F2400 X-3.45 Y0.669 E263.69676
G1 X-2.912 Y-1.079 E263.7728
G1 X-1.588 Y-1.099 E263.82785
G1 X-1.494 Y-1.1 E263.83176
G0 F12000 X-1.418 Y-1.241
G1 F2400 X-0.918 Y-1.151 E263.85288
G0 F12000 X-1.13 Y-1.266
G1 F2400 X-1.544 Y-1.31 E263.88511
G0 F12000 X-1.595 Y-1.52
G1 F2400 X-2.708 Y-2.032 E263.93605
G1 X-2.475 Y-3.846 E264.01209
G1 X-1.177 Y-4.088 E264.06698
G1 X-1.084 Y-4.105 E264.07091
G0 F12000 X-1.032 Y-4.258
G1 F2400 X-0.518 Y-4.255 E264.09228
G0 F12000 X-0.749 Y-4.333
G1 F2400 X-1.17 Y-4.305 E264.12512
G0 F12000 X-1.256 Y-4.506
G1 F2400 X-2.432 Y-4.819 E264.17571
G1 X-2.512 Y-6.648 E264.25183
G1 X-1.273 Y-7.106 E264.30674
G1 X-1.18 Y-7.14 E264.31086
G0 F12000 X-1.155 Y-7.299
G1 F2400 X-0.653 Y-7.382 E264.33202
G0 F12000 X-0.891 Y-7.42
G1 F2400 X-1.301 Y-7.322 E264.36486
G0 F12000 X-1.422 Y-7.505
G1 F2400 X-2.633 Y-7.615 E264.41541
G1 X-3.021 Y-9.404 E264.49152
G1 X-1.875 Y-10.065 E264.54652
G1 X-1.784 Y-10.118 E264.5509
G0 F12000 X-1.786 Y-10.276
G1 F2400 X-1.312 Y-10.44 E264.57176
G0 F12000 X-1.55 Y-10.437
G1 F2400 X-1.936 Y-10.275 E264.60437
G0 F12000 X-2.088 Y-10.432
G1 F2400 X-3.305 Y-10.335 E264.65513
G1 X-3.988 Y-12.033 E264.73122
G1 X-2.969 Y-12.88 E264.78631
G1 X-2.893 Y-12.943 E264.79041
G0 F12000 X-2.922 Y-13.1
G1 F2400 X-2.477 Y-13.345 E264.81153
G0 F12000 X-2.714 Y-13.301
G1 F2400 X-3.067 Y-13.074 E264.84416
G0 F12000 X-3.241 Y-13.205
G1 F2400 X-4.425 Y-12.904 E264.89495
G1 X-5.385 Y-14.462 E264.97104
G1 X-4.528 Y-15.464 E265.02585
G1 X-4.462 Y-15.542 E265.0301
G0 F12000 X-4.517 Y-15.692
G1 F2400 X-4.12 Y-16.009 E265.05122
G0 F12000 X-4.346 Y-15.926
G1 F2400 X-4.658 Y-15.641 E265.08422
G0 F12000 X-4.854 Y-15.741
G1 F2400 X-5.963 Y-15.247 E265.13469
G1 X-7.173 Y-16.619 E265.21075
G1 X-6.495 Y-17.758 E265.26585
G1 X-6.448 Y-17.837 E265.26968
G0 F12000 X-6.529 Y-17.977
G1 F2400 X-6.187 Y-18.36 E265.29102
G0 F12000 X-6.398 Y-18.238
G1 F2400 X-6.653 Y-17.905 E265.32353
G0 F12000 X-6.858 Y-17.974
G1 F2400 X-7.876 Y-17.294 E265.37442
G1 X-9.3 Y-18.444 E265.45052
G1 X-8.826 Y-19.676 E265.5054
G1 X-8.788 Y-19.774 E265.50977
G0 F12000 X-8.89 Y-19.896
G1 F2400 X-8.623 Y-20.324 E265.53075
G0 F12000 X-8.807 Y-20.171
G1 F2400 X-9.006 Y-19.801 E265.56355
G0 F12000 X-9.224 Y-19.828
G1 F2400 X-10.107 Y-18.99 E265.61416
G1 X-11.705 Y-19.883 E265.69027
G1 X-11.444 Y-21.18 E265.74527
G1 X-11.425 Y-21.278 E265.74942
G0 F12000 X-11.547 Y-21.382
G1 F2400 X-11.354 Y-21.853 E265.77058
G0 F12000 X-11.511 Y-21.669
G1 F2400 X-11.642 Y-21.27 E265.80323
G0 F12000 X-11.86 Y-21.263
G1 F2400 X-12.593 Y-20.284 E265.85408
G1 X-14.318 Y-20.894 E265.93015
G1 X-14.281 Y-22.216 E265.98513
G1 X-14.279 Y-22.32 E265.98946
G0 F12000 X-14.415 Y-22.401
G1 F2400 X-14.305 Y-22.893 E266.01042
G0 F12000 X-14.428 Y-22.688
G1 F2400 X-14.492 Y-22.273 E266.0431
G0 F12000 X-14.705 Y-22.227
G1 F2400 X-15.261 Y-21.141 E266.09382
G1 X-17.065 Y-21.449 E266.16991
G1 X-17.253 Y-22.756 E266.22481
G1 X-17.267 Y-22.858 E266.22909
G0 F12000 X-17.416 Y-22.915
G1 F2400 X-17.39 Y-23.423 E266.25023
G0 F12000 X-17.477 Y-23.197
G1 F2400 X-17.47 Y-22.776 E266.28304
G0 F12000 X-17.673 Y-22.694
G1 F2400 X-18.035 Y-21.532 E266.33364
G1 X-19.867 Y-21.532 E266.40981
G1 X-20.267 Y-22.777 E266.46417
G1 X-20.302 Y-22.886 E266.46893
G0 F12000 X-20.459 Y-22.918
G1 F2400 X-20.52 Y-23.422 E266.49004
G0 F12000 X-20.568 Y-23.186
G1 F2400 X-20.49 Y-22.765 E266.52375
G0 F12000 X-20.678 Y-22.644
G1 F2400 X-20.837 Y-21.449 E266.57387
G1 X-22.641 Y-21.142 E266.64995
G1 X-23.253 Y-22.313 E266.70489
G1 X-23.298 Y-22.399 E266.70892
G0 F12000 X-23.459 Y-22.403
G1 F2400 X-23.605 Y-22.894 E266.73022
G0 F12000 X-23.612 Y-22.651
G1 F2400 X-23.463 Y-22.257 E266.76297
G0 F12000 X-23.628 Y-22.115
G1 F2400 X-23.585 Y-20.896 E266.81368
